/* XPM */
static char *verge_xpm[] = {
"16 16 89 1",
"! c #34BDE2",
"# c #34C4E9",
"$ c #324C7B",
"% c #310032",
"& c #310033",
"' c #324574",
"( c #34C4E8",
") c #324575",
"* c #324B7A",
"+ c #34C2E7",
", c #338EB7",
"- c #310337",
". c #310137",
"/ c #311246",
"0 c #34ABD1",
"1 c #34C0E4",
"2 c #338DB6",
"3 c #34C3E7",
"4 c #34C1E5",
"5 c #34BEE3",
"6 c #322E5F",
"7 c #310034",
"8 c #336A96",
"9 c #34C5E9",
": c #322D5F",
"; c #34C0E5",
"< c #33A1C8",
"= c #3379A4",
"> c #310135",
"? c #312355",
"@ c #34BADF",
"A c #312356",
"B c #3378A3",
"C c #33A1C9",
"D c #32285A",
"E c #34BCE1",
"F c #34BFE4",
"G c #34B4DA",
"H c #311C4F",
"I c #310136",
"J c #338BB4",
"K c #338BB5",
"L c #311B4E",
"M c #32295B",
"N c #310236",
"O c #3389B3",
"P c #34C3E8",
"Q c #33628F",
"R c #323C6C",
"S c #323C6D",
"T c #33618E",
"U c #323D6D",
"V c #34C2E6",
"W c #34A7CE",
"X c #310E42",
"Y c #310237",
"Z c #310439",
"[ c #34A6CD",
"] c #310338",
"^ c #31083C",
"_ c #349DC5",
"` c #34C1E6",
"a c #324A79",
"b c #324A78",
"c c #31083D",
"d c #325482",
"e c #3395BE",
"f c #310539",
"g c #3395BD",
"h c #311347",
"i c #34ADD3",
"j c #323465",
"k c #336B98",
"l c #3380AA",
"m c #336C98",
"n c #34B9DE",
"o c #34B8DD",
"p c #311D50",
"q c #34B7DD",
"r c #310134",
"s c #3382AC",
"t c #3383AD",
"u c #323667",
"v c #34B0D6",
"w c #323767",
"x c #31063A",
"y c #3396BE",
"z c #310031",
"{ c #325684",
"!#$%&'(!!#)&%*#!",
"!+,-./0110/.-23!",
"4!567%8998%7:!!;",
"<;#=&>?@@A>&B#;C",
"DEFGHI>JK>ILG1EM",
"NOP9Q%7RS7%T9PON",
"&UV;WXYZZYX[;VU&",
"]^_`(a%ZZ%b(`_c]",
"Z%d9+ef]]fg+9d%Z",
"ZYhi;1j77j1;ihYZ",
"ZZ%k9(l77l(9m%ZZ",
"ZZ>?nFoppqFnA>ZZ",
"ZZZrs(9QQ9(trZZZ",
"ZZZ&u;FvvF;w&ZZZ",
"ZZZ]xyVFFVyx]ZZZ",
"ZZZZz{9!!9{zZZZZ"
};
