/* XPM */
static char *verge_xpm[] = {
"256 256 540 2",
"!! c #34BDE2",
"!# c #34BFE4",
"!$ c #3380AA",
"!% c #311043",
"!& c #310238",
"!' c #310439",
"!( c #310D41",
"!) c #337FAA",
"!* c #34C2E6",
"!+ c #34C1E6",
"!, c #3383AC",
"!- c #310237",
"!. c #310338",
"!/ c #310B3F",
"!0 c #33739D",
"!1 c #34BFE3",
"!2 c #34ABD2",
"!3 c #322E60",
"!4 c #310136",
"!5 c #310137",
"!6 c #324F7D",
"!7 c #34B6DC",
"!8 c #34BEE3",
"!9 c #34B8DE",
"!: c #325381",
"!; c #312355",
"!< c #34A4CB",
"!= c #34C0E4",
"!> c #336C98",
"!? c #31063B",
"!@ c #311A4D",
"!A c #3396BE",
"!B c #34C1E5",
"!C c #3398C0",
"!D c #311D50",
"!E c #335A87",
"!F c #34BADF",
"!G c #34C0E5",
"!H c #34A1C8",
"!I c #311F52",
"!J c #32608D",
"!K c #34BBE0",
"!L c #34BDE1",
"!M c #326591",
"!N c #310339",
"!O c #311448",
"!P c #3393BC",
"!Q c #335785",
"!R c #312557",
"!S c #34A7CD",
"!T c #34AAD1",
"!U c #312A5C",
"!V c #324A79",
"!W c #34B5DB",
"!X c #338DB6",
"!Y c #311649",
"!Z c #3376A2",
"![ c #337BA6",
"!] c #310C41",
"!^ c #310E42",
"!_ c #3384AD",
"!` c #324675",
"!a c #310035",
"!b c #323A6B",
"!c c #34B4DA",
"!d c #323E6E",
"!e c #32396A",
"!f c #34AED4",
"!g c #337FA9",
"!h c #310F43",
"!i c #311347",
"!j c #3387B1",
"!k c #338BB4",
"!l c #311549",
"!m c #31093E",
"!n c #33719E",
"!o c #34B0D6",
"!p c #323465",
"!q c #325280",
"!r c #310036",
"!s c #32295B",
"!t c #34A7CE",
"!u c #336F9A",
"!v c #31083C",
"!w c #311E51",
"!x c #3399C1",
"!y c #339BC3",
"!z c #312154",
"!{ c #31053A",
"!| c #335D8A",
"!} c #34BCE1",
"!~ c #34A5CC",
"#! c #312254",
"## c #336894",
"#$ c #336D99",
"#% c #31194D",
"#& c #34BAE0",
"#' c #310438",
"#( c #312E5F",
"#) c #34A9CF",
"#* c #313163",
"#+ c #324E7C",
"#, c #34B7DC",
"#- c #3394BC",
"#. c #31174B",
"#/ c #337DA7",
"#0 c #3381AB",
"#1 c #310C40",
"#2 c #311044",
"#3 c #338AB4",
"#4 c #324C7B",
"#5 c #323D6E",
"#6 c #324271",
"#7 c #323F6F",
"#8 c #3385AE",
"#9 c #311245",
"#: c #3391BA",
"#; c #310A3F",
"#< c #3377A2",
"#= c #323A6A",
"#> c #32507E",
"#? c #325684",
"#@ c #322F60",
"#A c #33739F",
"#B c #312255",
"#C c #339CC4",
"#D c #33A1C8",
"#E c #312658",
"#F c #31063A",
"#G c #336390",
"#H c #34A8CF",
"#I c #31295A",
"#J c #336A95",
"#K c #336D98",
"#L c #31073B",
"#M c #312052",
"#N c #349DC5",
"#O c #33618E",
"#P c #313364",
"#Q c #34AAD0",
"#R c #323666",
"#S c #34B9DE",
"#T c #349CC3",
"#U c #311B4E",
"#V c #337DA8",
"#W c #311447",
"#X c #3390B9",
"#Y c #34B8DD",
"#Z c #32517F",
"#[ c #324372",
"#] c #34B3D9",
"#^ c #324776",
"#_ c #324473",
"#` c #338AB3",
"#a c #311246",
"#b c #3397BF",
"#c c #31184B",
"#d c #310B40",
"#e c #34B1D7",
"#f c #310539",
"#g c #325784",
"#h c #325D8A",
"#i c #323565",
"#j c #34ABD1",
"#k c #312456",
"#l c #33A3CA",
"#m c #34A5CD",
"#n c #312659",
"#o c #336A97",
"#p c #31083D",
"#q c #336B98",
"#r c #33709C",
"#s c #312457",
"#t c #34A0C7",
"#u c #34BEE2",
"#v c #336692",
"#w c #323667",
"#x c #34ADD3",
"#y c #34B0D7",
"#z c #323B6B",
"#{ c #349FC7",
"#| c #310E43",
"#} c #3384AE",
"#~ c #325482",
"$! c #324A7A",
"$# c #338EB7",
"$$ c #311346",
"$% c #3396BF",
"$& c #34B3D8",
"$' c #324574",
"$( c #32618E",
"$) c #326492",
"$* c #34ADD4",
"$+ c #337EA9",
"$, c #312759",
"$- c #34A9D0",
"$. c #31073C",
"$/ c #33749F",
"$0 c #33729D",
"$1 c #3377A1",
"$2 c #34A2CA",
"$3 c #336C99",
"$4 c #34B2D8",
"$5 c #323D6D",
"$6 c #335C8A",
"$7 c #34A3CA",
"$8 c #311045",
"$9 c #3383AD",
"$: c #3388B2",
"$; c #311C4F",
"$< c #3499C1",
"$= c #325885",
"$> c #325382",
"$? c #3395BE",
"$@ c #31164A",
"$A c #339CC3",
"$B c #312153",
"$C c #338DB5",
"$D c #34B6DB",
"$E c #324B7A",
"$F c #326693",
"$G c #34BCE2",
"$H c #34BDE3",
"$I c #336A96",
"$J c #3385AF",
"$K c #322B5C",
"$L c #34AED5",
"$M c #3379A4",
"$N c #322E5F",
"$O c #34A6CD",
"$P c #33719D",
"$Q c #326390",
"$R c #32285A",
"$S c #311449",
"$T c #338BB5",
"$U c #31174A",
"$V c #349BC3",
"$W c #325886",
"$X c #34BBE1",
"$Y c #349AC2",
"$Z c #311C4E",
"$[ c #339FC7",
"$] c #312657",
"$^ c #34B7DD",
"$_ c #336996",
"$` c #336E99",
"$a c #324373",
"$b c #338CB6",
"$c c #311145",
"$d c #322F61",
"$e c #3382AC",
"$f c #32406F",
"$g c #3378A3",
"$h c #310A3E",
"$i c #324070",
"$j c #34B5DA",
"$k c #324575",
"$l c #326C98",
"$m c #31194C",
"$n c #322557",
"$o c #349EC6",
"$p c #326491",
"$q c #325583",
"$r c #325987",
"$s c #349EC5",
"$t c #312356",
"$u c #3393BB",
"$v c #336E9A",
"$w c #3386AF",
"$x c #310F42",
"$y c #323767",
"$z c #324979",
"${ c #324D7C",
"$| c #3374A0",
"$} c #323364",
"$~ c #3398BF",
"%! c #34A2C9",
"%# c #33729E",
"%$ c #326A96",
"%% c #325C89",
"%& c #325F8C",
"%' c #3376A1",
"%( c #312D5F",
"%) c #34A8CE",
"%* c #322658",
"%+ c #313162",
"%, c #3375A0",
"%- c #323868",
"%. c #3394BD",
"%/ c #3388B1",
"%0 c #323C6C",
"%1 c #324877",
"%2 c #310D42",
"%3 c #31093D",
"%4 c #324D7B",
"%5 c #3493BC",
"%6 c #339BC2",
"%7 c #311E50",
"%8 c #322C5E",
"%9 c #3496BF",
"%: c #326592",
"%; c #33628F",
"%< c #34A3CB",
"%= c #322B5D",
"%> c #336B97",
"%? c #337AA4",
"%@ c #325281",
"%A c #336F9B",
"%B c #323062",
"%C c #3498C0",
"%D c #34B4D9",
"%E c #34AFD6",
"%F c #337CA6",
"%G c #3389B2",
"%H c #324071",
"%I c #311144",
"%J c #325785",
"%K c #310337",
"%L c #339AC2",
"%M c #339DC5",
"%N c #3391B9",
"%O c #31184C",
"%P c #34BADE",
"%Q c #336794",
"%R c #335C89",
"%S c #349CC4",
"%T c #322D5E",
"%U c #322D5F",
"%V c #34ACD2",
"%W c #323263",
"%X c #312053",
"%Y c #325B89",
"%Z c #31063C",
"%[ c #324171",
"%] c #3392BB",
"%^ c #3390B8",
"%_ c #337BA5",
"%` c #325584",
"%a c #310F44",
"%b c #33A0C7",
"%c c #34AFD5",
"%d c #32507F",
"%e c #33719C",
"%f c #31073D",
"%g c #311D4F",
"%h c #3497C0",
"%i c #323162",
"%j c #323869",
"%k c #34A6CC",
"%l c #336290",
"%m c #3382AD",
"%n c #3386B0",
"%o c #32638F",
"%p c #322556",
"%q c #324978",
"%r c #322C5D",
"%s c #324E7D",
"%t c #323768",
"%u c #325C8A",
"%v c #322558",
"%w c #34A4CC",
"%x c #324878",
"%y c #3383AE",
"%z c #3496BE",
"%{ c #335D8B",
"%| c #322457",
"%} c #349BC2",
"%~ c #33709B",
"&! c #325E8B",
"&# c #325683",
"&$ c #3395BD",
"&% c #326692",
"&& c #338CB5",
"&' c #324272",
"&( c #337CA7",
"&) c #323061",
"&* c #3389B3",
"&+ c #322254",
"&, c #32517E",
"&- c #349FC6",
"&. c #322657",
"&/ c #337AA5",
"&0 c #325380",
"&1 c #322A5B",
"&2 c #323C6B",
"&3 c #311548",
"&4 c #338CB4",
"&5 c #323C6D",
"&6 c #338FB8",
"&7 c #321F52",
"&8 c #3497BF",
"&9 c #322154",
"&: c #336693",
"&; c #34A6CE",
"&< c #325B88",
"&= c #3387B0",
"&> c #323B6C",
"&? c #3495BD",
"&@ c #323464",
"&A c #321E51",
"&B c #312558",
"&C c #34B9DF",
"&D c #323365",
"&E c #34ACD3",
"&F c #323264",
"&G c #34BEE4",
"&H c #32295A",
"&I c #322859",
"&J c #336591",
"&K c #31053B",
"&L c #313061",
"&M c #313465",
"&N c #3489B3",
"&O c #3379A3",
"&P c #310B3E",
"&Q c #322153",
"&R c #322356",
"&S c #336995",
"&T c #312D5E",
"&U c #348EB7",
"&V c #3488B1",
"&W c #324170",
"&X c #337EA8",
"&Y c #34AFD4",
"&Z c #34A0C8",
"&[ c #311F51",
"&] c #32709B",
"&^ c #335F8C",
"&_ c #335582",
"&` c #3275A0",
"&a c #313667",
"&b c #3495BE",
"&c c #32164A",
"&d c #348FB7",
"&e c #324474",
"&f c #34BCE0",
"&g c #336D9A",
"&h c #325986",
"&i c #322456",
"&j c #326995",
"&k c #335887",
"&l c #326D99",
"&m c #32194C",
"&n c #321649",
"&o c #335280",
"&p c #334B79",
"&q c #348CB5",
"&r c #321347",
"&s c #3486B0",
"&t c #323D6C",
"&u c #3392BA",
"&v c #33739E",
"&w c #325582",
"&x c #311D51",
"&y c #33A7CE",
"&z c #349FC8",
"&{ c #321C4F",
"&| c #3276A1",
"&} c #335684",
"&~ c #334E7D",
"'! c #321448",
"'# c #348DB6",
"'$ c #34B2D7",
"'% c #336491",
"'& c #33A5CC",
"'' c #322053",
"'( c #335987",
"') c #32749F",
"'* c #32184B",
"'+ c #3490B9",
"', c #34B0D5",
"'- c #334C7A",
"'. c #334473",
"'/ c #335E8B",
"'0 c #321B4E",
"'1 c #32174B",
"'2 c #323566",
"'3 c #334E7C",
"'4 c #334777",
"'5 c #339EC7",
"'6 c #312B5D",
"'7 c #321D50",
"'8 c #335381",
"'9 c #334D7C",
"': c #34C2E7",
"'; c #334574",
"'< c #323F70",
"'= c #31295B",
"'> c #335A88",
"'? c #335583",
"'@ c #321A4D",
"'A c #32174A",
"'B c #3491BA",
"'C c #334977",
"'D c #334372",
"'E c #322A5C",
"'F c #326C99",
"'G c #335B88",
"'H c #32729D",
"'I c #334776",
"'J c #339EC5",
"'K c #322F5F",
"'L c #33A1C9",
"'M c #33608D",
"'N c #326E9A",
"'O c #312C5E",
"'P c #334D7B",
"'Q c #348FB8",
"'R c #31043A",
"'S c #3493BB",
"'T c #33749E",
"'U c #31285A",
"'V c #326F9A",
"'W c #33638F",
"'X c #335E8C",
"'Y c #321E50",
"'Z c #321A4E",
"'[ c #348AB3",
"'] c #338EB6",
"'^ c #323969",
"'_ c #3498C1",
"'` c #335482",
"'a c #348DB5",
"'b c #3488B2",
"'c c #34B5DC",
"'d c #336895",
"'e c #312B5C",
"'f c #33A4CC",
"'g c #312E60",
"'h c #313566",
"'i c #313768",
"'j c #310037",
"'k c #312F60",
"'l c #3380AB",
"'m c #34BBDF",
"'n c #339DC4",
"'o c #33A8CF",
"'p c #324F7E",
"'q c #31275A",
"'r c #33A4CB",
"!!!!!!!!!!!!!!!!!!!!!!!!!!!!!!!!!!!!!!!!!!!!!!!!!!!!!!!!!!!!!#!$!%!&!'!'!'!'!'!'!'!'!'!'!'!'!'!'!'!'!'!'!'!'!'!'!'!'!'!'!'!'!'!'!'!'!'!'!'!'!'!'!'!'!'!'!'!'!'!'!'!'!'!'!'!&!(!)!*!!!!!!!!!!!!!!!!!!!!!!!!!!!!!!!!!!!!!!!!!!!!!!!!!!!!!!!!!!!!!!!!!!!!!!!!!!!!!!!!!!!!!!!!!!!!!!!!!!!!!!!!!!!!!!!!!!!!!!!!!!!!!!!!!!!!!!!!!!!!!!!!!!!!!!!!!!!!!+!,!%!-!'!'!'!'!'!'!'!'!'!'!'!'!'!'!'!'!'!'!'!'!'!'!'!'!'!'!'!'!'!'!'!'!'!'!'!'!'!'!'!'!'!'!'!'!'!'!'!'!'!'!'!.!/!0!1!!!!!!!!!!!!!!!!!!!!!!!!!!!!!!!!!!!!!!!!!!!!!!!!!!!!!!!!!!!!",
"!!!!!!!!!!!!!!!!!!!!!!!!!!!!!!!!!!!!!!!!!!!!!!!!!!!!!!!!!!!!!#!2!3!4!'!'!'!'!'!'!'!'!'!'!'!'!'!'!'!'!'!'!'!'!'!'!'!'!'!'!'!'!'!'!'!'!'!'!'!'!'!'!'!'!'!'!'!'!'!'!'!'!'!'!'!'!5!6!7!8!!!!!!!!!!!!!!!!!!!!!!!!!!!!!!!!!!!!!!!!!!!!!!!!!!!!!!!!!!!!!!!!!!!!!!!!!!!!!!!!!!!!!!!!!!!!!!!!!!!!!!!!!!!!!!!!!!!!!!!!!!!!!!!!!!!!!!!!!!!!!!!!!!!!!!!!!8!9!:!-!'!'!'!'!'!'!'!'!'!'!'!'!'!'!'!'!'!'!'!'!'!'!'!'!'!'!'!'!'!'!'!'!'!'!'!'!'!'!'!'!'!'!'!'!'!'!'!'!'!'!'!'!4!;!<!=!!!!!!!!!!!!!!!!!!!!!!!!!!!!!!!!!!!!!!!!!!!!!!!!!!!!!!!!!!!!",
"!!!!!!!!!!!!!!!!!!!!!!!!!!!!!!!!!!!!!!!!!!!!!!!!!!!!!!!!!!!!!8!!!>!?!.!'!'!'!'!'!'!'!'!'!'!'!'!'!'!'!'!'!'!'!'!'!'!'!'!'!'!'!'!'!'!'!'!'!'!'!'!'!'!'!'!'!'!'!'!'!'!'!'!'!'!'!-!@!A!+!!!!!!!!!!!!!!!!!!!!!!!!!!!!!!!!!!!!!!!!!!!!!!!!!!!!!!!!!!!!!!!!!!!!!!!!!!!!!!!!!!!!!!!!!!!!!!!!!!!!!!!!!!!!!!!!!!!!!!!!!!!!!!!!!!!!!!!!!!!!!!!!!!!!!!!!!B!C!D!-!'!'!'!'!'!'!'!'!'!'!'!'!'!'!'!'!'!'!'!'!'!'!'!'!'!'!'!'!'!'!'!'!'!'!'!'!'!'!'!'!'!'!'!'!'!'!'!'!'!'!'!.!'!E!F!8!!!!!!!!!!!!!!!!!!!!!!!!!!!!!!!!!!!!!!!!!!!!!!!!!!!!!!!!!!!!",
"!!!!!!!!!!!!!!!!!!!!!!!!!!!!!!!!!!!!!!!!!!!!!!!!!!!!!!!!!!!!!!!G!H!I!4!'!'!'!'!'!'!'!'!'!'!'!'!'!'!'!'!'!'!'!'!'!'!'!'!'!'!'!'!'!'!'!'!'!'!'!'!'!'!'!'!'!'!'!'!'!'!'!'!'!'!'!'!'!J!K!8!!!!!!!!!!!!!!!!!!!!!!!!!!!!!!!!!!!!!!!!!!!!!!!!!!!!!!!!!!!!!!!!!!!!!!!!!!!!!!!!!!!!!!!!!!!!!!!!!!!!!!!!!!!!!!!!!!!!!!!!!!!!!!!!!!!!!!!!!!!!!!!!!!!!!8!L!M!'!N!'!'!'!'!'!'!'!'!'!'!'!'!'!'!'!'!'!'!'!'!'!'!'!'!'!'!'!'!'!'!'!'!'!'!'!'!'!'!'!'!'!'!'!'!'!'!'!'!'!'!'!-!O!P!B!!!!!!!!!!!!!!!!!!!!!!!!!!!!!!!!!!!!!!!!!!!!!!!!!!!!!!!!!!!!!!",
"!!!!!!!!!!!!!!!!!!!!!!!!!!!!!!!!!!!!!!!!!!!!!!!!!!!!!!!!!!!!!!!8!F!Q!-!'!'!'!'!'!'!'!'!'!'!'!'!'!'!'!'!'!'!'!'!'!'!'!'!'!'!'!'!'!'!'!'!'!'!'!'!'!'!'!'!'!'!'!'!'!'!'!'!'!'!'!'!4!R!S!=!!!!!!!!!!!!!!!!!!!!!!!!!!!!!!!!!!!!!!!!!!!!!!!!!!!!!!!!!!!!!!!!!!!!!!!!!!!!!!!!!!!!!!!!!!!!!!!!!!!!!!!!!!!!!!!!!!!!!!!!!!!!!!!!!!!!!!!!!!!!!!!!!!!!!#!T!U!4!'!'!'!'!'!'!'!'!'!'!'!'!'!'!'!'!'!'!'!'!'!'!'!'!'!'!'!'!'!'!'!'!'!'!'!'!'!'!'!'!'!'!'!'!'!'!'!'!'!'!'!'!4!V!W!8!!!!!!!!!!!!!!!!!!!!!!!!!!!!!!!!!!!!!!!!!!!!!!!!!!!!!!!!!!!!!!",
"!!!!!!!!!!!!!!!!!!!!!!!!!!!!!!!!!!!!!!!!!!!!!!!!!!!!!!!!!!!!!!!!!+!X!Y!-!'!'!'!'!'!'!'!'!'!'!'!'!'!'!'!'!'!'!'!'!'!'!'!'!'!'!'!'!'!'!'!'!'!'!'!'!'!'!'!'!'!'!'!'!'!'!'!'!'!'!'!.!/!Z!#!!!!!!!!!!!!!!!!!!!!!!!!!!!!!!!!!!!!!!!!!!!!!!!!!!!!!!!!!!!!!!!!!!!!!!!!!!!!!!!!!!!!!!!!!!!!!!!!!!!!!!!!!!!!!!!!!!!!!!!!!!!!!!!!!!!!!!!!!!!!!!!!!!!!!=![!]!.!'!'!'!'!'!'!'!'!'!'!'!'!'!'!'!'!'!'!'!'!'!'!'!'!'!'!'!'!'!'!'!'!'!'!'!'!'!'!'!'!'!'!'!'!'!'!'!'!'!'!'!-!^!_!+!!!!!!!!!!!!!!!!!!!!!!!!!!!!!!!!!!!!!!!!!!!!!!!!!!!!!!!!!!!!!!!!",
"!!!!!!!!!!!!!!!!!!!!!!!!!!!!!!!!!!!!!!!!!!!!!!!!!!!!!!!!!!!!!!!!!8!W!`!a!'!'!'!'!'!'!'!'!'!'!'!'!'!'!'!'!'!'!'!'!'!'!'!'!'!'!'!'!'!'!'!'!'!'!'!'!'!'!'!'!'!'!'!'!'!'!'!'!'!'!'!'!4!b!c!1!!!!!!!!!!!!!!!!!!!!!!!!!!!!!!!!!!!!!!!!!!!!!!!!!!!!!!!!!!!!!!!!!!!!!!!!!!!!!!!!!!!!!!!!!!!!!!!!!!!!!!!!!!!!!!!!!!!!!!!!!!!!!!!!!!!!!!!!!!!!!!!!!8!7!d!4!'!'!'!'!'!'!'!'!'!'!'!'!'!'!'!'!'!'!'!'!'!'!'!'!'!'!'!'!'!'!'!'!'!'!'!'!'!'!'!'!'!'!'!'!'!'!'!'!'!'!'!'!a!e!f!#!!!!!!!!!!!!!!!!!!!!!!!!!!!!!!!!!!!!!!!!!!!!!!!!!!!!!!!!!!!!!!!!",
"!!!!!!!!!!!!!!!!!!!!!!!!!!!!!!!!!!!!!!!!!!!!!!!!!!!!!!!!!!!!!!!!!!!*!g!h!-!'!'!'!'!'!'!'!'!'!'!'!'!'!'!'!'!'!'!'!'!'!'!'!'!'!'!'!'!'!'!'!'!'!'!'!'!'!'!'!'!'!'!'!'!'!'!'!'!'!'!'!-!i!j!G!!!!!!!!!!!!!!!!!!!!!!!!!!!!!!!!!!!!!!!!!!!!!!!!!!!!!!!!!!!!!!!!!!!!!!!!!!!!!!!!!!!!!!!!!!!!!!!!!!!!!!!!!!!!!!!!!!!!!!!!!!!!!!!!!!!!!!!!!!!!!!!!!G!k!l!-!'!'!'!'!'!'!'!'!'!'!'!'!'!'!'!'!'!'!'!'!'!'!'!'!'!'!'!'!'!'!'!'!'!'!'!'!'!'!'!'!'!'!'!'!'!'!'!'!'!'!'!.!m!n!+!!!!!!!!!!!!!!!!!!!!!!!!!!!!!!!!!!!!!!!!!!!!!!!!!!!!!!!!!!!!!!!!!!",
"!!!!!!!!!!!!!!!!!!!!!!!!!!!!!!!!!!!!!!!!!!!!!!!!!!!!!!!!!!!!!!!!!!!#!o!p!a!'!'!'!'!'!'!'!'!'!'!'!'!'!'!'!'!'!'!'!'!'!'!'!'!'!'!'!'!'!'!'!'!'!'!'!'!'!'!'!'!'!'!'!'!'!'!'!'!'!'!'!'!-!6!F!8!!!!!!!!!!!!!!!!!!!!!!!!!!!!!!!!!!!!!!!!!!!!!!!!!!!!!!!!!!!!!!!!!!!!!!!!!!!!!!!!!!!!!!!!!!!!!!!!!!!!!!!!!!!!!!!!!!!!!!!!!!!!!!!!!!!!!!!!!!!!!8!K!q!-!'!'!'!'!'!'!'!'!'!'!'!'!'!'!'!'!'!'!'!'!'!'!'!'!'!'!'!'!'!'!'!'!'!'!'!'!'!'!'!'!'!'!'!'!'!'!'!'!'!'!'!'!r!s!t!#!!!!!!!!!!!!!!!!!!!!!!!!!!!!!!!!!!!!!!!!!!!!!!!!!!!!!!!!!!!!!!!!!!",
"!!!!!!!!!!!!!!!!!!!!!!!!!!!!!!!!!!!!!!!!!!!!!!!!!!!!!!!!!!!!!!!!!!!!!8!u!v!.!'!'!'!'!'!'!'!'!'!'!'!'!'!'!'!'!'!'!'!'!'!'!'!'!'!'!'!'!'!'!'!'!'!'!'!'!'!'!'!'!'!'!'!'!'!'!'!'!'!'!'!-!w!x!B!!!!!!!!!!!!!!!!!!!!!!!!!!!!!!!!!!!!!!!!!!!!!!!!!!!!!!!!!!!!!!!!!!!!!!!!!!!!!!!!!!!!!!!!!!!!!!!!!!!!!!!!!!!!!!!!!!!!!!!!!!!!!!!!!!!!!!!!!!!!!B!y!z!-!'!'!'!'!'!'!'!'!'!'!'!'!'!'!'!'!'!'!'!'!'!'!'!'!'!'!'!'!'!'!'!'!'!'!'!'!'!'!'!'!'!'!'!'!'!'!'!'!'!'!'!.!{!|!}!8!!!!!!!!!!!!!!!!!!!!!!!!!!!!!!!!!!!!!!!!!!!!!!!!!!!!!!!!!!!!!!!!!!",
"!!!!!!!!!!!!!!!!!!!!!!!!!!!!!!!!!!!!!!!!!!!!!!!!!!!!!!!!!!!!!!!!!!!!!G!~#!!4!'!'!'!'!'!'!'!'!'!'!'!'!'!'!'!'!'!'!'!'!'!'!'!'!'!'!'!'!'!'!'!'!'!'!'!'!'!'!'!'!'!'!'!'!'!'!'!'!'!'!'!'!.##!8!!!!!!!!!!!!!!!!!!!!!!!!!!!!!!!!!!!!!!!!!!!!!!!!!!!!!!!!!!!!!!!!!!!!!!!!!!!!!!!!!!!!!!!!!!!!!!!!!!!!!!!!!!!!!!!!!!!!!!!!!!!!!!!!!!!!!!!!!!!!!##$!'!'!'!'!'!'!'!'!'!'!'!'!'!'!'!'!'!'!'!'!'!'!'!'!'!'!'!'!'!'!'!'!'!'!'!'!'!'!'!'!'!'!'!'!'!'!'!'!'!'!'!'!'!-#%!C!G!!!!!!!!!!!!!!!!!!!!!!!!!!!!!!!!!!!!!!!!!!!!!!!!!!!!!!!!!!!!!!!!!!!!",
"!!!!!!!!!!!!!!!!!!!!!!!!!!!!!!!!!!!!!!!!!!!!!!!!!!!!!!!!!!!!!!!!!!!!!8#&!|#'!.!'!'!'!'!'!'!'!'!'!'!'!'!'!'!'!'!'!'!'!'!'!'!'!'!'!'!'!'!'!'!'!'!'!'!'!'!'!'!'!'!'!'!'!'!'!'!'!'!'!'!'!5#(#)!=!!!!!!!!!!!!!!!!!!!!!!!!!!!!!!!!!!!!!!!!!!!!!!!!!!!!!!!!!!!!!!!!!!!!!!!!!!!!!!!!!!!!!!!!!!!!!!!!!!!!!!!!!!!!!!!!!!!!!!!!!!!!!!!!!!!!!!!!!#!T#*!5!'!'!'!'!'!'!'!'!'!'!'!'!'!'!'!'!'!'!'!'!'!'!'!'!'!'!'!'!'!'!'!'!'!'!'!'!'!'!'!'!'!'!'!'!'!'!'!'!'!'!'!'!-#+#,!8!!!!!!!!!!!!!!!!!!!!!!!!!!!!!!!!!!!!!!!!!!!!!!!!!!!!!!!!!!!!!!!!!!!!",
"!!!!!!!!!!!!!!!!!!!!!!!!!!!!!!!!!!!!!!!!!!!!!!!!!!!!!!!!!!!!!!!!!!!!!!!B#-#.!-!'!'!'!'!'!'!'!'!'!'!'!'!'!'!'!'!'!'!'!'!'!'!'!'!'!'!'!'!'!'!'!'!'!'!'!'!'!'!'!'!'!'!'!'!'!'!'!'!'!'!'!.!/#/!=!!!!!!!!!!!!!!!!!!!!!!!!!!!!!!!!!!!!!!!!!!!!!!!!!!!!!!!!!!!!!!!!!!!!!!!!!!!!!!!!!!!!!!!!!!!!!!!!!!!!!!!!!!!!!!!!!!!!!!!!!!!!!!!!!!!!!!!!!G#0#1!&!'!'!'!'!'!'!'!'!'!'!'!'!'!'!'!'!'!'!'!'!'!'!'!'!'!'!'!'!'!'!'!'!'!'!'!'!'!'!'!'!'!'!'!'!'!'!'!'!'!'!'!-#2#3!G!!!!!!!!!!!!!!!!!!!!!!!!!!!!!!!!!!!!!!!!!!!!!!!!!!!!!!!!!!!!!!!!!!!!!!",
"!!!!!!!!!!!!!!!!!!!!!!!!!!!!!!!!!!!!!!!!!!!!!!!!!!!!!!!!!!!!!!!!!!!!!!!8!7#4!4!'!'!'!'!'!'!'!'!'!'!'!'!'!'!'!'!'!'!'!'!'!'!'!'!'!'!'!'!'!'!'!'!'!'!'!'!'!'!'!'!'!'!'!'!'!'!'!'!'!'!'!'!-#5!c!1!!!!!!!!!!!!!!!!!!!!!!!!!!!!!!!!!!!!!!!!!!!!!!!!!!!!!!!!!!!!!!!!!!!!!!!!!!!!!!!!!!!!!!!!!!!!!!!!!!!!!!!!!!!!!!!!!!!!!!!!!!!!!!!!!!!!!8!W#6!-!'!'!'!'!'!'!'!'!'!'!'!'!'!'!'!'!'!'!'!'!'!'!'!'!'!'!'!'!'!'!'!'!'!'!'!'!'!'!'!'!'!'!'!'!'!'!'!'!'!'!'!'!a#7!o!#!!!!!!!!!!!!!!!!!!!!!!!!!!!!!!!!!!!!!!!!!!!!!!!!!!!!!!!!!!!!!!!!!!!!!!",
"!!!!!!!!!!!!!!!!!!!!!!!!!!!!!!!!!!!!!!!!!!!!!!!!!!!!!!!!!!!!!!!!!!!!!!!!!+#8#9!-!'!'!'!'!'!'!'!'!'!'!'!'!'!'!'!'!'!'!'!'!'!'!'!'!'!'!'!'!'!'!'!'!'!'!'!'!'!'!'!'!'!'!'!'!'!'!'!'!'!'!'!-!O!X!#!!!!!!!!!!!!!!!!!!!!!!!!!!!!!!!!!!!!!!!!!!!!!!!!!!!!!!!!!!!!!!!!!!!!!!!!!!!!!!!!!!!!!!!!!!!!!!!!!!!!!!!!!!!!!!!!!!!!!!!!!!!!!!!!!!!!!##:!Y!5!'!'!'!'!'!'!'!'!'!'!'!'!'!'!'!'!'!'!'!'!'!'!'!'!'!'!'!'!'!'!'!'!'!'!'!'!'!'!'!'!'!'!'!'!'!'!'!'!'!'!'!.#;#<!+!!!!!!!!!!!!!!!!!!!!!!!!!!!!!!!!!!!!!!!!!!!!!!!!!!!!!!!!!!!!!!!!!!!!!!!!",
"!!!!!!!!!!!!!!!!!!!!!!!!!!!!!!!!!!!!!!!!!!!!!!!!!!!!!!!!!!!!!!!!!!!!!!!!!#!o#=!a!'!'!'!'!'!'!'!'!'!'!'!'!'!'!'!'!'!'!'!'!'!'!'!'!'!'!'!'!'!'!'!'!'!'!'!'!'!'!'!'!'!'!'!'!'!'!'!'!'!'!'!'!-#>!}!8!!!!!!!!!!!!!!!!!!!!!!!!!!!!!!!!!!!!!!!!!!!!!!!!!!!!!!!!!!!!!!!!!!!!!!!!!!!!!!!!!!!!!!!!!!!!!!!!!!!!!!!!!!!!!!!!!!!!!!!!!!!!!!!!!8!!#?!'!'!'!'!'!'!'!'!'!'!'!'!'!'!'!'!'!'!'!'!'!'!'!'!'!'!'!'!'!'!'!'!'!'!'!'!'!'!'!'!'!'!'!'!'!'!'!'!'!'!'!'!'!a#@#)!#!!!!!!!!!!!!!!!!!!!!!!!!!!!!!!!!!!!!!!!!!!!!!!!!!!!!!!!!!!!!!!!!!!!!!!!!",
"!!!!!!!!!!!!!!!!!!!!!!!!!!!!!!!!!!!!!!!!!!!!!!!!!!!!!!!!!!!!!!!!!!!!!!!!!!!##A!/!.!'!'!'!'!'!'!'!'!'!'!'!'!'!'!'!'!'!'!'!'!'!'!'!'!'!'!'!'!'!'!'!'!'!'!'!'!'!'!'!'!'!'!'!'!'!'!'!'!'!'!'!4#B#C!=!!!!!!!!!!!!!!!!!!!!!!!!!!!!!!!!!!!!!!!!!!!!!!!!!!!!!!!!!!!!!!!!!!!!!!!!!!!!!!!!!!!!!!!!!!!!!!!!!!!!!!!!!!!!!!!!!!!!!!!!!!!!!!!!!=#D#E!4!'!'!'!'!'!'!'!'!'!'!'!'!'!'!'!'!'!'!'!'!'!'!'!'!'!'!'!'!'!'!'!'!'!'!'!'!'!'!'!'!'!'!'!'!'!'!'!'!'!'!'!.#F#G!1!!!!!!!!!!!!!!!!!!!!!!!!!!!!!!!!!!!!!!!!!!!!!!!!!!!!!!!!!!!!!!!!!!!!!!!!!!",
"!!!!!!!!!!!!!!!!!!!!!!!!!!!!!!!!!!!!!!!!!!!!!!!!!!!!!!!!!!!!!!!!!!!!!!!!!!!##H#I!4!'!'!'!'!'!'!'!'!'!'!'!'!'!'!'!'!'!'!'!'!'!'!'!'!'!'!'!'!'!'!'!'!'!'!'!'!'!'!'!'!'!'!'!'!'!'!'!'!'!'!'!.!{#J!#!!!!!!!!!!!!!!!!!!!!!!!!!!!!!!!!!!!!!!!!!!!!!!!!!!!!!!!!!!!!!!!!!!!!!!!!!!!!!!!!!!!!!!!!!!!!!!!!!!!!!!!!!!!!!!!!!!!!!!!!!!!!!!!!!G#K#L!.!'!'!'!'!'!'!'!'!'!'!'!'!'!'!'!'!'!'!'!'!'!'!'!'!'!'!'!'!'!'!'!'!'!'!'!'!'!'!'!'!'!'!'!'!'!'!'!'!'!'!'!4#M#N!=!!!!!!!!!!!!!!!!!!!!!!!!!!!!!!!!!!!!!!!!!!!!!!!!!!!!!!!!!!!!!!!!!!!!!!!!!!",
"!!!!!!!!!!!!!!!!!!!!!!!!!!!!!!!!!!!!!!!!!!!!!!!!!!!!!!!!!!!!!!!!!!!!!!!!!!!8!K#O!{!.!'!'!'!'!'!'!'!'!'!'!'!'!'!'!'!'!'!'!'!'!'!'!'!'!'!'!'!'!'!'!'!'!'!'!'!'!'!'!'!'!'!'!'!'!'!'!'!'!'!'!'!4#P#Q!=!!!!!!!!!!!!!!!!!!!!!!!!!!!!!!!!!!!!!!!!!!!!!!!!!!!!!!!!!!!!!!!!!!!!!!!!!!!!!!!!!!!!!!!!!!!!!!!!!!!!!!!!!!!!!!!!!!!!!!!!!!!!!#!2#R!4!'!'!'!'!'!'!'!'!'!'!'!'!'!'!'!'!'!'!'!'!'!'!'!'!'!'!'!'!'!'!'!'!'!'!'!'!'!'!'!'!'!'!'!'!'!'!'!'!'!'!'!N!.!q#S!8!!!!!!!!!!!!!!!!!!!!!!!!!!!!!!!!!!!!!!!!!!!!!!!!!!!!!!!!!!!!!!!!!!!!!!!!!!",
"!!!!!!!!!!!!!!!!!!!!!!!!!!!!!!!!!!!!!!!!!!!!!!!!!!!!!!!!!!!!!!!!!!!!!!!!!!!!!G#T#U!5!'!'!'!'!'!'!'!'!'!'!'!'!'!'!'!'!'!'!'!'!'!'!'!'!'!'!'!'!'!'!'!'!'!'!'!'!'!'!'!'!'!'!'!'!'!'!'!'!'!'!'!.#;#V!=!!!!!!!!!!!!!!!!!!!!!!!!!!!!!!!!!!!!!!!!!!!!!!!!!!!!!!!!!!!!!!!!!!!!!!!!!!!!!!!!!!!!!!!!!!!!!!!!!!!!!!!!!!!!!!!!!!!!!!!!!!!!!B#0#1!.!'!'!'!'!'!'!'!'!'!'!'!'!'!'!'!'!'!'!'!'!'!'!'!'!'!'!'!'!'!'!'!'!'!'!'!'!'!'!'!'!'!'!'!'!'!'!'!'!'!'!'!-#W#X!G!!!!!!!!!!!!!!!!!!!!!!!!!!!!!!!!!!!!!!!!!!!!!!!!!!!!!!!!!!!!!!!!!!!!!!!!!!!!",
"!!!!!!!!!!!!!!!!!!!!!!!!!!!!!!!!!!!!!!!!!!!!!!!!!!!!!!!!!!!!!!!!!!!!!!!!!!!!!8#Y#Z!-!'!'!'!'!'!'!'!'!'!'!'!'!'!'!'!'!'!'!'!'!'!'!'!'!'!'!'!'!'!'!'!'!'!'!'!'!'!'!'!'!'!'!'!'!'!'!'!'!'!'!'!'!4#[#]!1!!!!!!!!!!!!!!!!!!!!!!!!!!!!!!!!!!!!!!!!!!!!!!!!!!!!!!!!!!!!!!!!!!!!!!!!!!!!!!!!!!!!!!!!!!!!!!!!!!!!!!!!!!!!!!!!!!!!!!!!!8!W#^!4!'!'!'!'!'!'!'!'!'!'!'!'!'!'!'!'!'!'!'!'!'!'!'!'!'!'!'!'!'!'!'!'!'!'!'!'!'!'!'!'!'!'!'!'!'!'!'!'!'!'!'!'!4#_#]!#!!!!!!!!!!!!!!!!!!!!!!!!!!!!!!!!!!!!!!!!!!!!!!!!!!!!!!!!!!!!!!!!!!!!!!!!!!!!",
"!!!!!!!!!!!!!!!!!!!!!!!!!!!!!!!!!!!!!!!!!!!!!!!!!!!!!!!!!!!!!!!!!!!!!!!!!!!!!!!B#`#a!-!'!'!'!'!'!'!'!'!'!'!'!'!'!'!'!'!'!'!'!'!'!'!'!'!'!'!'!'!'!'!'!'!'!'!'!'!'!'!'!'!'!'!'!'!'!'!'!'!'!'!'!-!Y!P!=!!!!!!!!!!!!!!!!!!!!!!!!!!!!!!!!!!!!!!!!!!!!!!!!!!!!!!!!!!!!!!!!!!!!!!!!!!!!!!!!!!!!!!!!!!!!!!!!!!!!!!!!!!!!!!!!!!!!!!!!!G#b#c!5!'!'!'!'!'!'!'!'!'!'!'!'!'!'!'!'!'!'!'!'!'!'!'!'!'!'!'!'!'!'!'!'!'!'!'!'!'!'!'!'!'!'!'!'!'!'!'!'!'!'!'!&#d#/!G!!!!!!!!!!!!!!!!!!!!!!!!!!!!!!!!!!!!!!!!!!!!!!!!!!!!!!!!!!!!!!!!!!!!!!!!!!!!!!",
"!!!!!!!!!!!!!!!!!!!!!!!!!!!!!!!!!!!!!!!!!!!!!!!!!!!!!!!!!!!!!!!!!!!!!!!!!!!!!!!1#e!d!a!'!'!'!'!'!'!'!'!'!'!'!'!'!'!'!'!'!'!'!'!'!'!'!'!'!'!'!'!'!'!'!'!'!'!'!'!'!'!'!'!'!'!'!'!'!'!'!'!'!'!'!.#f#g!}!8!!!!!!!!!!!!!!!!!!!!!!!!!!!!!!!!!!!!!!!!!!!!!!!!!!!!!!!!!!!!!!!!!!!!!!!!!!!!!!!!!!!!!!!!!!!!!!!!!!!!!!!!!!!!!!!!!!!!!8!!#h#F!.!'!'!'!'!'!'!'!'!'!'!'!'!'!'!'!'!'!'!'!'!'!'!'!'!'!'!'!'!'!'!'!'!'!'!'!'!'!'!'!'!'!'!'!'!'!'!'!'!'!'!'!a#i#j!#!!!!!!!!!!!!!!!!!!!!!!!!!!!!!!!!!!!!!!!!!!!!!!!!!!!!!!!!!!!!!!!!!!!!!!!!!!!!!!",
"!!!!!!!!!!!!!!!!!!!!!!!!!!!!!!!!!!!!!!!!!!!!!!!!!!!!!!!!!!!!!!!!!!!!!!!!!!!!!!!!!B#<#1!.!'!'!'!'!'!'!'!'!'!'!'!'!'!'!'!'!'!'!'!'!'!'!'!'!'!'!'!'!'!'!'!'!'!'!'!'!'!'!'!'!'!'!'!'!'!'!'!'!'!'!'!r#k#l!#!!!!!!!!!!!!!!!!!!!!!!!!!!!!!!!!!!!!!!!!!!!!!!!!!!!!!!!!!!!!!!!!!!!!!!!!!!!!!!!!!!!!!!!!!!!!!!!!!!!!!!!!!!!!!!!!!!!!!##m#n!r!'!'!'!'!'!'!'!'!'!'!'!'!'!'!'!'!'!'!'!'!'!'!'!'!'!'!'!'!'!'!'!'!'!'!'!'!'!'!'!'!'!'!'!'!'!'!'!'!'!'!'!.!?#o!G!!!!!!!!!!!!!!!!!!!!!!!!!!!!!!!!!!!!!!!!!!!!!!!!!!!!!!!!!!!!!!!!!!!!!!!!!!!!!!!!",
"!!!!!!!!!!!!!!!!!!!!!!!!!!!!!!!!!!!!!!!!!!!!!!!!!!!!!!!!!!!!!!!!!!!!!!!!!!!!!!!!!#!T#@!r!'!'!'!'!'!'!'!'!'!'!'!'!'!'!'!'!'!'!'!'!'!'!'!'!'!'!'!'!'!'!'!'!'!'!'!'!'!'!'!'!'!'!'!'!'!'!'!'!'!'!'!.#p#q!#!!!!!!!!!!!!!!!!!!!!!!!!!!!!!!!!!!!!!!!!!!!!!!!!!!!!!!!!!!!!!!!!!!!!!!!!!!!!!!!!!!!!!!!!!!!!!!!!!!!!!!!!!!!!!!!!!!!!!G#r!m!.!'!'!'!'!'!'!'!'!'!'!'!'!'!'!'!'!'!'!'!'!'!'!'!'!'!'!'!'!'!'!'!'!'!'!'!'!'!'!'!'!'!'!'!'!'!'!'!'!'!'!'!r#s#t!#!!!!!!!!!!!!!!!!!!!!!!!!!!!!!!!!!!!!!!!!!!!!!!!!!!!!!!!!!!!!!!!!!!!!!!!!!!!!!!!!",
"!!!!!!!!!!!!!!!!!!!!!!!!!!!!!!!!!!!!!!!!!!!!!!!!!!!!!!!!!!!!!!!!!!!!!!!!!!!!!!!!#u!!#v#L!.!'!'!'!'!'!'!'!'!'!'!'!'!'!'!'!'!'!'!'!'!'!'!'!'!'!'!'!'!'!'!'!'!'!'!'!'!'!'!'!'!'!'!'!'!'!'!'!'!'!'!'!r#w#x!#!!!!!!!!!!!!!!!!!!!!!!!!!!!!!!!!!!!!!!!!!!!!!!!!!!!!!!!!!!!!!!!!!!!!!!!!!!!!!!!!!!!!!!!!!!!!!!!!!!!!!!!!!!!!!!!!!##y#z!r!'!'!'!'!'!'!'!'!'!'!'!'!'!'!'!'!'!'!'!'!'!'!'!'!'!'!'!'!'!'!'!'!'!'!'!'!'!'!'!'!'!'!'!'!'!'!'!'!'!'!'!'!N#?!}!8!!!!!!!!!!!!!!!!!!!!!!!!!!!!!!!!!!!!!!!!!!!!!!!!!!!!!!!!!!!!!!!!!!!!!!!!!!!!!!!!",
"!!!!!!!!!!!!!!!!!!!!!!!!!!!!!!!!!!!!!!!!!!!!!!!!!!!!!!!!!!!!!!!!!!!!!!!!!!!!!!!!!!!G#{!D!4!'!'!'!'!'!'!'!'!'!'!'!'!'!'!'!'!'!'!'!'!'!'!'!'!'!'!'!'!'!'!'!'!'!'!'!'!'!'!'!'!'!'!'!'!'!'!'!'!'!'!'!-#|#}!+!!!!!!!!!!!!!!!!!!!!!!!!!!!!!!!!!!!!!!!!!!!!!!!!!!!!!!!!!!!!!!!!!!!!!!!!!!!!!!!!!!!!!!!!!!!!!!!!!!!!!!!!!!!!!!!!!+!j#2!-!'!'!'!'!'!'!'!'!'!'!'!'!'!'!'!'!'!'!'!'!'!'!'!'!'!'!'!'!'!'!'!'!'!'!'!'!'!'!'!'!'!'!'!'!'!'!'!'!'!'!'!-!Y!P!G!!!!!!!!!!!!!!!!!!!!!!!!!!!!!!!!!!!!!!!!!!!!!!!!!!!!!!!!!!!!!!!!!!!!!!!!!!!!!!!!!!",
"!!!!!!!!!!!!!!!!!!!!!!!!!!!!!!!!!!!!!!!!!!!!!!!!!!!!!!!!!!!!!!!!!!!!!!!!!!!!!!!!!!!8!9#~!.!.!'!'!'!'!'!'!'!'!'!'!'!'!'!'!'!'!'!'!'!'!'!'!'!'!'!'!'!'!'!'!'!'!'!'!'!'!'!'!'!'!'!'!'!'!'!'!'!'!'!'!'!5$!!c!8!!!!!!!!!!!!!!!!!!!!!!!!!!!!!!!!!!!!!!!!!!!!!!!!!!!!!!!!!!!!!!!!!!!!!!!!!!!!!!!!!!!!!!!!!!!!!!!!!!!!!!!!!!!!!8!7!6!-!'!'!'!'!'!'!'!'!'!'!'!'!'!'!'!'!'!'!'!'!'!'!'!'!'!'!'!'!'!'!'!'!'!'!'!'!'!'!'!'!'!'!'!'!'!'!'!'!'!'!'!'!-!`!W!1!!!!!!!!!!!!!!!!!!!!!!!!!!!!!!!!!!!!!!!!!!!!!!!!!!!!!!!!!!!!!!!!!!!!!!!!!!!!!!!!!!",
"!!!!!!!!!!!!!!!!!!!!!!!!!!!!!!!!!!!!!!!!!!!!!!!!!!!!!!!!!!!!!!!!!!!!!!!!!!!!!!!!!!!!!B$#$$!-!'!'!'!'!'!'!'!'!'!'!'!'!'!'!'!'!'!'!'!'!'!'!'!'!'!'!'!'!'!'!'!'!'!'!'!'!'!'!'!'!'!'!'!'!'!'!'!'!'!'!'!-#.$%!B!!!!!!!!!!!!!!!!!!!!!!!!!!!!!!!!!!!!!!!!!!!!!!!!!!!!!!!!!!!!!!!!!!!!!!!!!!!!!!!!!!!!!!!!!!!!!!!!!!!!!!!!!!!!!G!x#U!-!'!'!'!'!'!'!'!'!'!'!'!'!'!'!'!'!'!'!'!'!'!'!'!'!'!'!'!'!'!'!'!'!'!'!'!'!'!'!'!'!'!'!'!'!'!'!'!'!'!'!'!&!(#8!G!!!!!!!!!!!!!!!!!!!!!!!!!!!!!!!!!!!!!!!!!!!!!!!!!!!!!!!!!!!!!!!!!!!!!!!!!!!!!!!!!!!!",
"!!!!!!!!!!!!!!!!!!!!!!!!!!!!!!!!!!!!!!!!!!!!!!!!!!!!!!!!!!!!!!!!!!!!!!!!!!!!!!!!!!!!!1$&$'!a!'!'!'!'!'!'!'!'!'!'!'!'!'!'!'!'!'!'!'!'!'!'!'!'!'!'!'!'!'!'!'!'!'!'!'!'!'!'!'!'!'!'!'!'!'!'!'!'!'!'!'!.!{$(!}!8!!!!!!!!!!!!!!!!!!!!!!!!!!!!!!!!!!!!!!!!!!!!!!!!!!!!!!!!!!!!!!!!!!!!!!!!!!!!!!!!!!!!!!!!!!!!!!!!!!!!!!!!!8!!$)!{!.!'!'!'!'!'!'!'!'!'!'!'!'!'!'!'!'!'!'!'!'!'!'!'!'!'!'!'!'!'!'!'!'!'!'!'!'!'!'!'!'!'!'!'!'!'!'!'!'!'!'!'!r!b$*!#!!!!!!!!!!!!!!!!!!!!!!!!!!!!!!!!!!!!!!!!!!!!!!!!!!!!!!!!!!!!!!!!!!!!!!!!!!!!!!!!!!!!",
"!!!!!!!!!!!!!!!!!!!!!!!!!!!!!!!!!!!!!!!!!!!!!!!!!!!!!!!!!!!!!!!!!!!!!!!!!!!!!!!!!!!!!!!+$+!^!.!'!'!'!'!'!'!'!'!'!'!'!'!'!'!'!'!'!'!'!'!'!'!'!'!'!'!'!'!'!'!'!'!'!'!'!'!'!'!'!'!'!'!'!'!'!'!'!'!'!'!'!4$,!S!#!!!!!!!!!!!!!!!!!!!!!!!!!!!!!!!!!!!!!!!!!!!!!!!!!!!!!!!!!!!!!!!!!!!!!!!!!!!!!!!!!!!!!!!!!!!!!!!!!!!!!!!!!#$-!U!4!'!'!'!'!'!'!'!'!'!'!'!'!'!'!'!'!'!'!'!'!'!'!'!'!'!'!'!'!'!'!'!'!'!'!'!'!'!'!'!'!'!'!'!'!'!'!'!'!'!'!'!.$.$/!G!!!!!!!!!!!!!!!!!!!!!!!!!!!!!!!!!!!!!!!!!!!!!!!!!!!!!!!!!!!!!!!!!!!!!!!!!!!!!!!!!!!!!!",
"!!!!!!!!!!!!!!!!!!!!!!!!!!!!!!!!!!!!!!!!!!!!!!!!!!!!!!!!!!!!!!!!!!!!!!!!!!!!!!!!!!!!!!!#$*#w!a!'!'!'!'!'!'!'!'!'!'!'!'!'!'!'!'!'!'!'!'!'!'!'!'!'!'!'!'!'!'!'!'!'!'!'!'!'!'!'!'!'!'!'!'!'!'!'!'!'!'!'!.#;$0!#!!!!!!!!!!!!!!!!!!!!!!!!!!!!!!!!!!!!!!!!!!!!!!!!!!!!!!!!!!!!!!!!!!!!!!!!!!!!!!!!!!!!!!!!!!!!!!!!!!!!!!!!!#$1!]!&!'!'!'!'!'!'!'!'!'!'!'!'!'!'!'!'!'!'!'!'!'!'!'!'!'!'!'!'!'!'!'!'!'!'!'!'!'!'!'!'!'!'!'!'!'!'!'!'!'!'!'!a!s$2!#!!!!!!!!!!!!!!!!!!!!!!!!!!!!!!!!!!!!!!!!!!!!!!!!!!!!!!!!!!!!!!!!!!!!!!!!!!!!!!!!!!!!!!",
"!!!!!!!!!!!!!!!!!!!!!!!!!!!!!!!!!!!!!!!!!!!!!!!!!!!!!!!!!!!!!!!!!!!!!!!!!!!!!!!!!!!!!!!!!B$3#p!.!'!'!'!'!'!'!'!'!'!'!'!'!'!'!'!'!'!'!'!'!'!'!'!'!'!'!'!'!'!'!'!'!'!'!'!'!'!'!'!'!'!'!'!'!'!'!'!'!'!'!'!r!b$4!8!!!!!!!!!!!!!!!!!!!!!!!!!!!!!!!!!!!!!!!!!!!!!!!!!!!!!!!!!!!!!!!!!!!!!!!!!!!!!!!!!!!!!!!!!!!!!!!!!!!!!8!c$5!r!'!'!'!'!'!'!'!'!'!'!'!'!'!'!'!'!'!'!'!'!'!'!'!'!'!'!'!'!'!'!'!'!'!'!'!'!'!'!'!'!'!'!'!'!'!'!'!'!'!'!'!'!'$6!8!!!!!!!!!!!!!!!!!!!!!!!!!!!!!!!!!!!!!!!!!!!!!!!!!!!!!!!!!!!!!!!!!!!!!!!!!!!!!!!!!!!!!!!!",
"!!!!!!!!!!!!!!!!!!!!!!!!!!!!!!!!!!!!!!!!!!!!!!!!!!!!!!!!!!!!!!!!!!!!!!!!!!!!!!!!!!!!!!!!!=$7!;!4!'!'!'!'!'!'!'!'!'!'!'!'!'!'!'!'!'!'!'!'!'!'!'!'!'!'!'!'!'!'!'!'!'!'!'!'!'!'!'!'!'!'!'!'!'!'!'!'!'!'!'!-$8$9!G!!!!!!!!!!!!!!!!!!!!!!!!!!!!!!!!!!!!!!!!!!!!!!!!!!!!!!!!!!!!!!!!!!!!!!!!!!!!!!!!!!!!!!!!!!!!!!!!!!!!!G$:!O!-!'!'!'!'!'!'!'!'!'!'!'!'!'!'!'!'!'!'!'!'!'!'!'!'!'!'!'!'!'!'!'!'!'!'!'!'!'!'!'!'!'!'!'!'!'!'!'!'!'!'!'!5$;$<!G!!!!!!!!!!!!!!!!!!!!!!!!!!!!!!!!!!!!!!!!!!!!!!!!!!!!!!!!!!!!!!!!!!!!!!!!!!!!!!!!!!!!!!!!",
"!!!!!!!!!!!!!!!!!!!!!!!!!!!!!!!!!!!!!!!!!!!!!!!!!!!!!!!!!!!!!!!!!!!!!!!!!!!!!!!!!!!!!!!!!8!K$=#'!.!'!'!'!'!'!'!'!'!'!'!'!'!'!'!'!'!'!'!'!'!'!'!'!'!'!'!'!'!'!'!'!'!'!'!'!'!'!'!'!'!'!'!'!'!'!'!'!'!'!'!'!4!6#S!8!!!!!!!!!!!!!!!!!!!!!!!!!!!!!!!!!!!!!!!!!!!!!!!!!!!!!!!!!!!!!!!!!!!!!!!!!!!!!!!!!!!!!!!!!!!!!!!!!8!K$>!4!'!'!'!'!'!'!'!'!'!'!'!'!'!'!'!'!'!'!'!'!'!'!'!'!'!'!'!'!'!'!'!'!'!'!'!'!'!'!'!'!'!'!'!'!'!'!'!'!'!'!'!'!&#4#Y!8!!!!!!!!!!!!!!!!!!!!!!!!!!!!!!!!!!!!!!!!!!!!!!!!!!!!!!!!!!!!!!!!!!!!!!!!!!!!!!!!!!!!!!!!",
"!!!!!!!!!!!!!!!!!!!!!!!!!!!!!!!!!!!!!!!!!!!!!!!!!!!!!!!!!!!!!!!!!!!!!!!!!!!!!!!!!!!!!!!!!!!G$?$@!-!'!'!'!'!'!'!'!'!'!'!'!'!'!'!'!'!'!'!'!'!'!'!'!'!'!'!'!'!'!'!'!'!'!'!'!'!'!'!'!'!'!'!'!'!'!'!'!'!'!'!'!-!D!x!+!!!!!!!!!!!!!!!!!!!!!!!!!!!!!!!!!!!!!!!!!!!!!!!!!!!!!!!!!!!!!!!!!!!!!!!!!!!!!!!!!!!!!!!!!!!!!!!!!+$A$B!-!'!'!'!'!'!'!'!'!'!'!'!'!'!'!'!'!'!'!'!'!'!'!'!'!'!'!'!'!'!'!'!'!'!'!'!'!'!'!'!'!'!'!'!'!'!'!'!'!'!'!'!-#2$C!G!!!!!!!!!!!!!!!!!!!!!!!!!!!!!!!!!!!!!!!!!!!!!!!!!!!!!!!!!!!!!!!!!!!!!!!!!!!!!!!!!!!!!!!!!!",
"!!!!!!!!!!!!!!!!!!!!!!!!!!!!!!!!!!!!!!!!!!!!!!!!!!!!!!!!!!!!!!!!!!!!!!!!!!!!!!!!!!!!!!!!!!!1$D$E!-!'!'!'!'!'!'!'!'!'!'!'!'!'!'!'!'!'!'!'!'!'!'!'!'!'!'!'!'!'!'!'!'!'!'!'!'!'!'!'!'!'!'!'!'!'!'!'!'!'!'!'!'!.$F$G!!!!!!!!!!!!!!!!!!!!!!!!!!!!!!!!!!!!!!!!!!!!!!!!!!!!!!!!!!!!!!!!!!!!!!!!!!!!!!!!!!!!!!!!!!!!!!!!$H$I!'!.!'!'!'!'!'!'!'!'!'!'!'!'!'!'!'!'!'!'!'!'!'!'!'!'!'!'!'!'!'!'!'!'!'!'!'!'!'!'!'!'!'!'!'!'!'!'!'!'!'!'!'!-!d#e!#!!!!!!!!!!!!!!!!!!!!!!!!!!!!!!!!!!!!!!!!!!!!!!!!!!!!!!!!!!!!!!!!!!!!!!!!!!!!!!!!!!!!!!!!!!",
"!!!!!!!!!!!!!!!!!!!!!!!!!!!!!!!!!!!!!!!!!!!!!!!!!!!!!!!!!!!!!!!!!!!!!!!!!!!!!!!!!!!!!!!!!!!!!+$J!^!&!'!'!'!'!'!'!'!'!'!'!'!'!'!'!'!'!'!'!'!'!'!'!'!'!'!'!'!'!'!'!'!'!'!'!'!'!'!'!'!'!'!'!'!'!'!'!'!'!'!'!'!5$K#H!=!!!!!!!!!!!!!!!!!!!!!!!!!!!!!!!!!!!!!!!!!!!!!!!!!!!!!!!!!!!!!!!!!!!!!!!!!!!!!!!!!!!!!!!!!!!!!#!T!3!5!'!'!'!'!'!'!'!'!'!'!'!'!'!'!'!'!'!'!'!'!'!'!'!'!'!'!'!'!'!'!'!'!'!'!'!'!'!'!'!'!'!'!'!'!'!'!'!'!'!'!'!.#p![!G!!!!!!!!!!!!!!!!!!!!!!!!!!!!!!!!!!!!!!!!!!!!!!!!!!!!!!!!!!!!!!!!!!!!!!!!!!!!!!!!!!!!!!!!!!!!",
"!!!!!!!!!!!!!!!!!!!!!!!!!!!!!!!!!!!!!!!!!!!!!!!!!!!!!!!!!!!!!!!!!!!!!!!!!!!!!!!!!!!!!!!!!!!!!#$L#z!a!'!'!'!'!'!'!'!'!'!'!'!'!'!'!'!'!'!'!'!'!'!'!'!'!'!'!'!'!'!'!'!'!'!'!'!'!'!'!'!'!'!'!'!'!'!'!'!'!'!'!'!.!/$M!#!!!!!!!!!!!!!!!!!!!!!!!!!!!!!!!!!!!!!!!!!!!!!!!!!!!!!!!!!!!!!!!!!!!!!!!!!!!!!!!!!!!!!!!!!!!!!##V!]!&!'!'!'!'!'!'!'!'!'!'!'!'!'!'!'!'!'!'!'!'!'!'!'!'!'!'!'!'!'!'!'!'!'!'!'!'!'!'!'!'!'!'!'!'!'!'!'!'!'!'!'!a$N$O!#!!!!!!!!!!!!!!!!!!!!!!!!!!!!!!!!!!!!!!!!!!!!!!!!!!!!!!!!!!!!!!!!!!!!!!!!!!!!!!!!!!!!!!!!!!!!",
"!!!!!!!!!!!!!!!!!!!!!!!!!!!!!!!!!!!!!!!!!!!!!!!!!!!!!!!!!!!!!!!!!!!!!!!!!!!!!!!!!!!!!!!!!!!!!!!+$P#p!.!'!'!'!'!'!'!'!'!'!'!'!'!'!'!'!'!'!'!'!'!'!'!'!'!'!'!'!'!'!'!'!'!'!'!'!'!'!'!'!'!'!'!'!'!'!'!'!'!'!'!'!4!e!W!8!!!!!!!!!!!!!!!!!!!!!!!!!!!!!!!!!!!!!!!!!!!!!!!!!!!!!!!!!!!!!!!!!!!!!!!!!!!!!!!!!!!!!!!!!8!7#5!4!'!'!'!'!'!'!'!'!'!'!'!'!'!'!'!'!'!'!'!'!'!'!'!'!'!'!'!'!'!'!'!'!'!'!'!'!'!'!'!'!'!'!'!'!'!'!'!'!'!'!'!N#f$Q!#!!!!!!!!!!!!!!!!!!!!!!!!!!!!!!!!!!!!!!!!!!!!!!!!!!!!!!!!!!!!!!!!!!!!!!!!!!!!!!!!!!!!!!!!!!!!!!",
"!!!!!!!!!!!!!!!!!!!!!!!!!!!!!!!!!!!!!!!!!!!!!!!!!!!!!!!!!!!!!!!!!!!!!!!!!!!!!!!!!!!!!!!!!!!!!!!#!~$R!a!'!'!'!'!'!'!'!'!'!'!'!'!'!'!'!'!'!'!'!'!'!'!'!'!'!'!'!'!'!'!'!'!'!'!'!'!'!'!'!'!'!'!'!'!'!'!'!'!'!'!'!5$S$T!#!!!!!!!!!!!!!!!!!!!!!!!!!!!!!!!!!!!!!!!!!!!!!!!!!!!!!!!!!!!!!!!!!!!!!!!!!!!!!!!!!!!!!!!!!=#X$U!4!'!'!'!'!'!'!'!'!'!'!'!'!'!'!'!'!'!'!'!'!'!'!'!'!'!'!'!'!'!'!'!'!'!'!'!'!'!'!'!'!'!'!'!'!'!'!'!'!'!'!'!r!z$V!=!!!!!!!!!!!!!!!!!!!!!!!!!!!!!!!!!!!!!!!!!!!!!!!!!!!!!!!!!!!!!!!!!!!!!!!!!!!!!!!!!!!!!!!!!!!!!!",
"!!!!!!!!!!!!!!!!!!!!!!!!!!!!!!!!!!!!!!!!!!!!!!!!!!!!!!!!!!!!!!!!!!!!!!!!!!!!!!!!!!!!!!!!!!!!!!!8!!#h!{!.!'!'!'!'!'!'!'!'!'!'!'!'!'!'!'!'!'!'!'!'!'!'!'!'!'!'!'!'!'!'!'!'!'!'!'!'!'!'!'!'!'!'!'!'!'!'!'!'!'!'!'!-!:!}#u!!!!!!!!!!!!!!!!!!!!!!!!!!!!!!!!!!!!!!!!!!!!!!!!!!!!!!!!!!!!!!!!!!!!!!!!!!!!!!!!!!!!!!!!$W!.!'!'!'!'!'!'!'!'!'!'!'!'!'!'!'!'!'!'!'!'!'!'!'!'!'!'!'!'!'!'!'!'!'!'!'!'!'!'!'!'!'!'!'!'!'!'!'!'!'!'!'!'!.!q$X!8!!!!!!!!!!!!!!!!!!!!!!!!!!!!!!!!!!!!!!!!!!!!!!!!!!!!!!!!!!!!!!!!!!!!!!!!!!!!!!!!!!!!!!!!!!!!!!",
"!!!!!!!!!!!!!!!!!!!!!!!!!!!!!!!!!!!!!!!!!!!!!!!!!!!!!!!!!!!!!!!!!!!!!!!!!!!!!!!!!!!!!!!!!!!!!!!!!G$Y$Z!5!'!'!'!'!'!'!'!'!'!'!'!'!'!'!'!'!'!'!'!'!'!'!'!'!'!'!'!'!'!'!'!'!'!'!'!'!'!'!'!'!'!'!'!'!'!'!'!'!'!'!'!5!;#C!G!!!!!!!!!!!!!!!!!!!!!!!!!!!!!!!!!!!!!!!!!!!!!!!!!!!!!!!!!!!!!!!!!!!!!!!!!!!!!!!!!!!!!G$[$]!4!'!'!'!'!'!'!'!'!'!'!'!'!'!'!'!'!'!'!'!'!'!'!'!'!'!'!'!'!'!'!'!'!'!'!'!'!'!'!'!'!'!'!'!'!'!'!'!'!'!'!'!-!l#X!=!!!!!!!!!!!!!!!!!!!!!!!!!!!!!!!!!!!!!!!!!!!!!!!!!!!!!!!!!!!!!!!!!!!!!!!!!!!!!!!!!!!!!!!!!!!!!!!!",
"!!!!!!!!!!!!!!!!!!!!!!!!!!!!!!!!!!!!!!!!!!!!!!!!!!!!!!!!!!!!!!!!!!!!!!!!!!!!!!!!!!!!!!!!!!!!!!!!!8$^!6!.!'!'!'!'!'!'!'!'!'!'!'!'!'!'!'!'!'!'!'!'!'!'!'!'!'!'!'!'!'!'!'!'!'!'!'!'!'!'!'!'!'!'!'!'!'!'!'!'!'!'!'!.!{$_!8!!!!!!!!!!!!!!!!!!!!!!!!!!!!!!!!!!!!!!!!!!!!!!!!!!!!!!!!!!!!!!!!!!!!!!!!!!!!!!!!!!!!!#$`#F!.!'!'!'!'!'!'!'!'!'!'!'!'!'!'!'!'!'!'!'!'!'!'!'!'!'!'!'!'!'!'!'!'!'!'!'!'!'!'!'!'!'!'!'!'!'!'!'!'!'!'!'!-$a!c!#!!!!!!!!!!!!!!!!!!!!!!!!!!!!!!!!!!!!!!!!!!!!!!!!!!!!!!!!!!!!!!!!!!!!!!!!!!!!!!!!!!!!!!!!!!!!!!!!",
"!!!!!!!!!!!!!!!!!!!!!!!!!!!!!!!!!!!!!!!!!!!!!!!!!!!!!!!!!!!!!!!!!!!!!!!!!!!!!!!!!!!!!!!!!!!!!!!!!!!G$b$c!-!'!'!'!'!'!'!'!'!'!'!'!'!'!'!'!'!'!'!'!'!'!'!'!'!'!'!'!'!'!'!'!'!'!'!'!'!'!'!'!'!'!'!'!'!'!'!'!'!'!'!'!-$d#H!=!!!!!!!!!!!!!!!!!!!!!!!!!!!!!!!!!!!!!!!!!!!!!!!!!!!!!!!!!!!!!!!!!!!!!!!!!!!!!!!!!#!T#i!5!'!'!'!'!'!'!'!'!'!'!'!'!'!'!'!'!'!'!'!'!'!'!'!'!'!'!'!'!'!'!'!'!'!'!'!'!'!'!'!'!'!'!'!'!'!'!'!'!'!'!'!.!/$e!G!!!!!!!!!!!!!!!!!!!!!!!!!!!!!!!!!!!!!!!!!!!!!!!!!!!!!!!!!!!!!!!!!!!!!!!!!!!!!!!!!!!!!!!!!!!!!!!!!!",
"!!!!!!!!!!!!!!!!!!!!!!!!!!!!!!!!!!!!!!!!!!!!!!!!!!!!!!!!!!!!!!!!!!!!!!!!!!!!!!!!!!!!!!!!!!!!!!!!!!!##e$f!4!'!'!'!'!'!'!'!'!'!'!'!'!'!'!'!'!'!'!'!'!'!'!'!'!'!'!'!'!'!'!'!'!'!'!'!'!'!'!'!'!'!'!'!'!'!'!'!'!'!'!'!.!m#V!=!!!!!!!!!!!!!!!!!!!!!!!!!!!!!!!!!!!!!!!!!!!!!!!!!!!!!!!!!!!!!!!!!!!!!!!!!!!!!!!!!=#0#d!.!'!'!'!'!'!'!'!'!'!'!'!'!'!'!'!'!'!'!'!'!'!'!'!'!'!'!'!'!'!'!'!'!'!'!'!'!'!'!'!'!'!'!'!'!'!'!'!'!'!'!'!4!p#j!#!!!!!!!!!!!!!!!!!!!!!!!!!!!!!!!!!!!!!!!!!!!!!!!!!!!!!!!!!!!!!!!!!!!!!!!!!!!!!!!!!!!!!!!!!!!!!!!!!!",
"!!!!!!!!!!!!!!!!!!!!!!!!!!!!!!!!!!!!!!!!!!!!!!!!!!!!!!!!!!!!!!!!!!!!!!!!!!!!!!!!!!!!!!!!!!!!!!!!!!!!!+$g$h!.!'!'!'!'!'!'!'!'!'!'!'!'!'!'!'!'!'!'!'!'!'!'!'!'!'!'!'!'!'!'!'!'!'!'!'!'!'!'!'!'!'!'!'!'!'!'!'!'!'!'!'!-$i$j!8!!!!!!!!!!!!!!!!!!!!!!!!!!!!!!!!!!!!!!!!!!!!!!!!!!!!!!!!!!!!!!!!!!!!!!!!!!!!!8!7$k!-!'!'!'!'!'!'!'!'!'!'!'!'!'!'!'!'!'!'!'!'!'!'!'!'!'!'!'!'!'!'!'!'!'!'!'!'!'!'!'!'!'!'!'!'!'!'!'!'!'!'!'!.!{$l!#!!!!!!!!!!!!!!!!!!!!!!!!!!!!!!!!!!!!!!!!!!!!!!!!!!!!!!!!!!!!!!!!!!!!!!!!!!!!!!!!!!!!!!!!!!!!!!!!!!!!",
"!!!!!!!!!!!!!!!!!!!!!!!!!!!!!!!!!!!!!!!!!!!!!!!!!!!!!!!!!!!!!!!!!!!!!!!!!!!!!!!!!!!!!!!!!!!!!!!!!!!!!#!t#@!a!'!'!'!'!'!'!'!'!'!'!'!'!'!'!'!'!'!'!'!'!'!'!'!'!'!'!'!'!'!'!'!'!'!'!'!'!'!'!'!'!'!'!'!'!'!'!'!'!'!'!'!5$U!P!G!!!!!!!!!!!!!!!!!!!!!!!!!!!!!!!!!!!!!!!!!!!!!!!!!!!!!!!!!!!!!!!!!!!!!!!!!!!!!G#b$m!4!'!'!'!'!'!'!'!'!'!'!'!'!'!'!'!'!'!'!'!'!'!'!'!'!'!'!'!'!'!'!'!'!'!'!'!'!'!'!'!'!'!'!'!'!'!'!'!'!'!'!'!r$n$o!G!!!!!!!!!!!!!!!!!!!!!!!!!!!!!!!!!!!!!!!!!!!!!!!!!!!!!!!!!!!!!!!!!!!!!!!!!!!!!!!!!!!!!!!!!!!!!!!!!!!!",
"!!!!!!!!!!!!!!!!!!!!!!!!!!!!!!!!!!!!!!!!!!!!!!!!!!!!!!!!!!!!!!!!!!!!!!!!!!!!!!!!!!!!!!!!!!!!!!!!!!!!!!!#$p#F!.!'!'!'!'!'!'!'!'!'!'!'!'!'!'!'!'!'!'!'!'!'!'!'!'!'!'!'!'!'!'!'!'!'!'!'!'!'!'!'!'!'!'!'!'!'!'!'!'!'!'!.!'$q!}!8!!!!!!!!!!!!!!!!!!!!!!!!!!!!!!!!!!!!!!!!!!!!!!!!!!!!!!!!!!!!!!!!!!!!!!!!#u!!$=!{!.!'!'!'!'!'!'!'!'!'!'!'!'!'!'!'!'!'!'!'!'!'!'!'!'!'!'!'!'!'!'!'!'!'!'!'!'!'!'!'!'!'!'!'!'!'!'!'!'!'!'!'!.$r!!!!!!!!!!!!!!!!!!!!!!!!!!!!!!!!!!!!!!!!!!!!!!!!!!!!!!!!!!!!!!!!!!!!!!!!!!!!!!!!!!!!!!!!!!!!!!!!!!!!!!!!",
"!!!!!!!!!!!!!!!!!!!!!!!!!!!!!!!!!!!!!!!!!!!!!!!!!!!!!!!!!!!!!!!!!!!!!!!!!!!!!!!!!!!!!!!!!!!!!!!!!!!!!!!=$s$B!4!'!'!'!'!'!'!'!'!'!'!'!'!'!'!'!'!'!'!'!'!'!'!'!'!'!'!'!'!'!'!'!'!'!'!'!'!'!'!'!'!'!'!'!'!'!'!'!'!'!'!'!r$t$[!#!!!!!!!!!!!!!!!!!!!!!!!!!!!!!!!!!!!!!!!!!!!!!!!!!!!!!!!!!!!!!!!!!!!!!!!!!##l#E!r!'!'!'!'!'!'!'!'!'!'!'!'!'!'!'!'!'!'!'!'!'!'!'!'!'!'!'!'!'!'!'!'!'!'!'!'!'!'!'!'!'!'!'!'!'!'!'!'!'!'!'!5#%$u!G!!!!!!!!!!!!!!!!!!!!!!!!!!!!!!!!!!!!!!!!!!!!!!!!!!!!!!!!!!!!!!!!!!!!!!!!!!!!!!!!!!!!!!!!!!!!!!!!!!!!!!",
"!!!!!!!!!!!!!!!!!!!!!!!!!!!!!!!!!!!!!!!!!!!!!!!!!!!!!!!!!!!!!!!!!!!!!!!!!!!!!!!!!!!!!!!!!!!!!!!!!!!!!!!8!F!:!.!'!'!'!'!'!'!'!'!'!'!'!'!'!'!'!'!'!'!'!'!'!'!'!'!'!'!'!'!'!'!'!'!'!'!'!'!'!'!'!'!'!'!'!'!'!'!'!'!'!'!'!.!?$I!G!!!!!!!!!!!!!!!!!!!!!!!!!!!!!!!!!!!!!!!!!!!!!!!!!!!!!!!!!!!!!!!!!!!!!!!!!G$v!v!.!'!'!'!'!'!'!'!'!'!'!'!'!'!'!'!'!'!'!'!'!'!'!'!'!'!'!'!'!'!'!'!'!'!'!'!'!'!'!'!'!'!'!'!'!'!'!'!'!'!'!'!-!`#,!8!!!!!!!!!!!!!!!!!!!!!!!!!!!!!!!!!!!!!!!!!!!!!!!!!!!!!!!!!!!!!!!!!!!!!!!!!!!!!!!!!!!!!!!!!!!!!!!!!!!!!!",
"!!!!!!!!!!!!!!!!!!!!!!!!!!!!!!!!!!!!!!!!!!!!!!!!!!!!!!!!!!!!!!!!!!!!!!!!!!!!!!!!!!!!!!!!!!!!!!!!!!!!!!!!!G#X$$!-!'!'!'!'!'!'!'!'!'!'!'!'!'!'!'!'!'!'!'!'!'!'!'!'!'!'!'!'!'!'!'!'!'!'!'!'!'!'!'!'!'!'!'!'!'!'!'!'!'!'!'!4!p#j!=!!!!!!!!!!!!!!!!!!!!!!!!!!!!!!!!!!!!!!!!!!!!!!!!!!!!!!!!!!!!!!!!!!!!!#!f!e!4!'!'!'!'!'!'!'!'!'!'!'!'!'!'!'!'!'!'!'!'!'!'!'!'!'!'!'!'!'!'!'!'!'!'!'!'!'!'!'!'!'!'!'!'!'!'!'!'!'!'!'!.!($w!#!!!!!!!!!!!!!!!!!!!!!!!!!!!!!!!!!!!!!!!!!!!!!!!!!!!!!!!!!!!!!!!!!!!!!!!!!!!!!!!!!!!!!!!!!!!!!!!!!!!!!!!!",
"!!!!!!!!!!!!!!!!!!!!!!!!!!!!!!!!!!!!!!!!!!!!!!!!!!!!!!!!!!!!!!!!!!!!!!!!!!!!!!!!!!!!!!!!!!!!!!!!!!!!!!!!!##]$a!5!'!'!'!'!'!'!'!'!'!'!'!'!'!'!'!'!'!'!'!'!'!'!'!'!'!'!'!'!'!'!'!'!'!'!'!'!'!'!'!'!'!'!'!'!'!'!'!'!'!'!'!&#d#}!*!!!!!!!!!!!!!!!!!!!!!!!!!!!!!!!!!!!!!!!!!!!!!!!!!!!!!!!!!!!!!!!!!!!!!+!j$x!-!'!'!'!'!'!'!'!'!'!'!'!'!'!'!'!'!'!'!'!'!'!'!'!'!'!'!'!'!'!'!'!'!'!'!'!'!'!'!'!'!'!'!'!'!'!'!'!'!'!'!'!5$y!f!#!!!!!!!!!!!!!!!!!!!!!!!!!!!!!!!!!!!!!!!!!!!!!!!!!!!!!!!!!!!!!!!!!!!!!!!!!!!!!!!!!!!!!!!!!!!!!!!!!!!!!!!!",
"!}!!!!!!!!!!!!!!!!!!!!!!!!!!!!!!!!!!!!!!!!!!!!!!!!!!!!!!!!!!!!!!!!!!!!!!!!!!!!!!!!!!!!!!!!!!!!!!!!!!!!!!!!!G$+!/!.!'!'!'!'!'!'!'!'!'!'!'!'!'!'!'!'!'!'!'!'!'!'!'!'!'!'!'!'!'!'!'!'!'!'!'!'!'!'!'!'!'!'!'!'!'!'!'!'!'!'!'!5$z!W!8!!!!!!!!!!!!!!!!!!!!!!!!!!!!!!!!!!!!!!!!!!!!!!!!!!!!!!!!!!!!!!!!!8$D${!5!'!'!'!'!'!'!'!'!'!'!'!'!'!'!'!'!'!'!'!'!'!'!'!'!'!'!'!'!'!'!'!'!'!'!'!'!'!'!'!'!'!'!'!'!'!'!'!'!'!'!'!.#L$|!#!!!!!!!!!!!!!!!!!!!!!!!!!!!!!!!!!!!!!!!!!!!!!!!!!!!!!!!!!!!!!!!!!!!!!!!!!!!!!!!!!!!!!!!!!!!!!!!!!!!!!!!!!}",
"$*!8!!!!!!!!!!!!!!!!!!!!!!!!!!!!!!!!!!!!!!!!!!!!!!!!!!!!!!!!!!!!!!!!!!!!!!!!!!!!!!!!!!!!!!!!!!!!!!!!!!!!!!!#$-$}!a!'!'!'!'!'!'!'!'!'!'!'!'!'!'!'!'!'!'!'!'!'!'!'!'!'!'!'!'!'!'!'!'!'!'!'!'!'!'!'!'!'!'!'!'!'!'!'!'!'!'!'!-$@$?!G!!!!!!!!!!!!!!!!!!!!!!!!!!!!!!!!!!!!!!!!!!!!!!!!!!!!!!!!!!!!!!!!!G$~#c!5!'!'!'!'!'!'!'!'!'!'!'!'!'!'!'!'!'!'!'!'!'!'!'!'!'!'!'!'!'!'!'!'!'!'!'!'!'!'!'!'!'!'!'!'!'!'!'!'!'!'!'!r$R%!!G!!!!!!!!!!!!!!!!!!!!!!!!!!!!!!!!!!!!!!!!!!!!!!!!!!!!!!!!!!!!!!!!!!!!!!!!!!!!!!!!!!!!!!!!!!!!!!!!!!!!!!!8!o",
"%#!F!8!!!!!!!!!!!!!!!!!!!!!!!!!!!!!!!!!!!!!!!!!!!!!!!!!!!!!!!!!!!!!!!!!!!!!!!!!!!!!!!!!!!!!!!!!!!!!!!!!!!!!!!=%$!?!.!'!'!'!'!'!'!'!'!'!'!'!'!'!'!'!'!'!'!'!'!'!'!'!'!'!'!'!'!'!'!'!'!'!'!'!'!'!'!'!'!'!'!'!'!'!'!'!'!'!'!.!{%%!!!8!!!!!!!!!!!!!!!!!!!!!!!!!!!!!!!!!!!!!!!!!!!!!!!!!!!!!!!!!!!!#u!!!J!?!.!'!'!'!'!'!'!'!'!'!'!'!'!'!'!'!'!'!'!'!'!'!'!'!'!'!'!'!'!'!'!'!'!'!'!'!'!'!'!'!'!'!'!'!'!'!'!'!'!'!'!'!N%&!!!!!!!!!!!!!!!!!!!!!!!!!!!!!!!!!!!!!!!!!!!!!!!!!!!!!!!!!!!!!!!!!!!!!!!!!!!!!!!!!!!!!!!!!!!!!!!!!!!!!!!!!8!F%'",
"%(%)!#!!!!!!!!!!!!!!!!!!!!!!!!!!!!!!!!!!!!!!!!!!!!!!!!!!!!!!!!!!!!!!!!!!!!!!!!!!!!!!!!!!!!!!!!!!!!!!!!!!!!!!!##{$n!r!'!'!'!'!'!'!'!'!'!'!'!'!'!'!'!'!'!'!'!'!'!'!'!'!'!'!'!'!'!'!'!'!'!'!'!'!'!'!'!'!'!'!'!'!'!'!'!'!'!'!'!r%*!~!#!!!!!!!!!!!!!!!!!!!!!!!!!!!!!!!!!!!!!!!!!!!!!!!!!!!!!!!!!!!!!##H$R!r!'!'!'!'!'!'!'!'!'!'!'!'!'!'!'!'!'!'!'!'!'!'!'!'!'!'!'!'!'!'!'!'!'!'!'!'!'!'!'!'!'!'!'!'!'!'!'!'!'!'!'!4!D$?!G!!!!!!!!!!!!!!!!!!!!!!!!!!!!!!!!!!!!!!!!!!!!!!!!!!!!!!!!!!!!!!!!!!!!!!!!!!!!!!!!!!!!!!!!!!!!!!!!!!!!!!!##Q%+",
"$h#r!#!!!!!!!!!!!!!!!!!!!!!!!!!!!!!!!!!!!!!!!!!!!!!!!!!!!!!!!!!!!!!!!!!!!!!!!!!!!!!!!!!!!!!!!!!!!!!!!!!!!!!!!8!}$=!'!'!'!'!'!'!'!'!'!'!'!'!'!'!'!'!'!'!'!'!'!'!'!'!'!'!'!'!'!'!'!'!'!'!'!'!'!'!'!'!'!'!'!'!'!'!'!'!'!'!'!'!.!m$v!=!!!!!!!!!!!!!!!!!!!!!!!!!!!!!!!!!!!!!!!!!!!!!!!!!!!!!!!!!!!!!#$/#d!.!'!'!'!'!'!'!'!'!'!'!'!'!'!'!'!'!'!'!'!'!'!'!'!'!'!'!'!'!'!'!'!'!'!'!'!'!'!'!'!'!'!'!'!'!'!'!'!'!'!'!'!-$E#S!8!!!!!!!!!!!!!!!!!!!!!!!!!!!!!!!!!!!!!!!!!!!!!!!!!!!!!!!!!!!!!!!!!!!!!!!!!!!!!!!!!!!!!!!!!!!!!!!!!!!!!!!#%,#d",
"!a%-!o!1!!!!!!!!!!!!!!!!!!!!!!!!!!!!!!!!!!!!!!!!!!!!!!!!!!!!!!!!!!!!!!!!!!!!!!!!!!!!!!!!!!!!!!!!!!!!!!!!!!!!!!!G%.$U!-!'!'!'!'!'!'!'!'!'!'!'!'!'!'!'!'!'!'!'!'!'!'!'!'!'!'!'!'!'!'!'!'!'!'!'!'!'!'!'!'!'!'!'!'!'!'!'!'!'!'!'!a!e#y!1!!!!!!!!!!!!!!!!!!!!!!!!!!!!!!!!!!!!!!!!!!!!!!!!!!!!!!!!!8#]!d!r!'!'!'!'!'!'!'!'!'!'!'!'!'!'!'!'!'!'!'!'!'!'!'!'!'!'!'!'!'!'!'!'!'!'!'!'!'!'!'!'!'!'!'!'!'!'!'!'!'!'!'!-!i!k!G!!!!!!!!!!!!!!!!!!!!!!!!!!!!!!!!!!!!!!!!!!!!!!!!!!!!!!!!!!!!!!!!!!!!!!!!!!!!!!!!!!!!!!!!!!!!!!!!!!!!!!!1#e#z!a",
"!-!h!)!+!!!!!!!!!!!!!!!!!!!!!!!!!!!!!!!!!!!!!!!!!!!!!!!!!!!!!!!!!!!!!!!!!!!!!!!!!!!!!!!!!!!!!!!!!!!!!!!!!!!!!!!1!W#^!-!'!'!'!'!'!'!'!'!'!'!'!'!'!'!'!'!'!'!'!'!'!'!'!'!'!'!'!'!'!'!'!'!'!'!'!'!'!'!'!'!'!'!'!'!'!'!'!'!'!'!'!-$c#}!B!!!!!!!!!!!!!!!!!!!!!!!!!!!!!!!!!!!!!!!!!!!!!!!!!!!!!!!!!G%/!O!-!'!'!'!'!'!'!'!'!'!'!'!'!'!'!'!'!'!'!'!'!'!'!'!'!'!'!'!'!'!'!'!'!'!'!'!'!'!'!'!'!'!'!'!'!'!'!'!'!'!'!'!-%0$4!#!!!!!!!!!!!!!!!!!!!!!!!!!!!!!!!!!!!!!!!!!!!!!!!!!!!!!!!!!!!!!!!!!!!!!!!!!!!!!!!!!!!!!!!!!!!!!!!!!!!!!!!*#}#a!-",
"!'!a%1!W!8!!!!!!!!!!!!!!!!!!!!!!!!!!!!!!!!!!!!!!!!!!!!!!!!!!!!!!!!!!!!!!!!!!!!!!!!!!!!!!!!!!!!!!!!!!!!!!!!!!!!!!!G!j%2!&!'!'!'!'!'!'!'!'!'!'!'!'!'!'!'!'!'!'!'!'!'!'!'!'!'!'!'!'!'!'!'!'!'!'!'!'!'!'!'!'!'!'!'!'!'!'!'!'!'!'!'!4${!7!8!!!!!!!!!!!!!!!!!!!!!!!!!!!!!!!!!!!!!!!!!!!!!!!!!!!!!8#Y!q!-!'!'!'!'!'!'!'!'!'!'!'!'!'!'!'!'!'!'!'!'!'!'!'!'!'!'!'!'!'!'!'!'!'!'!'!'!'!'!'!'!'!'!'!'!'!'!'!'!'!'!'!.%3$M!1!!!!!!!!!!!!!!!!!!!!!!!!!!!!!!!!!!!!!!!!!!!!!!!!!!!!!!!!!!!!!!!!!!!!!!!!!!!!!!!!!!!!!!!!!!!!!!!!!!!!!!!8$^%4!a!'",
"!'!-$U%5!+!!!!!!!!!!!!!!!!!!!!!!!!!!!!!!!!!!!!!!!!!!!!!!!!!!!!!!!!!!!!!!!!!!!!!!!!!!!!!!!!!!!!!!!!!!!!!!!!!!!!!!!#!f%-!5!'!'!'!'!'!'!'!'!'!'!'!'!'!'!'!'!'!'!'!'!'!'!'!'!'!'!'!'!'!'!'!'!'!'!'!'!'!'!'!'!'!'!'!'!'!'!'!'!'!'!'!-#U!C!B!!!!!!!!!!!!!!!!!!!!!!!!!!!!!!!!!!!!!!!!!!!!!!!!!!!!!+%6%7!-!'!'!'!'!'!'!'!'!'!'!'!'!'!'!'!'!'!'!'!'!'!'!'!'!'!'!'!'!'!'!'!'!'!'!'!'!'!'!'!'!'!'!'!'!'!'!'!'!'!'!'!4%8!t!G!!!!!!!!!!!!!!!!!!!!!!!!!!!!!!!!!!!!!!!!!!!!!!!!!!!!!!!!!!!!!!!!!!!!!!!!!!!!!!!!!!!!!!!!!!!!!!!!!!!!!!!+%9$m!5!'",
"!'!.!N$6!K!8!!!!!!!!!!!!!!!!!!!!!!!!!!!!!!!!!!!!!!!!!!!!!!!!!!!!!!!!!!!!!!!!!!!!!!!!!!!!!!!!!!!!!!!!!!!!!!!!!!!!!!!G#r!?!.!'!'!'!'!'!'!'!'!'!'!'!'!'!'!'!'!'!'!'!'!'!'!'!'!'!'!'!'!'!'!'!'!'!'!'!'!'!'!'!'!'!'!'!'!'!'!'!'!'!'!.!{$(!}!8!!!!!!!!!!!!!!!!!!!!!!!!!!!!!!!!!!!!!!!!!!!!!!!!!!$G$F!{!.!'!'!'!'!'!'!'!'!'!'!'!'!'!'!'!'!'!'!'!'!'!'!'!'!'!'!'!'!'!'!'!'!'!'!'!'!'!'!'!'!'!'!'!'!'!'!'!'!'!'!'!.%:#u#u!!!!!!!!!!!!!!!!!!!!!!!!!!!!!!!!!!!!!!!!!!!!!!!!!!!!!!!!!!!!!!!!!!!!!!!!!!!!!!!!!!!!!!!!!!!!!!!!!!!!!8!}%;!'!.!'",
"!'!'!4!;%<!=!!!!!!!!!!!!!!!!!!!!!!!!!!!!!!!!!!!!!!!!!!!!!!!!!!!!!!!!!!!!!!!!!!!!!!!!!!!!!!!!!!!!!!!!!!!!!!!!!!!!!!!=$2$R!a!'!'!'!'!'!'!'!'!'!'!'!'!'!'!'!'!'!'!'!'!'!'!'!'!'!'!'!'!'!'!'!'!'!'!'!'!'!'!'!'!'!'!'!'!'!'!'!'!'!'!'!4$R#H!#!!!!!!!!!!!!!!!!!!!!!!!!!!!!!!!!!!!!!!!!!!!!!!!!!#!T%=!4!'!'!'!'!'!'!'!'!'!'!'!'!'!'!'!'!'!'!'!'!'!'!'!'!'!'!'!'!'!'!'!'!'!'!'!'!'!'!'!'!'!'!'!'!'!'!'!'!'!'!'!4$B$Y!G!!!!!!!!!!!!!!!!!!!!!!!!!!!!!!!!!!!!!!!!!!!!!!!!!!!!!!!!!!!!!!!!!!!!!!!!!!!!!!!!!!!!!!!!!!!!!!!!!!!!!!!=#m#s!4!'!'",
"!'!'!.!v%>$H!!!!!!!!!!!!!!!!!!!!!!!!!!!!!!!!!!!!!!!!!!!!!!!!!!!!!!!!!!!!!!!!!!!!!!!!!!!!!!!!!!!!!!!!!!!!!!!!!!!!!!!8!8%%!'!'!'!'!'!'!'!'!'!'!'!'!'!'!'!'!'!'!'!'!'!'!'!'!'!'!'!'!'!'!'!'!'!'!'!'!'!'!'!'!'!'!'!'!'!'!'!'!'!'!'!'!&#1%'!#!!!!!!!!!!!!!!!!!!!!!!!!!!!!!!!!!!!!!!!!!!!!!!!!!#%?!]!-!'!'!'!'!'!'!'!'!'!'!'!'!'!'!'!'!'!'!'!'!'!'!'!'!'!'!'!'!'!'!'!'!'!'!'!'!'!'!'!'!'!'!'!'!'!'!'!'!'!'!'!5%@!}!8!!!!!!!!!!!!!!!!!!!!!!!!!!!!!!!!!!!!!!!!!!!!!!!!!!!!!!!!!!!!!!!!!!!!!!!!!!!!!!!!!!!!!!!!!!!!!!!!!!!!!!!8%A%3!.!'!'",
"!'!'!'!a%B#x!#!!!!!!!!!!!!!!!!!!!!!!!!!!!!!!!!!!!!!!!!!!!!!!!!!!!!!!!!!!!!!!!!!!!!!!!!!!!!!!!!!!!!!!!!!!!!!!!!!!!!!!!=%C!D!4!'!'!'!'!'!'!'!'!'!'!'!'!'!'!'!'!'!'!'!'!'!'!'!'!'!'!'!'!'!'!'!'!'!'!'!'!'!'!'!'!'!'!'!'!'!'!'!'!'!'!'!4!e%D!8!!!!!!!!!!!!!!!!!!!!!!!!!!!!!!!!!!!!!!!!!!!!!8$D!d!4!'!'!'!'!'!'!'!'!'!'!'!'!'!'!'!'!'!'!'!'!'!'!'!'!'!'!'!'!'!'!'!'!'!'!'!'!'!'!'!'!'!'!'!'!'!'!'!'!'!'!'!-#.$#!G!!!!!!!!!!!!!!!!!!!!!!!!!!!!!!!!!!!!!!!!!!!!!!!!!!!!!!!!!!!!!!!!!!!!!!!!!!!!!!!!!!!!!!!!!!!!!!!!!!!!!!!#%E$}!a!'!'!'",
"!'!'!'!-#|%F!B!!!!!!!!!!!!!!!!!!!!!!!!!!!!!!!!!!!!!!!!!!!!!!!!!!!!!!!!!!!!!!!!!!!!!!!!!!!!!!!!!!!!!!!!!!!!!!!!!!!!!!!8!9$E!-!'!'!'!'!'!'!'!'!'!'!'!'!'!'!'!'!'!'!'!'!'!'!'!'!'!'!'!'!'!'!'!'!'!'!'!'!'!'!'!'!'!'!'!'!'!'!'!'!'!'!'!5#W%G!B!!!!!!!!!!!!!!!!!!!!!!!!!!!!!!!!!!!!!!!!!!!!!G$b!Y!5!'!'!'!'!'!'!'!'!'!'!'!'!'!'!'!'!'!'!'!'!'!'!'!'!'!'!'!'!'!'!'!'!'!'!'!'!'!'!'!'!'!'!'!'!'!'!'!'!'!'!'!4%H!7!8!!!!!!!!!!!!!!!!!!!!!!!!!!!!!!!!!!!!!!!!!!!!!!!!!!!!!!!!!!!!!!!!!!!!!!!!!!!!!!!!!!!!!!!!!!!!!!!!!!!!!!!+!)!h!-!'!'!'",
"!'!'!'!'!a$a!c!8!!!!!!!!!!!!!!!!!!!!!!!!!!!!!!!!!!!!!!!!!!!!!!!!!!!!!!!!!!!!!!!!!!!!!!!!!!!!!!!!!!!!!!!!!!!!!!!!!!!!!!!G$b%I!-!'!'!'!'!'!'!'!'!'!'!'!'!'!'!'!'!'!'!'!'!'!'!'!'!'!'!'!'!'!'!'!'!'!'!'!'!'!'!'!'!'!'!'!'!'!'!'!'!'!'!'!-%@!F!8!!!!!!!!!!!!!!!!!!!!!!!!!!!!!!!!!!!!!!!!!!$X%J!-!'!'!'!'!'!'!'!'!'!'!'!'!'!'!'!'!'!'!'!'!'!'!'!'!'!'!'!'!'!'!'!'!'!'!'!'!'!'!'!'!'!'!'!'!'!'!'!'!'!'!'%K!/!g!#!!!!!!!!!!!!!!!!!!!!!!!!!!!!!!!!!!!!!!!!!!!!!!!!!!!!!!!!!!!!!!!!!!!!!!!!!!!!!!!!!!!!!!!!!!!!!!!!!!!!!!!8$D#^!a!'!'!'!'",
"!'!'!'!'!-!l!X!*!!!!!!!!!!!!!!!!!!!!!!!!!!!!!!!!!!!!!!!!!!!!!!!!!!!!!!!!!!!!!!!!!!!!!!!!!!!!!!!!!!!!!!!!!!!!!!!!!!!!!!!##e#z!5!'!'!'!'!'!'!'!'!'!'!'!'!'!'!'!'!'!'!'!'!'!'!'!'!'!'!'!'!'!'!'!'!'!'!'!'!'!'!'!'!'!'!'!'!'!'!'!'!'!'!'!-#M%L!+!!!!!!!!!!!!!!!!!!!!!!!!!!!!!!!!!!!!!!!!!G%M!;!5!'!'!'!'!'!'!'!'!'!'!'!'!'!'!'!'!'!'!'!'!'!'!'!'!'!'!'!'!'!'!'!'!'!'!'!'!'!'!'!'!'!'!'!'!'!'!'!'!'!'!'!5$N#j!=!!!!!!!!!!!!!!!!!!!!!!!!!!!!!!!!!!!!!!!!!!!!!!!!!!!!!!!!!!!!!!!!!!!!!!!!!!!!!!!!!!!!!!!!!!!!!!!!!!!!!!!+%N%O!-!'!'!'!'",
"!'!'!'!'!'!-%J%P!8!!!!!!!!!!!!!!!!!!!!!!!!!!!!!!!!!!!!!!!!!!!!!!!!!!!!!!!!!!!!!!!!!!!!!!!!!!!!!!!!!!!!!!!!!!!!!!!!!!!!!!!=#<$.!.!'!'!'!'!'!'!'!'!'!'!'!'!'!'!'!'!'!'!'!'!'!'!'!'!'!'!'!'!'!'!'!'!'!'!'!'!'!'!'!'!'!'!'!'!'!'!'!'!'!'!.!'%Q!!!!!!!!!!!!!!!!!!!!!!!!!!!!!!!!!!!!!!!!!!!8!>!{!.!'!'!'!'!'!'!'!'!'!'!'!'!'!'!'!'!'!'!'!'!'!'!'!'!'!'!'!'!'!'!'!'!'!'!'!'!'!'!'!'!'!'!'!'!'!'!'!'!'!'!.!{#$$H!8!!!!!!!!!!!!!!!!!!!!!!!!!!!!!!!!!!!!!!!!!!!!!!!!!!!!!!!!!!!!!!!!!!!!!!!!!!!!!!!!!!!!!!!!!!!!!!!!!!!!!8!K%R!-!'!'!'!'!'",
"!'!'!'!'!'!4!w%S!B!!!!!!!!!!!!!!!!!!!!!!!!!!!!!!!!!!!!!!!!!!!!!!!!!!!!!!!!!!!!!!!!!!!!!!!!!!!!!!!!!!!!!!!!!!!!!!!!!!!!!!!=!~%T!r!'!'!'!'!'!'!'!'!'!'!'!'!'!'!'!'!'!'!'!'!'!'!'!'!'!'!'!'!'!'!'!'!'!'!'!'!'!'!'!'!'!'!'!'!'!'!'!'!'!'!'!5%U#H!#!!!!!!!!!!!!!!!!!!!!!!!!!!!!!!!!!!!!!#%V%W!4!'!'!'!'!'!'!'!'!'!'!'!'!'!'!'!'!'!'!'!'!'!'!'!'!'!'!'!'!'!'!'!'!'!'!'!'!'!'!'!'!'!'!'!'!'!'!'!'!'!'!'!4#k$o!G!!!!!!!!!!!!!!!!!!!!!!!!!!!!!!!!!!!!!!!!!!!!!!!!!!!!!!!!!!!!!!!!!!!!!!!!!!!!!!!!!!!!!!!!!!!!!!!!!!!!!!!B$o%X!4!'!'!'!'!'",
"!'!'!'!'!'!.!?##!}#u!!!!!!!!!!!!!!!!!!!!!!!!!!!!!!!!!!!!!!!!!!!!!!!!!!!!!!!!!!!!!!!!!!!!!!!!!!!!!!!!!!!!!!!!!!!!!!!!!!!!!!!8$p!{!'!'!'!'!'!'!'!'!'!'!'!'!'!'!'!'!'!'!'!'!'!'!'!'!'!'!'!'!'!'!'!'!'!'!'!'!'!'!'!'!'!'!'!'!'!'!'!'!'!'!'!&#1!g!#!!!!!!!!!!!!!!!!!!!!!!!!!!!!!!!!!!!!!=$9!(!-!'!'!'!'!'!'!'!'!'!'!'!'!'!'!'!'!'!'!'!'!'!'!'!'!'!'!'!'!'!'!'!'!'!'!'!'!'!'!'!'!'!'!'!'!'!'!'!'!'!'!'!-%Y!}!8!!!!!!!!!!!!!!!!!!!!!!!!!!!!!!!!!!!!!!!!!!!!!!!!!!!!!!!!!!!!!!!!!!!!!!!!!!!!!!!!!!!!!!!!!!!!!!!!!!!!!!!!%>%Z!.!'!'!'!'!'",
"!'!'!'!'!'!'!4%=!T!#!!!!!!!!!!!!!!!!!!!!!!!!!!!!!!!!!!!!!!!!!!!!!!!!!!!!!!!!!!!!!!!!!!!!!!!!!!!!!!!!!!!!!!!!!!!!!!!!!!!!!!!=$V#!!r!'!'!'!'!'!'!'!'!'!'!'!'!'!'!'!'!'!'!'!'!'!'!'!'!'!'!'!'!'!'!'!'!'!'!'!'!'!'!'!'!'!'!'!'!'!'!'!'!'!'!'!5%[!7!8!!!!!!!!!!!!!!!!!!!!!!!!!!!!!!!!!8#Y#_!-!'!'!'!'!'!'!'!'!'!'!'!'!'!'!'!'!'!'!'!'!'!'!'!'!'!'!'!'!'!'!'!'!'!'!'!'!'!'!'!'!'!'!'!'!'!'!'!'!'!'!'!4#U%]!G!!!!!!!!!!!!!!!!!!!!!!!!!!!!!!!!!!!!!!!!!!!!!!!!!!!!!!!!!!!!!!!!!!!!!!!!!!!!!!!!!!!!!!!!!!!!!!!!!!!!!!!##x#@!4!'!'!'!'!'!'",
"!'!'!'!'!'!'!-#d!Z!#!!!!!!!!!!!!!!!!!!!!!!!!!!!!!!!!!!!!!!!!!!!!!!!!!!!!!!!!!!!!!!!!!!!!!!!!!!!!!!!!!!!!!!!!!!!!!!!!!!!!!!!8!}!:!&!'!'!'!'!'!'!'!'!'!'!'!'!'!'!'!'!'!'!'!'!'!'!'!'!'!'!'!'!'!'!'!'!'!'!'!'!'!'!'!'!'!'!'!'!'!'!'!'!'!'!'!4#.%^!#!!!!!!!!!!!!!!!!!!!!!!!!!!!!!!!!!=!P$m!4!'!'!'!'!'!'!'!'!'!'!'!'!'!'!'!'!'!'!'!'!'!'!'!'!'!'!'!'!'!'!'!'!'!'!'!'!'!'!'!'!'!'!'!'!'!'!'!'!'!'!'!4%1#S!8!!!!!!!!!!!!!!!!!!!!!!!!!!!!!!!!!!!!!!!!!!!!!!!!!!!!!!!!!!!!!!!!!!!!!!!!!!!!!!!!!!!!!!!!!!!!!!!!!!!!!!!#%_!(!-!'!'!'!'!'!'",
"!'!'!'!'!'!'!'!a$5#]!8!!!!!!!!!!!!!!!!!!!!!!!!!!!!!!!!!!!!!!!!!!!!!!!!!!!!!!!!!!!!!!!!!!!!!!!!!!!!!!!!!!!!!!!!!!!!!!!!!!!!!!!=#:$@!-!'!'!'!'!'!'!'!'!'!'!'!'!'!'!'!'!'!'!'!'!'!'!'!'!'!'!'!'!'!'!'!'!'!'!'!'!'!'!'!'!'!'!'!'!'!'!'!'!'!'!N!.#~!}!!!!!!!!!!!!!!!!!!!!!!!!!!!!!!!!!!%`!'!.!'!'!'!'!'!'!'!'!'!'!'!'!'!'!'!'!'!'!'!'!'!'!'!'!'!'!'!'!'!'!'!'!'!'!'!'!'!'!'!'!'!'!'!'!'!'!'!'!'!'!-%a#}!G!!!!!!!!!!!!!!!!!!!!!!!!!!!!!!!!!!!!!!!!!!!!!!!!!!!!!!!!!!!!!!!!!!!!!!!!!!!!!!!!!!!!!!!!!!!!!!!!!!!!!!!8$j$i!a!'!'!'!'!'!'!'",
"!'!'!'!'!'!'!'!-!i%/!*!!!!!!!!!!!!!!!!!!!!!!!!!!!!!!!!!!!!!!!!!!!!!!!!!!!!!!!!!!!!!!!!!!!!!!!!!!!!!!!!!!!!!!!!!!!!!!!!!!!!!!!#!c$f!-!'!'!'!'!'!'!'!'!'!'!'!'!'!'!'!'!'!'!'!'!'!'!'!'!'!'!'!'!'!'!'!'!'!'!'!'!'!'!'!'!'!'!'!'!'!'!'!'!'!'!'!4#B#C!#!!!!!!!!!!!!!!!!!!!!!!!!!!!!!#%b#E!4!'!'!'!'!'!'!'!'!'!'!'!'!'!'!'!'!'!'!'!'!'!'!'!'!'!'!'!'!'!'!'!'!'!'!'!'!'!'!'!'!'!'!'!'!'!'!'!'!'!'!'!5$}%c!#!!!!!!!!!!!!!!!!!!!!!!!!!!!!!!!!!!!!!!!!!!!!!!!!!!!!!!!!!!!!!!!!!!!!!!!!!!!!!!!!!!!!!!!!!!!!!!!!!!!!!!!+$T$@!-!'!'!'!'!'!'!'",
"!'!'!'!'!'!'!'!'!a%d#S!8!!!!!!!!!!!!!!!!!!!!!!!!!!!!!!!!!!!!!!!!!!!!!!!!!!!!!!!!!!!!!!!!!!!!!!!!!!!!!!!!!!!!!!!!!!!!!!!!!!!!!!!#!g$h!&!'!'!'!'!'!'!'!'!'!'!'!'!'!'!'!'!'!'!'!'!'!'!'!'!'!'!'!'!'!'!'!'!'!'!'!'!'!'!'!'!'!'!'!'!'!'!'!'!'!'!.#f#o!#!!!!!!!!!!!!!!!!!!!!!!!!!!!!!B%e#L!.!'!'!'!'!'!'!'!'!'!'!'!'!'!'!'!'!'!'!'!'!'!'!'!'!'!'!'!'!'!'!'!'!'!'!'!'!'!'!'!'!'!'!'!'!'!'!'!'!'!'!.%f$/!8!8!!!!!!!!!!!!!!!!!!!!!!!!!!!!!!!!!!!!!!!!!!!!!!!!!!!!!!!!!!!!!!!!!!!!!!!!!!!!!!!!!!!!!!!!!!!!!!!!!!!!!8!F#~!4!'!'!'!'!'!'!'!'",
"!'!'!'!'!'!'!'!'!4%g%h!+!!!!!!!!!!!!!!!!!!!!!!!!!!!!!!!!!!!!!!!!!!!!!!!!!!!!!!!!!!!!!!!!!!!!!!!!!!!!!!!!!!!!!!!!!!!!!!!!!!!!!!!=#Q%i!5!'!'!'!'!'!'!'!'!'!'!'!'!'!'!'!'!'!'!'!'!'!'!'!'!'!'!'!'!'!'!'!'!'!'!'!'!'!'!'!'!'!'!'!'!'!'!'!'!'!'!'!-!p#j!#!!!!!!!!!!!!!!!!!!!!!!!!!##x%j!4!'!'!'!'!'!'!'!'!'!'!'!'!'!'!'!'!'!'!'!'!'!'!'!'!'!'!'!'!'!'!'!'!'!'!'!'!'!'!'!'!'!'!'!'!'!'!'!'!'!'!'!4$R%k!G!!!!!!!!!!!!!!!!!!!!!!!!!!!!!!!!!!!!!!!!!!!!!!!!!!!!!!!!!!!!!!!!!!!!!!!!!!!!!!!!!!!!!!!!!!!!!!!!!!!!!!!B$Y#M!4!'!'!'!'!'!'!'!'",
"!'!'!'!'!'!'!'!'!N!'%l!}!!!!!!!!!!!!!!!!!!!!!!!!!!!!!!!!!!!!!!!!!!!!!!!!!!!!!!!!!!!!!!!!!!!!!!!!!!!!!!!!!!!!!!!!!!!!!!!!!!!!!!!!!1$`#F!.!'!'!'!'!'!'!'!'!'!'!'!'!'!'!'!'!'!'!'!'!'!'!'!'!'!'!'!'!'!'!'!'!'!'!'!'!'!'!'!'!'!'!'!'!'!'!'!'!'!'!&#1%m!G!!!!!!!!!!!!!!!!!!!!!!!!!G%n%2!-!'!'!'!'!'!'!'!'!'!'!'!'!'!'!'!'!'!'!'!'!'!'!'!'!'!'!'!'!'!'!'!'!'!'!'!'!'!'!'!'!'!'!'!'!'!'!'!'!'!'!'!.%o!}!8!!!!!!!!!!!!!!!!!!!!!!!!!!!!!!!!!!!!!!!!!!!!!!!!!!!!!!!!!!!!!!!!!!!!!!!!!!!!!!!!!!!!!!!!!!!!!!!!!!!!!!!!%Q#f!.!'!'!'!'!'!'!'!'",
"!'!'!'!'!'!'!'!'!'!4$R!t!#!!!!!!!!!!!!!!!!!!!!!!!!!!!!!!!!!!!!!!!!!!!!!!!!!!!!!!!!!!!!!!!!!!!!!!!!!!!!!!!!!!!!!!!!!!!!!!!!!!!!!!!G$s%p!4!'!'!'!'!'!'!'!'!'!'!'!'!'!'!'!'!'!'!'!'!'!'!'!'!'!'!'!'!'!'!'!'!'!'!'!'!'!'!'!'!'!'!'!'!'!'!'!'!'!'!'!-$'!c!8!!!!!!!!!!!!!!!!!!!!!8!W%q!-!'!'!'!'!'!'!'!'!'!'!'!'!'!'!'!'!'!'!'!'!'!'!'!'!'!'!'!'!'!'!'!'!'!'!'!'!'!'!'!'!'!'!'!'!'!'!'!'!'!'!'!4!D$%!G!!!!!!!!!!!!!!!!!!!!!!!!!!!!!!!!!!!!!!!!!!!!!!!!!!!!!!!!!!!!!!!!!!!!!!!!!!!!!!!!!!!!!!!!!!!!!!!!!!!!!!!#$-%r!4!'!'!'!'!'!'!'!'!'",
"!'!'!'!'!'!'!'!'!'!&#;$/!8!!!!!!!!!!!!!!!!!!!!!!!!!!!!!!!!!!!!!!!!!!!!!!!!!!!!!!!!!!!!!!!!!!!!!!!!!!!!!!!!!!!!!!!!!!!!!!!!!!!!!!!8!!$W!.!'!'!'!'!'!'!'!'!'!'!'!'!'!'!'!'!'!'!'!'!'!'!'!'!'!'!'!'!'!'!'!'!'!'!'!'!'!'!'!'!'!'!'!'!'!'!'!'!'!'!'!5$@%.!G!!!!!!!!!!!!!!!!!!!!!G$%#c!5!'!'!'!'!'!'!'!'!'!'!'!'!'!'!'!'!'!'!'!'!'!'!'!'!'!'!'!'!'!'!'!'!'!'!'!'!'!'!'!'!'!'!'!'!'!'!'!'!'!'!'!4%s#&!8!!!!!!!!!!!!!!!!!!!!!!!!!!!!!!!!!!!!!!!!!!!!!!!!!!!!!!!!!!!!!!!!!!!!!!!!!!!!!!!!!!!!!!!!!!!!!!!!!!!!!!!8$g#d!-!'!'!'!'!'!'!'!'!'",
"!'!'!'!'!'!'!'!'!'!'!4%t#e!#!!!!!!!!!!!!!!!!!!!!!!!!!!!!!!!!!!!!!!!!!!!!!!!!!!!!!!!!!!!!!!!!!!!!!!!!!!!!!!!!!!!!!!!!!!!!!!!!!!!!!!!G%]#%!4!'!'!'!'!'!'!'!'!'!'!'!'!'!'!'!'!'!'!'!'!'!'!'!'!'!'!'!'!'!'!'!'!'!'!'!'!'!'!'!'!'!'!'!'!'!'!'!'!'!'!.#f#g#u!!!!!!!!!!!!!!!!!!!!!8%u!{!.!'!'!'!'!'!'!'!'!'!'!'!'!'!'!'!'!'!'!'!'!'!'!'!'!'!'!'!'!'!'!'!'!'!'!'!'!'!'!'!'!'!'!'!'!'!'!'!'!'!'!-!O%/!B!!!!!!!!!!!!!!!!!!!!!!!!!!!!!!!!!!!!!!!!!!!!!!!!!!!!!!!!!!!!!!!!!!!!!!!!!!!!!!!!!!!!!!!!!!!!!!!!!!!!!!!8$4!b!4!'!'!'!'!'!'!'!'!'!'",
"!'!'!'!'!'!'!'!'!'!'!-$c$e!B!!!!!!!!!!!!!!!!!!!!!!!!!!!!!!!!!!!!!!!!!!!!!!!!!!!!!!!!!!!!!!!!!!!!!!!!!!!!!!!!!!!!!!!!!!!!!!!!!!!!!!!8#,$'!-!'!'!'!'!'!'!'!'!'!'!'!'!'!'!'!'!'!'!'!'!'!'!'!'!'!'!'!'!'!'!'!'!'!'!'!'!'!'!'!'!'!'!'!'!'!'!'!'!'!'!'!a%v%w!#!!!!!!!!!!!!!!!!!#%)!s!a!'!'!'!'!'!'!'!'!'!'!'!'!'!'!'!'!'!'!'!'!'!'!'!'!'!'!'!'!'!'!'!'!'!'!'!'!'!'!'!'!'!'!'!'!'!'!'!'!'!'!'!4#=$&!#!!!!!!!!!!!!!!!!!!!!!!!!!!!!!!!!!!!!!!!!!!!!!!!!!!!!!!!!!!!!!!!!!!!!!!!!!!!!!!!!!!!!!!!!!!!!!!!!!!!!!!!G!j!i!-!'!'!'!'!'!'!'!'!'!'",
"!'!'!'!'!'!'!'!'!'!'!'!a%x#Y!8!!!!!!!!!!!!!!!!!!!!!!!!!!!!!!!!!!!!!!!!!!!!!!!!!!!!!!!!!!!!!!!!!!!!!!!!!!!!!!!!!!!!!!!!!!!!!!!!!!!!!!!#%y!^!-!'!'!'!'!'!'!'!'!'!'!'!'!'!'!'!'!'!'!'!'!'!'!'!'!'!'!'!'!'!'!'!'!'!'!'!'!'!'!'!'!'!'!'!'!'!'!'!'!'!'!.%3#$!G!!!!!!!!!!!!!!!!!G$P$h!.!'!'!'!'!'!'!'!'!'!'!'!'!'!'!'!'!'!'!'!'!'!'!'!'!'!'!'!'!'!'!'!'!'!'!'!'!'!'!'!'!'!'!'!'!'!'!'!'!'!'!.#;$g!1!!!!!!!!!!!!!!!!!!!!!!!!!!!!!!!!!!!!!!!!!!!!!!!!!!!!!!!!!!!!!!!!!!!!!!!!!!!!!!!!!!!!!!!!!!!!!!!!!!!!!!!8!F#+!4!'!'!'!'!'!'!'!'!'!'!'",
"!'!'!'!'!'!'!'!'!'!'!'!-#U!P!+!!!!!!!!!!!!!!!!!!!!!!!!!!!!!!!!!!!!!!!!!!!!!!!!!!!!!!!!!!!!!!!!!!!!!!!!!!!!!!!!!!!!!!!!!!!!!!!!!!!!!!!=$*$}!4!'!'!'!'!'!'!'!'!'!'!'!'!'!'!'!'!'!'!'!'!'!'!'!'!'!'!'!'!'!'!'!'!'!'!'!'!'!'!'!'!'!'!'!'!'!'!'!'!'!'!'!r%j!f!#!!!!!!!!!!!!!1!o%0!r!'!'!'!'!'!'!'!'!'!'!'!'!'!'!'!'!'!'!'!'!'!'!'!'!'!'!'!'!'!'!'!'!'!'!'!'!'!'!'!'!'!'!'!'!'!'!'!'!'!'!'!4%=$-!G!!!!!!!!!!!!!!!!!!!!!!!!!!!!!!!!!!!!!!!!!!!!!!!!!!!!!!!!!!!!!!!!!!!!!!!!!!!!!!!!!!!!!!!!!!!!!!!!!!!!!!!+%z%7!4!'!'!'!'!'!'!'!'!'!'!'",
"!'!'!'!'!'!'!'!'!'!'!'!'!-%{$X!!!!!!!!!!!!!!!!!!!!!!!!!!!!!!!!!!!!!!!!!!!!!!!!!!!!!!!!!!!!!!!!!!!!!!!!!!!!!!!!!!!!!!!!!!!!!!!!!!!!!!#u#u%#$.!.!'!'!'!'!'!'!'!'!'!'!'!'!'!'!'!'!'!'!'!'!'!'!'!'!'!'!'!'!'!'!'!'!'!'!'!'!'!'!'!'!'!'!'!'!'!'!'!'!'!'!-!^$9!+!!!!!!!!!!!!!B!j#2!-!'!'!'!'!'!'!'!'!'!'!'!'!'!'!'!'!'!'!'!'!'!'!'!'!'!'!'!'!'!'!'!'!'!'!'!'!'!'!'!'!'!'!'!'!'!'!'!'!'!'!.!'##!}!8!!!!!!!!!!!!!!!!!!!!!!!!!!!!!!!!!!!!!!!!!!!!!!!!!!!!!!!!!!!!!!!!!!!!!!!!!!!!!!!!!!!!!!!!!!!!!!!!!!!!!!!!%l!.!N!'!'!'!'!'!'!'!'!'!'!'",
"!'!'!'!'!'!'!'!'!'!'!'!'!4%|%!!G!!!!!!!!!!!!!!!!!!!!!!!!!!!!!!!!!!!!!!!!!!!!!!!!!!!!!!!!!!!!!!!!!!!!!!!!!!!!!!!!!!!!!!!!!!!!!!!!!!!!!!!G$7!s!4!'!'!'!'!'!'!'!'!'!'!'!'!'!'!'!'!'!'!'!'!'!'!'!'!'!'!'!'!'!'!'!'!'!'!'!'!'!'!'!'!'!'!'!'!'!'!'!'!'!'!'!5$E!W!8!!!!!!!!!8#,#>!-!'!'!'!'!'!'!'!'!'!'!'!'!'!'!'!'!'!'!'!'!'!'!'!'!'!'!'!'!'!'!'!'!'!'!'!'!'!'!'!'!'!'!'!'!'!'!'!'!'!'!'!-%X%}!G!!!!!!!!!!!!!!!!!!!!!!!!!!!!!!!!!!!!!!!!!!!!!!!!!!!!!!!!!!!!!!!!!!!!!!!!!!!!!!!!!!!!!!!!!!!!!!!!!!!!!!!G!<$R!4!'!'!'!'!'!'!'!'!'!'!'!'",
"!'!'!'!'!'!'!'!'!'!'!'!'!.$.%~!8!!!!!!!!!!!!!!!!!!!!!!!!!!!!!!!!!!!!!!!!!!!!!!!!!!!!!!!!!!!!!!!!!!!!!!!!!!!!!!!!!!!!!!!!!!!!!!!!!!!!!!!8!!&!!.!'!'!'!'!'!'!'!'!'!'!'!'!'!'!'!'!'!'!'!'!'!'!'!'!'!'!'!'!'!'!'!'!'!'!'!'!'!'!'!'!'!'!'!'!'!'!'!'!'!'!'!5#c!C!G!!!!!!!!!G#C$;!4!'!'!'!'!'!'!'!'!'!'!'!'!'!'!'!'!'!'!'!'!'!'!'!'!'!'!'!'!'!'!'!'!'!'!'!'!'!'!'!'!'!'!'!'!'!'!'!'!'!'!'!4&#!K!8!!!!!!!!!!!!!!!!!!!!!!!!!!!!!!!!!!!!!!!!!!!!!!!!!!!!!!!!!!!!!!!!!!!!!!!!!!!!!!!!!!!!!!!!!!!!!!!!!!!!!!!8$/%3!.!'!'!'!'!'!'!'!'!'!'!'!'",
"!'!'!'!'!'!'!'!'!'!'!'!'!'!4%i$*!#!!!!!!!!!!!!!!!!!!!!!!!!!!!!!!!!!!!!!!!!!!!!!!!!!!!!!!!!!!!!!!!!!!!!!!!!!!!!!!!!!!!!!!!!!!!!!!!!!!!!!!!G&$!D!4!'!'!'!'!'!'!'!'!'!'!'!'!'!'!'!'!'!'!'!'!'!'!'!'!'!'!'!'!'!'!'!'!'!'!'!'!'!'!'!'!'!'!'!'!'!'!'!'!'!'!.!?!J$G#u!!!!!!!L&%#L!.!'!'!'!'!'!'!'!'!'!'!'!'!'!'!'!'!'!'!'!'!'!'!'!'!'!'!'!'!'!'!'!'!'!'!'!'!'!'!'!'!'!'!'!'!'!'!'!'!'!'!5$U&&!G!!!!!!!!!!!!!!!!!!!!!!!!!!!!!!!!!!!!!!!!!!!!!!!!!!!!!!!!!!!!!!!!!!!!!!!!!!!!!!!!!!!!!!!!!!!!!!!!!!!!!!!#%c$}!5!'!'!'!'!'!'!'!'!'!'!'!'!'",
"!'!'!'!'!'!'!'!'!'!'!'!'!'!-%2$+!#!!!!!!!!!!!!!!!!!!!!!!!!!!!!!!!!!!!!!!!!!!!!!!!!!!!!!!!!!!!!!!!!!!!!!!!!!!!!!!!!!!!!!!!!!!!!!!!!!!!!!!!8!F$E!-!'!'!'!'!'!'!'!'!'!'!'!'!'!'!'!'!'!'!'!'!'!'!'!'!'!'!'!'!'!'!'!'!'!'!'!'!'!'!'!'!'!'!'!'!'!'!'!'!'!'!'!4$R!t!#!!!!!##Q%=!4!'!'!'!'!'!'!'!'!'!'!'!'!'!'!'!'!'!'!'!'!'!'!'!'!'!'!'!'!'!'!'!'!'!'!'!'!'!'!'!'!'!'!'!'!'!'!'!'!'!'!'!4&'#,!8!!!!!!!!!!!!!!!!!!!!!!!!!!!!!!!!!!!!!!!!!!!!!!!!!!!!!!!!!!!!!!!!!!!!!!!!!!!!!!!!!!!!!!!!!!!!!!!!!!!!!!!G$9!h!-!'!'!'!'!'!'!'!'!'!'!'!'!'",
"!'!'!'!'!'!'!'!'!'!'!'!'!'!'!a#6#,!8!!!!!!!!!!!!!!!!!!!!!!!!!!!!!!!!!!!!!!!!!!!!!!!!!!!!!!!!!!!!!!!!!!!!!!!!!!!!!!!!!!!!!!!!!!!!!!!!!!!!!!!G!j#a!5!'!'!'!'!'!'!'!'!'!'!'!'!'!'!'!'!'!'!'!'!'!'!'!'!'!'!'!'!'!'!'!'!'!'!'!'!'!'!'!'!'!'!'!'!'!'!'!'!'!'!-#d$0!#!!!!!#!Z!(!-!'!'!'!'!'!'!'!'!'!'!'!'!'!'!'!'!'!'!'!'!'!'!'!'!'!'!'!'!'!'!'!'!'!'!'!'!'!'!'!'!'!'!'!'!'!'!'!'!'!'!.!^&(!G!!!!!!!!!!!!!!!!!!!!!!!!!!!!!!!!!!!!!!!!!!!!!!!!!!!!!!!!!!!!!!!!!!!!!!!!!!!!!!!!!!!!!!!!!!!!!!!!!!!!!!!8#S%1!4!'!'!'!'!'!'!'!'!'!'!'!'!'!'",
"!'!'!'!'!'!'!'!'!'!'!'!'!'!'!-$m#X!+!!!!!!!!!!!!!!!!!!!!!!!!!!!!!!!!!!!!!!!!!!!!!!!!!!!!!!!!!!!!!!!!!!!!!!!!!!!!!!!!!!!!!!!!!!!!!!!!!!!!!!!##e%t!4!'!'!'!'!'!'!'!'!'!'!'!'!'!'!'!'!'!'!'!'!'!'!'!'!'!'!'!'!'!'!'!'!'!'!'!'!'!'!'!'!'!'!'!'!'!'!'!'!'!'!'!r!e#e!8!8!c$5!r!'!'!'!'!'!'!'!'!'!'!'!'!'!'!'!'!'!'!'!'!'!'!'!'!'!'!'!'!'!'!'!'!'!'!'!'!'!'!'!'!'!'!'!'!'!'!'!'!'!'!'!4&)#x!#!!!!!!!!!!!!!!!!!!!!!!!!!!!!!!!!!!!!!!!!!!!!!!!!!!!!!!!!!!!!!!!!!!!!!!!!!!!!!!!!!!!!!!!!!!!!!!!!!!!!!!!+!P#U!5!'!'!'!'!'!'!'!'!'!'!'!'!'!'",
"!'!'!'!'!'!'!'!'!'!'!'!'!'!'!'!-$r!}!!!!!!!!!!!!!!!!!!!!!!!!!!!!!!!!!!!!!!!!!!!!!!!!!!!!!!!!!!!!!!!!!!!!!!!!!!!!!!!!!!!!!!!!!!!!!!!!!!!!!!!8!8#<#p!.!'!'!'!'!'!'!'!'!'!'!'!'!'!'!'!'!'!'!'!'!'!'!'!'!'!'!'!'!'!'!'!'!'!'!'!'!'!'!'!'!'!'!'!'!'!'!'!'!'!'!-#a$w!+!B&*!O!-!'!'!'!'!'!'!'!'!'!'!'!'!'!'!'!'!'!'!'!'!'!'!'!'!'!'!'!'!'!'!'!'!'!'!'!'!'!'!'!'!'!'!'!'!'!'!'!'!'!'!.!{!>!!$H!!!!!!!!!!!!!!!!!!!!!!!!!!!!!!!!!!!!!!!!!!!!!!!!!!!!!!!!!!!!!!!!!!!!!!!!!!!!!!!!!!!!!!!!!!!!!!!!!!!!!!$G!|!-!N!'!'!'!'!'!'!'!'!'!'!'!'!'!'",
"!'!'!'!'!'!'!'!'!'!'!'!'!'!'!'!4&+%S!+!!!!!!!!!!!!!!!!!!!!!!!!!!!!!!!!!!!!!!!!!!!!!!!!!!!!!!!!!!!!!!!!!!!!!!!!!!!!!!!!!!!!!!!!!!!!!!!!!!!!!!!G!t$K!4!'!'!'!'!'!'!'!'!'!'!'!'!'!'!'!'!'!'!'!'!'!'!'!'!'!'!'!'!'!'!'!'!'!'!'!'!'!'!'!'!'!'!'!'!'!'!'!'!'!'!'!5&,#S!K%`!-!'!'!'!'!'!'!'!'!'!'!'!'!'!'!'!'!'!'!'!'!'!'!'!'!'!'!'!'!'!'!'!'!'!'!'!'!'!'!'!'!'!'!'!'!'!'!'!'!'!'!'!-!z#t!G!!!!!!!!!!!!!!!!!!!!!!!!!!!!!!!!!!!!!!!!!!!!!!!!!!!!!!!!!!!!!!!!!!!!!!!!!!!!!!!!!!!!!!!!!!!!!!!!!!!!!!!B&-&.!4!'!'!'!'!'!'!'!'!'!'!'!'!'!'!'",
"!'!'!'!'!'!'!'!'!'!'!'!'!'!'!'!.!{$_#u!!!!!!!!!!!!!!!!!!!!!!!!!!!!!!!!!!!!!!!!!!!!!!!!!!!!!!!!!!!!!!!!!!!!!!!!!!!!!!!!!!!!!!!!!!!!!!!!!!!!!!!8!!%:!'!'!'!'!'!'!'!'!'!'!'!'!'!'!'!'!'!'!'!'!'!'!'!'!'!'!'!'!'!'!'!'!'!'!'!'!'!'!'!'!'!'!'!'!'!'!'!'!'!'!'!'!-!D#{%!$B!-!'!'!'!'!'!'!'!'!'!'!'!'!'!'!'!'!'!'!'!'!'!'!'!'!'!'!'!'!'!'!'!'!'!'!'!'!'!'!'!'!'!'!'!'!'!'!'!'!'!'!'!&#h!K!8!!!!!!!!!!!!!!!!!!!!!!!!!!!!!!!!!!!!!!!!!!!!!!!!!!!!!!!!!!!!!!!!!!!!!!!!!!!!!!!!!!!!!!!!!!!!!!!!!!!!!!!1$v!?!.!'!'!'!'!'!'!'!'!'!'!'!'!'!'!'",
"!'!'!'!'!'!'!'!'!'!'!'!'!'!'!'!'!5%r$-!G!!!!!!!!!!!!!!!!!!!!!!!!!!!!!!!!!!!!!!!!!!!!!!!!!!!!!!!!!!!!!!!!!!!!!!!!!!!!!!!!!!!!!!!!!!!!!!!!!!!!!!!G!x!I!4!'!'!'!'!'!'!'!'!'!'!'!'!'!'!'!'!'!'!'!'!'!'!'!'!'!'!'!'!'!'!'!'!'!'!'!'!'!'!'!'!'!'!'!'!'!'!'!'!'!'!.!{!Z&/!?!.!'!'!'!'!'!'!'!'!'!'!'!'!'!'!'!'!'!'!'!'!'!'!'!'!'!'!'!'!'!'!'!'!'!'!'!'!'!'!'!'!'!'!'!'!'!'!'!'!'!'!-$m%]!B!!!!!!!!!!!!!!!!!!!!!!!!!!!!!!!!!!!!!!!!!!!!!!!!!!!!!!!!!!!!!!!!!!!!!!!!!!!!!!!!!!!!!!!!!!!!!!!!!!!!!!!G!2#@!5!'!'!'!'!'!'!'!'!'!'!'!'!'!'!'!'",
"!'!'!'!'!'!'!'!'!'!'!'!'!'!'!'!'!-#d&/!#!!!!!!!!!!!!!!!!!!!!!!!!!!!!!!!!!!!!!!!!!!!!!!!!!!!!!!!!!!!!!!!!!!!!!!!!!!!!!!!!!!!!!!!!!!!!!!!!!!!!!!!8!K&0!4!'!'!'!'!'!'!'!'!'!'!'!'!'!'!'!'!'!'!'!'!'!'!'!'!'!'!'!'!'!'!'!'!'!'!'!'!'!'!'!'!'!'!'!'!'!'!'!'!'!'!'!'$R&1!'!'!'!'!'!'!'!'!'!'!'!'!'!'!'!'!'!'!'!'!'!'!'!'!'!'!'!'!'!'!'!'!'!'!'!'!'!'!'!'!'!'!'!'!'!'!'!'!'!'!'!'!a%1$^!8!!!!!!!!!!!!!!!!!!!!!!!!!!!!!!!!!!!!!!!!!!!!!!!!!!!!!!!!!!!!!!!!!!!!!!!!!!!!!!!!!!!!!!!!!!!!!!!!!!!!!!!#!g#1!-!'!'!'!'!'!'!'!'!'!'!'!'!'!'!'!'",
"!'!'!'!'!'!'!'!'!'!'!'!'!'!'!'!'!'!4&2$j!#!!!!!!!!!!!!!!!!!!!!!!!!!!!!!!!!!!!!!!!!!!!!!!!!!!!!!!!!!!!!!!!!!!!!!!!!!!!!!!!!!!!!!!!!!!!!!!!!!!!!!!!G!k!Y!4!'!'!'!'!'!'!'!'!'!'!'!'!'!'!'!'!'!'!'!'!'!'!'!'!'!'!'!'!'!'!'!'!'!'!'!'!'!'!'!'!'!'!'!'!'!'!'!'!'!'!'!.!.!'!'!'!'!'!'!'!'!'!'!'!'!'!'!'!'!'!'!'!'!'!'!'!'!'!'!'!'!'!'!'!'!'!'!'!'!'!'!'!'!'!'!'!'!'!'!'!'!'!'!'!&#2!g!B!!!!!!!!!!!!!!!!!!!!!!!!!!!!!!!!!!!!!!!!!!!!!!!!!!!!!!!!!!!!!!!!!!!!!!!!!!!!!!!!!!!!!!!!!!!!!!!!!!!!!!!#!7%[!5!'!'!'!'!'!'!'!'!'!'!'!'!'!'!'!'!'",
"!'!'!'!'!'!'!'!'!'!'!'!'!'!'!'!'!'!-&3&4!G!!!!!!!!!!!!!!!!!!!!!!!!!!!!!!!!!!!!!!!!!!!!!!!!!!!!!!!!!!!!!!!!!!!!!!!!!!!!!!!!!!!!!!!!!!!!!!!!!!!!!!!8!c&5!4!'!'!'!'!'!'!'!'!'!'!'!'!'!'!'!'!'!'!'!'!'!'!'!'!'!'!'!'!'!'!'!'!'!'!'!'!'!'!'!'!'!'!'!'!'!'!'!'!'!'!'!'!'!'!'!'!'!'!'!'!'!'!'!'!'!'!'!'!'!'!'!'!'!'!'!'!'!'!'!'!'!'!'!'!'!'!'!'!'!'!'!'!'!'!'!'!'!'!'!'!'!'!'!'!a!p!o!#!!!!!!!!!!!!!!!!!!!!!!!!!!!!!!!!!!!!!!!!!!!!!!!!!!!!!!!!!!!!!!!!!!!!!!!!!!!!!!!!!!!!!!!!!!!!!!!!!!!!!!!G&6#.!5!'!'!'!'!'!'!'!'!'!'!'!'!'!'!'!'!'",
"!'!'!'!'!'!'!'!'!'!'!'!'!'!'!'!'!'!'!-%d!F!8!!!!!!!!!!!!!!!!!!!!!!!!!!!!!!!!!!!!!!!!!!!!!!!!!!!!!!!!!!!!!!!!!!!!!!!!!!!!!!!!!!!!!!!!!!!!!!!!!!!!!!!#%_!/!.!'!'!'!'!'!'!'!'!'!'!'!'!'!'!'!'!'!'!'!'!'!'!'!'!'!'!'!'!'!'!'!'!'!'!'!'!'!'!'!'!'!'!'!'!'!'!'!'!'!'!'!'!'!'!'!'!'!'!'!'!'!'!'!'!'!'!'!'!'!'!'!'!'!'!'!'!'!'!'!'!'!'!'!'!'!'!'!'!'!'!'!'!'!'!'!'!'!'!'!'!'!'!.!m%e!8#u!!!!!!!!!!!!!!!!!!!!!!!!!!!!!!!!!!!!!!!!!!!!!!!!!!!!!!!!!!!!!!!!!!!!!!!!!!!!!!!!!!!!!!!!!!!!!!!!!!!!#u!K!:!-!N!'!'!'!'!'!'!'!'!'!'!'!'!'!'!'!'!'",
"!'!'!'!'!'!'!'!'!'!'!'!'!'!'!'!'!'!'!4&7&8!+!!!!!!!!!!!!!!!!!!!!!!!!!!!!!!!!!!!!!!!!!!!!!!!!!!!!!!!!!!!!!!!!!!!!!!!!!!!!!!!!!!!!!!!!!!!!!!!!!!!!!!!G!T%T!4!'!'!'!'!'!'!'!'!'!'!'!'!'!'!'!'!'!'!'!'!'!'!'!'!'!'!'!'!'!'!'!'!'!'!'!'!'!'!'!'!'!'!'!'!'!'!'!'!'!'!'!'!'!'!'!'!'!'!'!'!'!'!'!'!'!'!'!'!'!'!'!'!'!'!'!'!'!'!'!'!'!'!'!'!'!'!'!'!'!'!'!'!'!'!'!'!'!'!'!'!'!'!4$,!~!G!!!!!!!!!!!!!!!!!!!!!!!!!!!!!!!!!!!!!!!!!!!!!!!!!!!!!!!!!!!!!!!!!!!!!!!!!!!!!!!!!!!!!!!!!!!!!!!!!!!!!!!B$Y&9!4!'!'!'!'!'!'!'!'!'!'!'!'!'!'!'!'!'!'",
"!'!'!'!'!'!'!'!'!'!'!'!'!'!'!'!'!'!'!N!.#O!!!!!!!!!!!!!!!!!!!!!!!!!!!!!!!!!!!!!!!!!!!!!!!!!!!!!!!!!!!!!!!!!!!!!!!!!!!!!!!!!!!!!!!!!!!!!!!!!!!!!!!!!8!!!>!{!.!'!'!'!'!'!'!'!'!'!'!'!'!'!'!'!'!'!'!'!'!'!'!'!'!'!'!'!'!'!'!'!'!'!'!'!'!'!'!'!'!'!'!'!'!'!'!'!'!'!'!'!'!'!'!'!'!'!'!'!'!'!'!'!'!'!'!'!'!'!'!'!'!'!'!'!'!'!'!'!'!'!'!'!'!'!'!'!'!'!'!'!'!'!'!'!'!'!'!'!'!.!'#G$X!8!!!!!!!!!!!!!!!!!!!!!!!!!!!!!!!!!!!!!!!!!!!!!!!!!!!!!!!!!!!!!!!!!!!!!!!!!!!!!!!!!!!!!!!!!!!!!!!!!!!!!!!8&:!.!.!'!'!'!'!'!'!'!'!'!'!'!'!'!'!'!'!'!'",
"!'!'!'!'!'!'!'!'!'!'!'!'!'!'!'!'!'!'!'!4!s!<!G!!!!!!!!!!!!!!!!!!!!!!!!!!!!!!!!!!!!!!!!!!!!!!!!!!!!!!!!!!!!!!!!!!!!!!!!!!!!!!!!!!!!!!!!!!!!!!!!!!!!!!!B&-#B!4!'!'!'!'!'!'!'!'!'!'!'!'!'!'!'!'!'!'!'!'!'!'!'!'!'!'!'!'!'!'!'!'!'!'!'!'!'!'!'!'!'!'!'!'!'!'!'!'!'!'!'!'!'!'!'!'!'!'!'!'!'!'!'!'!'!'!'!'!'!'!'!'!'!'!'!'!'!'!'!'!'!'!'!'!'!'!'!'!'!'!'!'!'!'!'!'!'!'!'!'!-$Z%L!+!!!!!!!!!!!!!!!!!!!!!!!!!!!!!!!!!!!!!!!!!!!!!!!!!!!!!!!!!!!!!!!!!!!!!!!!!!!!!!!!!!!!!!!!!!!!!!!!!!!!!!!G&;%T!4!'!'!'!'!'!'!'!'!'!'!'!'!'!'!'!'!'!'!'",
"!'!'!'!'!'!'!'!'!'!'!'!'!'!'!'!'!'!'!'!.#p%'!#!!!!!!!!!!!!!!!!!!!!!!!!!!!!!!!!!!!!!!!!!!!!!!!!!!!!!!!!!!!!!!!!!!!!!!!!!!!!!!!!!!!!!!!!!!!!!!!!!!!!!!!8!}&<!-!'!'!'!'!'!'!'!'!'!'!'!'!'!'!'!'!'!'!'!'!'!'!'!'!'!'!'!'!'!'!'!'!'!'!'!'!'!'!'!'!'!'!'!'!'!'!'!'!'!'!'!'!'!'!'!'!'!'!'!'!'!'!'!'!'!'!'!'!'!'!'!'!'!'!'!'!'!'!'!'!'!'!'!'!'!'!'!'!'!'!'!'!'!'!'!'!'!'!'!'!4#>#Y!8!!!!!!!!!!!!!!!!!!!!!!!!!!!!!!!!!!!!!!!!!!!!!!!!!!!!!!!!!!!!!!!!!!!!!!!!!!!!!!!!!!!!!!!!!!!!!!!!!!!!!!!#%F$h!.!'!'!'!'!'!'!'!'!'!'!'!'!'!'!'!'!'!'!'",
"!'!'!'!'!'!'!'!'!'!'!'!'!'!'!'!'!'!'!'!'!5%t$4!#!!!!!!!!!!!!!!!!!!!!!!!!!!!!!!!!!!!!!!!!!!!!!!!!!!!!!!!!!!!!!!!!!!!!!!!!!!!!!!!!!!!!!!!!!!!!!!!!!!!!!!!G&6#c!4!'!'!'!'!'!'!'!'!'!'!'!'!'!'!'!'!'!'!'!'!'!'!'!'!'!'!'!'!'!'!'!'!'!'!'!'!'!'!'!'!'!'!'!'!'!'!'!'!'!'!'!'!'!'!'!'!'!'!'!'!'!'!'!'!'!'!'!'!'!'!'!'!'!'!'!'!'!'!'!'!'!'!'!'!'!'!'!'!'!'!'!'!'!'!'!'!'!'!-#a$J!+!!!!!!!!!!!!!!!!!!!!!!!!!!!!!!!!!!!!!!!!!!!!!!!!!!!!!!!!!!!!!!!!!!!!!!!!!!!!!!!!!!!!!!!!!!!!!!!!!!!!!!!##]$5!-!'!'!'!'!'!'!'!'!'!'!'!'!'!'!'!'!'!'!'!'",
"!'!'!'!'!'!'!'!'!'!'!'!'!'!'!'!'!'!'!'!'!-#2&=!#!!!!!!!!!!!!!!!!!!!!!!!!!!!!!!!!!!!!!!!!!!!!!!!!!!!!!!!!!!!!!!!!!!!!!!!!!!!!!!!!!!!!!!!!!!!!!!!!!!!!!!!8$^#[!a!'!'!'!'!'!'!'!'!'!'!'!'!'!'!'!'!'!'!'!'!'!'!'!'!'!'!'!'!'!'!'!'!'!'!'!'!'!'!'!'!'!'!'!'!'!'!'!'!'!'!'!'!'!'!'!'!'!'!'!'!'!'!'!'!'!'!'!'!'!'!'!'!'!'!'!'!'!'!'!'!'!'!'!'!'!'!'!'!'!'!'!'!'!'!'!'!'!'!a&>$4!#!!!!!!!!!!!!!!!!!!!!!!!!!!!!!!!!!!!!!!!!!!!!!!!!!!!!!!!!!!!!!!!!!!!!!!!!!!!!!!!!!!!!!!!!!!!!!!!!!!!!!!!#&&$$!5!'!'!'!'!'!'!'!'!'!'!'!'!'!'!'!'!'!'!'!'",
"!'!'!'!'!'!'!'!'!'!'!'!'!'!'!'!'!'!'!'!'!'!-%1!9!8!!!!!!!!!!!!!!!!!!!!!!!!!!!!!!!!!!!!!!!!!!!!!!!!!!!!!!!!!!!!!!!!!!!!!!!!!!!!!!!!!!!!!!!!!!!!!!!!!!!!!!!G!g!h!&!'!'!'!'!'!'!'!'!'!'!'!'!'!'!'!'!'!'!'!'!'!'!'!'!'!'!'!'!'!'!'!'!'!'!'!'!'!'!'!'!'!'!'!'!'!'!'!'!'!'!'!'!'!'!'!'!'!'!'!'!'!'!'!'!'!'!'!'!'!'!'!'!'!'!'!'!'!'!'!'!'!'!'!'!'!'!'!'!'!'!'!'!'!'!'!'!.!]#<!G!!!!!!!!!!!!!!!!!!!!!!!!!!!!!!!!!!!!!!!!!!!!!!!!!!!!!!!!!!!!!!!!!!!!!!!!!!!!!!!!!!!!!!!!!!!!!!!!!!!!!!!8!F%4!.!.!'!'!'!'!'!'!'!'!'!'!'!'!'!'!'!'!'!'!'!'",
"!'!'!'!'!'!'!'!'!'!'!'!'!'!'!'!'!'!'!'!'!'!4$;&?!+!!!!!!!!!!!!!!!!!!!!!!!!!!!!!!!!!!!!!!!!!!!!!!!!!!!!!!!!!!!!!!!!!!!!!!!!!!!!!!!!!!!!!!!!!!!!!!!!!!!!!!!#%c&@!4!'!'!'!'!'!'!'!'!'!'!'!'!'!'!'!'!'!'!'!'!'!'!'!'!'!'!'!'!'!'!'!'!'!'!'!'!'!'!'!'!'!'!'!'!'!'!'!'!'!'!'!'!'!'!'!'!'!'!'!'!'!'!'!'!'!'!'!'!'!'!'!'!'!'!'!'!'!'!'!'!'!'!'!'!'!'!'!'!'!'!'!'!'!'!'!'!4%T!2!#!!!!!!!!!!!!!!!!!!!!!!!!!!!!!!!!!!!!!!!!!!!!!!!!!!!!!!!!!!!!!!!!!!!!!!!!!!!!!!!!!!!!!!!!!!!!!!!!!!!!!!!B&8&A!4!'!'!'!'!'!'!'!'!'!'!'!'!'!'!'!'!'!'!'!'!'",
"!'!'!'!'!'!'!'!'!'!'!'!'!'!'!'!'!'!'!'!'!'!.!-%Y!!!!!!!!!!!!!!!!!!!!!!!!!!!!!!!!!!!!!!!!!!!!!!!!!!!!!!!!!!!!!!!!!!!!!!!!!!!!!!!!!!!!!!!!!!!!!!!!!!!!!!!!$H!8%#$.!.!'!'!'!'!'!'!'!'!'!'!'!'!'!'!'!'!'!'!'!'!'!'!'!'!'!'!'!'!'!'!'!'!'!'!'!'!'!'!'!'!'!'!'!'!'!'!'!'!'!'!'!'!'!'!'!'!'!'!'!'!'!'!'!'!'!'!'!'!'!'!'!'!'!'!'!'!'!'!'!'!'!'!'!'!'!'!'!'!'!'!'!'!'!'!.!{##!}$H!!!!!!!!!!!!!!!!!!!!!!!!!!!!!!!!!!!!!!!!!!!!!!!!!!!!!!!!!!!!!!!!!!!!!!!!!!!!!!!!!!!!!!!!!!!!!!!!!!!!!!!8#O!N!.!'!'!'!'!'!'!'!'!'!'!'!'!'!'!'!'!'!'!'!'!'",
"!'!'!'!'!'!'!'!'!'!'!'!'!'!'!'!'!'!'!'!'!'!'!4$R!H!G!!!!!!!!!!!!!!!!!!!!!!!!!!!!!!!!!!!!!!!!!!!!!!!!!!!!!!!!!!!!!!!!!!!!!!!!!!!!!!!!!!!!!!!!!!!!!!!!!!!!!!!G!~&B!5!'!'!'!'!'!'!'!'!'!'!'!'!'!'!'!'!'!'!'!'!'!'!'!'!'!'!'!'!'!'!'!'!'!'!'!'!'!'!'!'!'!'!'!'!'!'!'!'!'!'!'!'!'!'!'!'!'!'!'!'!'!'!'!'!'!'!'!'!'!'!'!'!'!'!'!'!'!'!'!'!'!'!'!'!'!'!'!'!'!'!'!'!'!'!-!w#{!B!!!!!!!!!!!!!!!!!!!!!!!!!!!!!!!!!!!!!!!!!!!!!!!!!!!!!!!!!!!!!!!!!!!!!!!!!!!!!!!!!!!!!!!!!!!!!!!!!!!!!!!G$7$K!4!'!'!'!'!'!'!'!'!'!'!'!'!'!'!'!'!'!'!'!'!'!'",
"!'!'!'!'!'!'!'!'!'!'!'!'!'!'!'!'!'!'!'!'!'!'!.$.$0!1!!!!!!!!!!!!!!!!!!!!!!!!!!!!!!!!!!!!!!!!!!!!!!!!!!!!!!!!!!!!!!!!!!!!!!!!!!!!!!!!!!!!!!!!!!!!!!!!!!!!!!!8!}!J!.!'!'!'!'!'!'!'!'!'!'!'!'!'!'!'!'!'!'!'!'!'!'!'!'!'!'!'!'!'!'!'!'!'!'!'!'!'!'!'!'!'!'!'!'!'!'!'!'!'!'!'!'!'!'!'!'!'!'!'!'!'!'!'!'!'!'!'!'!'!'!'!'!'!'!'!'!'!'!'!'!'!'!'!'!'!'!'!'!'!'!'!'!'!'!5#?&C!8!!!!!!!!!!!!!!!!!!!!!!!!!!!!!!!!!!!!!!!!!!!!!!!!!!!!!!!!!!!!!!!!!!!!!!!!!!!!!!!!!!!!!!!!!!!!!!!!!!!!!!!=%'#p!.!'!'!'!'!'!'!'!'!'!'!'!'!'!'!'!'!'!'!'!'!'!'",
"!'!'!'!'!'!'!'!'!'!'!'!'!'!'!'!'!'!'!'!'!'!'!'!4&D&E!G!!!!!!!!!!!!!!!!!!!!!!!!!!!!!!!!!!!!!!!!!!!!!!!!!!!!!!!!!!!!!!!!!!!!!!!!!!!!!!!!!!!!!!!!!!!!!!!!!!!!!!!B%.!@!4!'!'!'!'!'!'!'!'!'!'!'!'!'!'!'!'!'!'!'!'!'!'!'!'!'!'!'!'!'!'!'!'!'!'!'!'!'!'!'!'!'!'!'!'!'!'!'!'!'!'!'!'!'!'!'!'!'!'!'!'!'!'!'!'!'!'!'!'!'!'!'!'!'!'!'!'!'!'!'!'!'!'!'!'!'!'!'!'!'!'!'!'!-!i&&!+!!!!!!!!!!!!!!!!!!!!!!!!!!!!!!!!!!!!!!!!!!!!!!!!!!!!!!!!!!!!!!!!!!!!!!!!!!!!!!!!!!!!!!!!!!!!!!!!!!!!!!!=!f%-!4!'!'!'!'!'!'!'!'!'!'!'!'!'!'!'!'!'!'!'!'!'!'!'",
"!'!'!'!'!'!'!'!'!'!'!'!'!'!'!'!'!'!'!'!'!'!'!'!-!^!_!=!!!!!!!!!!!!!!!!!!!!!!!!!!!!!!!!!!!!!!!!!!!!!!!!!!!!!!!!!!!!!!!!!!!!!!!!!!!!!!!!!!!!!!!!!!!!!!!!!!!!!!!8#Y!V!r!'!'!'!'!'!'!'!'!'!'!'!'!'!'!'!'!'!'!'!'!'!'!'!'!'!'!'!'!'!'!'!'!'!'!'!'!'!'!'!'!'!'!'!'!'!'!'!'!'!'!'!'!'!'!'!'!'!'!'!'!'!'!'!'!'!'!'!'!'!'!'!'!'!'!'!'!'!'!'!'!'!'!'!'!'!'!'!'!'!'!'!'!a#[%D!#!!!!!!!!!!!!!!!!!!!!!!!!!!!!!!!!!!!!!!!!!!!!!!!!!!!!!!!!!!!!!!!!!!!!!!!!!!!!!!!!!!!!!!!!!!!!!!!!!!!!!!!G!j!h!-!'!'!'!'!'!'!'!'!'!'!'!'!'!'!'!'!'!'!'!'!'!'!'",
"!'!'!'!'!'!'!'!'!'!'!'!'!'!'!'!'!'!'!'!'!'!'!'!'!&$a!7!1!!!!!!!!!!!!!!!!!!!!!!!!!!!!!!!!!!!!!!!!!!!!!!!!!!!!!!!!!!!!!!!!!!!!!!!!!!!!!!!!!!!!!!!!!!!!!!!!!!!!!!!B$9#a!-!'!'!'!'!'!'!'!'!'!'!'!'!'!'!'!'!'!'!'!'!'!'!'!'!'!'!'!'!'!'!'!'!'!'!'!'!'!'!'!'!'!'!'!'!'!'!'!'!'!'!'!'!'!'!'!'!'!'!'!'!'!'!'!'!'!'!'!'!'!'!'!'!'!'!'!'!'!'!'!'!'!'!'!'!'!'!'!'!'!'!&!^%F!B!!!!!!!!!!!!!!!!!!!!!!!!!!!!!!!!!!!!!!!!!!!!!!!!!!!!!!!!!!!!!!!!!!!!!!!!!!!!!!!!!!!!!!!!!!!!!!!!!!!!!!!8#Y#^!.!'!'!'!'!'!'!'!'!'!'!'!'!'!'!'!'!'!'!'!'!'!'!'!'",
"!'!'!'!'!'!'!'!'!'!'!'!'!'!'!'!'!'!'!'!'!'!'!'!'!4$U#:!G!!!!!!!!!!!!!!!!!!!!!!!!!!!!!!!!!!!!!!!!!!!!!!!!!!!!!!!!!!!!!!!!!!!!!!!!!!!!!!!!!!!!!!!!!!!!!!!!!!!!!!!1#]!b!a!'!'!'!'!'!'!'!'!'!'!'!'!'!'!'!'!'!'!'!'!'!'!'!'!'!'!'!'!'!'!'!'!'!'!'!'!'!'!'!'!'!'!'!'!'!'!'!'!'!'!'!'!'!'!'!'!'!'!'!'!'!'!'!'!'!'!'!'!'!'!'!'!'!'!'!'!'!'!'!'!'!'!'!'!'!'!'!'!'!'!r&F#x!#!!!!!!!!!!!!!!!!!!!!!!!!!!!!!!!!!!!!!!!!!!!!!!!!!!!!!!!!!!!!!!!!!!!!!!!!!!!!!!!!!!!!!!!!!!!!!!!!!!!!!!!G&$#%!4!'!'!'!'!'!'!'!'!'!'!'!'!'!'!'!'!'!'!'!'!'!'!'!'",
"!'!'!'!'!'!'!'!'!'!'!'!'!'!'!'!'!'!'!'!'!'!'!'!'!.!.%J!}#u!!!!!!!!!!!!!!!!!!!!!!!!!!!!!!!!!!!!!!!!!!!!!!!!!!!!!!!!!!!!!!!!!!!!!!!!!!!!!!!!!!!!!!!!!!!!!!!!!!!!!!&G%,#;!.!'!'!'!'!'!'!'!'!'!'!'!'!'!'!'!'!'!'!'!'!'!'!'!'!'!'!'!'!'!'!'!'!'!'!'!'!'!'!'!'!'!'!'!'!'!'!'!'!'!'!'!'!'!'!'!'!'!'!'!'!'!'!'!'!'!'!'!'!'!'!'!'!'!'!'!'!'!'!'!'!'!'!'!'!'!'!'!'!.#p!>!8!!!!!!!!!!!!!!!!!!!!!!!!!!!!!!!!!!!!!!!!!!!!!!!!!!!!!!!!!!!!!!!!!!!!!!!!!!!!!!!!!!!!!!!!!!!!!!!!!!!!!!!!#u%%!N!.!'!'!'!'!'!'!'!'!'!'!'!'!'!'!'!'!'!'!'!'!'!'!'!'",
"!'!'!'!'!'!'!'!'!'!'!'!'!'!'!'!'!'!'!'!'!'!'!'!'!'!4$n#N!G!!!!!!!!!!!!!!!!!!!!!!!!!!!!!!!!!!!!!!!!!!!!!!!!!!!!!!!!!!!!!!!!!!!!!!!!!!!!!!!!!!!!!!!!!!!!!!!!!!!!!!!G#H&H!4!'!'!'!'!'!'!'!'!'!'!'!'!'!'!'!'!'!'!'!'!'!'!'!'!'!'!'!'!'!'!'!'!'!'!'!'!'!'!'!'!'!'!'!'!'!'!'!'!'!'!'!'!'!'!'!'!'!'!'!'!'!'!'!'!'!'!'!'!'!'!'!'!'!'!'!'!'!'!'!'!'!'!'!'!'!'!'!'!5#!$7!G!!!!!!!!!!!!!!!!!!!!!!!!!!!!!!!!!!!!!!!!!!!!!!!!!!!!!!!!!!!!!!!!!!!!!!!!!!!!!!!!!!!!!!!!!!!!!!!!!!!!!!!G#t&I!4!'!'!'!'!'!'!'!'!'!'!'!'!'!'!'!'!'!'!'!'!'!'!'!'!'",
"!'!'!'!'!'!'!'!'!'!'!'!'!'!'!'!'!'!'!'!'!'!'!'!'!'!.!{%>!#!!!!!!!!!!!!!!!!!!!!!!!!!!!!!!!!!!!!!!!!!!!!!!!!!!!!!!!!!!!!!!!!!!!!!!!!!!!!!!!!!!!!!!!!!!!!!!!!!!!!!!!8!}&J!'!.!'!'!'!'!'!'!'!'!'!'!'!'!'!'!'!'!'!'!'!'!'!'!'!'!'!'!'!'!'!'!'!'!'!'!'!'!'!'!'!'!'!'!'!'!'!'!'!'!'!'!'!'!'!'!'!'!'!'!'!'!'!'!'!'!'!'!'!'!'!'!'!'!'!'!'!'!'!'!'!'!'!'!'!'!'!'!'!.&<&C!8!!!!!!!!!!!!!!!!!!!!!!!!!!!!!!!!!!!!!!!!!!!!!!!!!!!!!!!!!!!!!!!!!!!!!!!!!!!!!!!!!!!!!!!!!!!!!!!!!!!!!!!=$v&K!.!'!'!'!'!'!'!'!'!'!'!'!'!'!'!'!'!'!'!'!'!'!'!'!'!'",
"!'!'!'!'!'!'!'!'!'!'!'!'!'!'!'!'!'!'!'!'!'!'!'!'!'!'!r&L%)!G!!!!!!!!!!!!!!!!!!!!!!!!!!!!!!!!!!!!!!!!!!!!!!!!!!!!!!!!!!!!!!!!!!!!!!!!!!!!!!!!!!!!!!!!!!!!!!!!!!!!!!!B%L!D!5!'!'!'!'!'!'!'!'!'!'!'!'!'!'!'!'!'!'!'!'!'!'!'!'!'!'!'!'!'!'!'!'!'!'!'!'!'!'!'!'!'!'!'!'!'!'!'!'!'!'!'!'!'!'!'!'!'!'!'!'!'!'!'!'!'!'!'!'!'!'!'!'!'!'!'!'!'!'!'!'!'!'!'!'!'!'!5$@%5!B!!!!!!!!!!!!!!!!!!!!!!!!!!!!!!!!!!!!!!!!!!!!!!!!!!!!!!!!!!!!!!!!!!!!!!!!!!!!!!!!!!!!!!!!!!!!!!!!!!!!!!!G#j&M!r!'!'!'!'!'!'!'!'!'!'!'!'!'!'!'!'!'!'!'!'!'!'!'!'!'!'",
"!'!'!'!'!'!'!'!'!'!'!'!'!'!'!'!'!'!'!'!'!'!'!'!'!'!'!&$h#/!G!!!!!!!!!!!!!!!!!!!!!!!!!!!!!!!!!!!!!!!!!!!!!!!!!!!!!!!!!!!!!!!!!!!!!!!!!!!!!!!!!!!!!!!!!!!!!!!!!!!!!!!8#S$>!4!'!'!'!'!'!'!'!'!'!'!'!'!'!'!'!'!'!'!'!'!'!'!'!'!'!'!'!'!'!'!'!'!'!'!'!'!'!'!'!'!'!'!'!'!'!'!'!'!'!'!'!'!'!'!'!'!'!'!'!'!'!'!'!'!'!'!'!'!'!'!'!'!'!'!'!'!'!'!'!'!'!'!'!'!'!'!4$z$j!#!!!!!!!!!!!!!!!!!!!!!!!!!!!!!!!!!!!!!!!!!!!!!!!!!!!!!!!!!!!!!!!!!!!!!!!!!!!!!!!!!!!!!!!!!!!!!!!!!!!!!!!G$e#1!&!'!'!'!'!'!'!'!'!'!'!'!'!'!'!'!'!'!'!'!'!'!'!'!'!'!'",
"!'!'!'!'!'!'!'!'!'!'!'!'!'!'!'!'!'!'!'!'!'!'!'!'!'!'!'!-#7!c!#!!!!!!!!!!!!!!!!!!!!!!!!!!!!!!!!!!!!!!!!!!!!!!!!!!!!!!!!!!!!!!!!!!!!!!!!!!!!!!!!!!!!!!!!!!!!!!!!!!!!!!!+&N#W!-!'!'!'!'!'!'!'!'!'!'!'!'!'!'!'!'!'!'!'!'!'!'!'!'!'!'!'!'!'!'!'!'!'!'!'!'!'!'!'!'!'!'!'!'!'!'!'!'!'!'!'!'!'!'!'!'!'!'!'!'!'!'!'!'!'!'!'!'!'!'!'!'!'!'!'!'!'!'!'!'!'!'!'!'!-!h$e!B!!!!!!!!!!!!!!!!!!!!!!!!!!!!!!!!!!!!!!!!!!!!!!!!!!!!!!!!!!!!!!!!!!!!!!!!!!!!!!!!!!!!!!!!!!!!!!!!!!!!!!!#!7$'!-!'!'!'!'!'!'!'!'!'!'!'!'!'!'!'!'!'!'!'!'!'!'!'!'!'!'!'",
"!'!'!'!'!'!'!'!'!'!'!'!'!'!'!'!'!'!'!'!'!'!'!'!'!'!'!'!5#W%^!G!!!!!!!!!!!!!!!!!!!!!!!!!!!!!!!!!!!!!!!!!!!!!!!!!!!!!!!!!!!!!!!!!!!!!!!!!!!!!!!!!!!!!!!!!!!!!!!!!!!!!!!##]#7!a!'!'!'!'!'!'!'!'!'!'!'!'!'!'!'!'!'!'!'!'!'!'!'!'!'!'!'!'!'!'!'!'!'!'!'!'!'!'!'!'!'!'!'!'!'!'!'!'!'!'!'!'!'!'!'!'!'!'!'!'!'!'!'!'!'!'!'!'!'!'!'!'!'!'!'!'!'!'!'!'!'!'!'!'!a$y$L!#!!!!!!!!!!!!!!!!!!!!!!!!!!!!!!!!!!!!!!!!!!!!!!!!!!!!!!!!!!!!!!!!!!!!!!!!!!!!!!!!!!!!!!!!!!!!!!!!!!!!!!!G$u!Y!4!'!'!'!'!'!'!'!'!'!'!'!'!'!'!'!'!'!'!'!'!'!'!'!'!'!'!'",
"!'!'!'!'!'!'!'!'!'!'!'!'!'!'!'!'!'!'!'!'!'!'!'!'!'!'!'!.!.#Z!K!8!!!!!!!!!!!!!!!!!!!!!!!!!!!!!!!!!!!!!!!!!!!!!!!!!!!!!!!!!!!!!!!!!!!!!!!!!!!!!!!!!!!!!!!!!!!!!!!!!!!!!!!G&O!(!.!'!'!'!'!'!'!'!'!'!'!'!'!'!'!'!'!'!'!'!'!'!'!'!'!'!'!'!'!'!'!'!'!'!'!'!'!'!'!'!'!'!'!'!'!'!'!'!'!'!'!'!'!'!'!'!'!'!'!'!'!'!'!'!'!'!'!'!'!'!'!'!'!'!'!'!'!'!'!'!'!'!'!.&P%e!G!!!!!!!!!!!!!!!!!!!!!!!!!!!!!!!!!!!!!!!!!!!!!!!!!!!!!!!!!!!!!!!!!!!!!!!!!!!!!!!!!!!!!!!!!!!!!!!!!!!!!!!8!K#~!.!.!'!'!'!'!'!'!'!'!'!'!'!'!'!'!'!'!'!'!'!'!'!'!'!'!'!'!'",
"!'!'!'!'!'!'!'!'!'!'!'!'!'!'!'!'!'!'!'!'!'!'!'!'!'!'!'!'!4&Q$V!G!!!!!!!!!!!!!!!!!!!!!!!!!!!!!!!!!!!!!!!!!!!!!!!!!!!!!!!!!!!!!!!!!!!!!!!!!!!!!!!!!!!!!!!!!!!!!!!!!!!!!!!=#j%U!4!'!'!'!'!'!'!'!'!'!'!'!'!'!'!'!'!'!'!'!'!'!'!'!'!'!'!'!'!'!'!'!'!'!'!'!'!'!'!'!'!'!'!'!'!'!'!'!'!'!'!'!'!'!'!'!'!'!'!'!'!'!'!'!'!'!'!'!'!'!'!'!'!'!'!'!'!'!'!'!'!'!'!r%*!~!=!!!!!!!!!!!!!!!!!!!!!!!!!!!!!!!!!!!!!!!!!!!!!!!!!!!!!!!!!!!!!!!!!!!!!!!!!!!!!!!!!!!!!!!!!!!!!!!!!!!!!!!G$o&R!4!'!'!'!'!'!'!'!'!'!'!'!'!'!'!'!'!'!'!'!'!'!'!'!'!'!'!'!'",
"!'!'!'!'!'!'!'!'!'!'!'!'!'!'!'!'!'!'!'!'!'!'!'!'!'!'!'!'!.!'%l!8!!!!!!!!!!!!!!!!!!!!!!!!!!!!!!!!!!!!!!!!!!!!!!!!!!!!!!!!!!!!!!!!!!!!!!!!!!!!!!!!!!!!!!!!!!!!!!!!!!!!!!#u!L&S!?!.!'!'!'!'!'!'!'!'!'!'!'!'!'!'!'!'!'!'!'!'!'!'!'!'!'!'!'!'!'!'!'!'!'!'!'!'!'!'!'!'!'!'!'!'!'!'!'!'!'!'!'!'!'!'!'!'!'!'!'!'!'!'!'!'!'!'!'!'!'!'!'!'!'!'!'!'!'!'!'!'!'!{#O!K!8!!!!!!!!!!!!!!!!!!!!!!!!!!!!!!!!!!!!!!!!!!!!!!!!!!!!!!!!!!!!!!!!!!!!!!!!!!!!!!!!!!!!!!!!!!!!!!!!!!!!!!!##v!{!.!'!'!'!'!'!'!'!'!'!'!'!'!'!'!'!'!'!'!'!'!'!'!'!'!'!'!'!'",
"!'!'!'!'!'!'!'!'!'!'!'!'!'!'!'!'!'!'!'!'!'!'!'!'!'!'!'!'!'!r&T!<!G!!!!!!!!!!!!!!!!!!!!!!!!!!!!!!!!!!!!!!!!!!!!!!!!!!!!!!!!!!!!!!!!!!!!!!!!!!!!!!!!!!!!!!!!!!!!!!!!!!!!!!!G#{#M!5!'!'!'!'!'!'!'!'!'!'!'!'!'!'!'!'!'!'!'!'!'!'!'!'!'!'!'!'!'!'!'!'!'!'!'!'!'!'!'!'!'!'!'!'!'!'!'!'!'!'!'!'!'!'!'!'!'!'!'!'!'!'!'!'!'!'!'!'!'!'!'!'!'!'!'!'!'!'!'!'!-$m$Y!G!!!!!!!!!!!!!!!!!!!!!!!!!!!!!!!!!!!!!!!!!!!!!!!!!!!!!!!!!!!!!!!!!!!!!!!!!!!!!!!!!!!!!!!!!!!!!!!!!!!!!!!G!t%+!r!'!'!'!'!'!'!'!'!'!'!'!'!'!'!'!'!'!'!'!'!'!'!'!'!'!'!'!'!'",
"!'!'!'!'!'!'!'!'!'!'!'!'!'!'!'!'!'!'!'!'!'!'!'!'!'!'!'!'!'#'$.#<!B!!!!!!!!!!!!!!!!!!!!!!!!!!!!!!!!!!!!!!!!!!!!!!!!!!!!!!!!!!!!!!!!!!!!!!!!!!!!!!!!!!!!!!!!!!!!!!!!!!!!!!!8#S$r!&!'!'!'!'!'!'!'!'!'!'!'!'!'!'!'!'!'!'!'!'!'!'!'!'!'!'!'!'!'!'!'!'!'!'!'!'!'!'!'!'!'!'!'!'!'!'!'!'!'!'!'!'!'!'!'!'!'!'!'!'!'!'!'!'!'!'!'!'!'!'!'!'!'!'!'!'!'!'!'!'!-!6!7!#!!!!!!!!!!!!!!!!!!!!!!!!!!!!!!!!!!!!!!!!!!!!!!!!!!!!!!!!!!!!!!!!!!!!!!!!!!!!!!!!!!!!!!!!!!!!!!!!!!!!!!!+&(!m!.!'!'!'!'!'!'!'!'!'!'!'!'!'!'!'!'!'!'!'!'!'!'!'!'!'!'!'!'!'",
"!'!'!'!'!'!'!'!'!'!'!'!'!'!'!'!'!'!'!'!'!'!'!'!'!'!'!'!'!'!'!4#z!o!#!!!!!!!!!!!!!!!!!!!!!!!!!!!!!!!!!!!!!!!!!!!!!!!!!!!!!!!!!!!!!!!!!!!!!!!!!!!!!!!!!!!!!!!!!!!!!!!!!!!!!!!+&U!O!-!'!'!'!'!'!'!'!'!'!'!'!'!'!'!'!'!'!'!'!'!'!'!'!'!'!'!'!'!'!'!'!'!'!'!'!'!'!'!'!'!'!'!'!'!'!'!'!'!'!'!'!'!'!'!'!'!'!'!'!'!'!'!'!'!'!'!'!'!'!'!'!'!'!'!'!'!'!'!-!h&V!B!!!!!!!!!!!!!!!!!!!!!!!!!!!!!!!!!!!!!!!!!!!!!!!!!!!!!!!!!!!!!!!!!!!!!!!!!!!!!!!!!!!!!!!!!!!!!!!!!!!!!!!#$4&W!-!'!'!'!'!'!'!'!'!'!'!'!'!'!'!'!'!'!'!'!'!'!'!'!'!'!'!'!'!'!'",
"!'!'!'!'!'!'!'!'!'!'!'!'!'!'!'!'!'!'!'!'!'!'!'!'!'!'!'!'!'!'!-#2%G!=!!!!!!!!!!!!!!!!!!!!!!!!!!!!!!!!!!!!!!!!!!!!!!!!!!!!!!!!!!!!!!!!!!!!!!!!!!!!!!!!!!!!!!!!!!!!!!!!!!!!!!!8!c$k!r!'!'!'!'!'!'!'!'!'!'!'!'!'!'!'!'!'!'!'!'!'!'!'!'!'!'!'!'!'!'!'!'!'!'!'!'!'!'!'!'!'!'!'!'!'!'!'!'!'!'!'!'!'!'!'!'!'!'!'!'!'!'!'!'!'!'!'!'!'!'!'!'!'!'!'!'!'!'!a$5!o&G!!!!!!!!!!!!!!!!!!!!!!!!!!!!!!!!!!!!!!!!!!!!!!!!!!!!!!!!!!!!!!!!!!!!!!!!!!!!!!!!!!!!!!!!!!!!!!!!!!!!!!!G&&$c!-!'!'!'!'!'!'!'!'!'!'!'!'!'!'!'!'!'!'!'!'!'!'!'!'!'!'!'!'!'!'",
"!'!'!'!'!'!'!'!'!'!'!'!'!'!'!'!'!'!'!'!'!'!'!'!'!'!'!'!'!'!'!'!&%1#Y!1!!!!!!!!!!!!!!!!!!!!!!!!!!!!!!!!!!!!!!!!!!!!!!!!!!!!!!!!!!!!!!!!!!!!!!!!!!!!!!!!!!!!!!!!!!!!!!!!!!!!!!!B&X!h!-!'!'!'!'!'!'!'!'!'!'!'!'!'!'!'!'!'!'!'!'!'!'!'!'!'!'!'!'!'!'!'!'!'!'!'!'!'!'!'!'!'!'!'!'!'!'!'!'!'!'!'!'!'!'!'!'!'!'!'!'!'!'!'!'!'!'!'!'!'!'!'!'!'!'!'!'!-!/%'!B!!!!!!!!!!!!!!!!!!!!!!!!!!!!!!!!!!!!!!!!!!!!!!!!!!!!!!!!!!!!!!!!!!!!!!!!!!!!!!!!!!!!!!!!!!!!!!!!!!!!!!!1#S${!.!'!'!'!'!'!'!'!'!'!'!'!'!'!'!'!'!'!'!'!'!'!'!'!'!'!'!'!'!'!'!'",
"!'!'!'!'!'!'!'!'!'!'!'!'!'!'!'!'!'!'!'!'!'!'!'!'!'!'!'!'!'!'!'!4#%!A!G!!!!!!!!!!!!!!!!!!!!!!!!!!!!!!!!!!!!!!!!!!!!!!!!!!!!!!!!!!!!!!!!!!!!!!!!!!!!!!!!!!!!!!!!!!!!!!!!!!!!!!!1&Y!p!r!'!'!'!'!'!'!'!'!'!'!'!'!'!'!'!'!'!'!'!'!'!'!'!'!'!'!'!'!'!'!'!'!'!'!'!'!'!'!'!'!'!'!'!'!'!'!'!'!'!'!'!'!'!'!'!'!'!'!'!'!'!'!'!'!'!'!'!'!'!'!'!'!'!'!'!'!a&)!T!#!!!!!!!!!!!!!!!!!!!!!!!!!!!!!!!!!!!!!!!!!!!!!!!!!!!!!!!!!!!!!!!!!!!!!!!!!!!!!!!!!!!!!!!!!!!!!!!!!!!!!!!=$<$;!4!'!'!'!'!'!'!'!'!'!'!'!'!'!'!'!'!'!'!'!'!'!'!'!'!'!'!'!'!'!'!'",
"!'!'!'!'!'!'!'!'!'!'!'!'!'!'!'!'!'!'!'!'!'!'!'!'!'!'!'!'!'!'!'!'#'$W$G$H!!!!!!!!!!!!!!!!!!!!!!!!!!!!!!!!!!!!!!!!!!!!!!!!!!!!!!!!!!!!!!!!!!!!!!!!!!!!!!!!!!!!!!!!!!!!!!!!!!!!!!!#%~$h!&!'!'!'!'!'!'!'!'!'!'!'!'!'!'!'!'!'!'!'!'!'!'!'!'!'!'!'!'!'!'!'!'!'!'!'!'!'!'!'!'!'!'!'!'!'!'!'!'!'!'!'!'!'!'!'!'!'!'!'!'!'!'!'!'!'!'!'!'!'!'!'!'!'!'!.$.##!8!!!!!!!!!!!!!!!!!!!!!!!!!!!!!!!!!!!!!!!!!!!!!!!!!!!!!!!!!!!!!!!!!!!!!!!!!!!!!!!!!!!!!!!!!!!!!!!!!!!!!!!8!!#h!'!'!'!'!'!'!'!'!'!'!'!'!'!'!'!'!'!'!'!'!'!'!'!'!'!'!'!'!'!'!'!'!'",
"!'!'!'!'!'!'!'!'!'!'!'!'!'!'!'!'!'!'!'!'!'!'!'!'!'!'!'!'!'!'!'!'!4#n&Z!G!!!!!!!!!!!!!!!!!!!!!!!!!!!!!!!!!!!!!!!!!!!!!!!!!!!!!!!!!!!!!!!!!!!!!!!!!!!!!!!!!!!!!!!!!!!!!!!!!!!!!!!G!S#E!4!'!'!'!'!'!'!'!'!'!'!'!'!'!'!'!'!'!'!'!'!'!'!'!'!'!'!'!'!'!'!'!'!'!'!'!'!'!'!'!'!'!'!'!'!'!'!'!'!'!'!'!'!'!'!'!'!'!'!'!'!'!'!'!'!'!'!'!'!'!'!'!'!'!'!4&[#t!=!!!!!!!!!!!!!!!!!!!!!!!!!!!!!!!!!!!!!!!!!!!!!!!!!!!!!!!!!!!!!!!!!!!!!!!!!!!!!!!!!!!!!!!!!!!!!!!!!!!!!!!G!<!U!r!'!'!'!'!'!'!'!'!'!'!'!'!'!'!'!'!'!'!'!'!'!'!'!'!'!'!'!'!'!'!'!'",
"!'!'!'!'!'!'!'!'!'!'!'!'!'!'!'!'!'!'!'!'!'!'!'!'!'!'!'!'!'!'!'!'!'!{&]!B!!!!!!!!!!!!!!!!!!!!!!!!!!!!!!!!!!!!!!!!!!!!!!!!!!!!!!!!!!!!!!!!!!!!!!!!!!!!!!!!!!!!!!!!!!!!!!!!!!!!!!!!#&&^!.!'!'!'!'!'!'!'!'!'!'!'!'!'!'!'!'!'!'!'!'!'!'!'!'!'!'!'!'!'!'!'!'!'!'!'!'!'!'!'!'!'!'!'!'!'!'!'!'!'!'!'!'!'!'!'!'!'!'!'!'!'!'!'!'!'!'!'!'!'!'!'!'!'!'!&&_!9!8!!!!!!!!!!!!!!!!!!!!!!!!!!!!!!!!!!!!!!!!!!!!!!!!!!!!!!!!!!!!!!!!!!!!!!!!!!!!!!!!!!!!!!!!!!!!!!!!!!!!!!!+&`#p!N!'!'!'!'!'!'!'!'!'!'!'!'!'!'!'!'!'!'!'!'!'!'!'!'!'!'!'!'!'!'!'!'",
"!'!'!'!'!'!'!'!'!'!'!'!'!'!'!'!'!'!'!'!'!'!'!'!'!'!'!'!'!'!'!'!'!'!r&a!2!=!!!!!!!!!!!!!!!!!!!!!!!!!!!!!!!!!!!!!!!!!!!!!!!!!!!!!!!!!!!!!!!!!!!!!!!!!!!!!!!!!!!!!!!!!!!!!!!!!!!!!!!B&b&c!-!'!'!'!'!'!'!'!'!'!'!'!'!'!'!'!'!'!'!'!'!'!'!'!'!'!'!'!'!'!'!'!'!'!'!'!'!'!'!'!'!'!'!'!'!'!'!'!'!'!'!'!'!'!'!'!'!'!'!'!'!'!'!'!'!'!'!'!'!'!'!'!'!-$c&d!B!!!!!!!!!!!!!!!!!!!!!!!!!!!!!!!!!!!!!!!!!!!!!!!!!!!!!!!!!!!!!!!!!!!!!!!!!!!!!!!!!!!!!!!!!!!!!!!!!!!!!!!#$*!b!r!'!'!'!'!'!'!'!'!'!'!'!'!'!'!'!'!'!'!'!'!'!'!'!'!'!'!'!'!'!'!'!'!'",
"!'!'!'!'!'!'!'!'!'!'!'!'!'!'!'!'!'!'!'!'!'!'!'!'!'!'!'!'!'!'!'!'!'!.!($9!G!!!!!!!!!!!!!!!!!!!!!!!!!!!!!!!!!!!!!!!!!!!!!!!!!!!!!!!!!!!!!!!!!!!!!!!!!!!!!!!!!!!!!!!!!!!!!!!!!!!!!!!8!7$E!r!'!'!'!'!'!'!'!'!'!'!'!'!'!'!'!'!'!'!'!'!'!'!'!'!'!'!'!'!'!'!'!'!'!'!'!'!'!'!'!'!'!'!'!'!'!'!'!'!'!'!'!'!'!'!'!'!'!'!'!'!'!'!'!'!'!'!'!'!'!'!'!'!4$'#]!1!!!!!!!!!!!!!!!!!!!!!!!!!!!!!!!!!!!!!!!!!!!!!!!!!!!!!!!!!!!!!!!!!!!!!!!!!!!!!!!!!!!!!!!!!!!!!!!!!!!!!!!B$J!^!-!'!'!'!'!'!'!'!'!'!'!'!'!'!'!'!'!'!'!'!'!'!'!'!'!'!'!'!'!'!'!'!'!'",
"!'!'!'!'!'!'!'!'!'!'!'!'!'!'!'!'!'!'!'!'!'!'!'!'!'!'!'!'!'!'!'!'!'!'!-&e$j!#!!!!!!!!!!!!!!!!!!!!!!!!!!!!!!!!!!!!!!!!!!!!!!!!!!!!!!!!!!!!!!!!!!!!!!!!!!!!!!!!!!!!!!!!!!!!!!!!!!!!!!!B%y#2!-!'!'!'!'!'!'!'!'!'!'!'!'!'!'!'!'!'!'!'!'!'!'!'!'!'!'!'!'!'!'!'!'!'!'!'!'!'!'!'!'!'!'!'!'!'!'!'!'!'!'!'!'!'!'!'!'!'!'!'!'!'!'!'!'!'!'!'!'!'!'!-!(&X!G!!!!!!!!!!!!!!!!!!!!!!!!!!!!!!!!!!!!!!!!!!!!!!!!!!!!!!!!!!!!!!!!!!!!!!!!!!!!!!!!!!!!!!!!!!!!!!!!!!!!!!!#!7$z!.!'!'!'!'!'!'!'!'!'!'!'!'!'!'!'!'!'!'!'!'!'!'!'!'!'!'!'!'!'!'!'!'!'!'",
"!'!'!'!'!'!'!'!'!'!'!'!'!'!'!'!'!'!'!'!'!'!'!'!'!'!'!'!'!'!'!'!'!'!'!4&3#:!G!!!!!!!!!!!!!!!!!!!!!!!!!!!!!!!!!!!!!!!!!!!!!!!!!!!!!!!!!!!!!!!!!!!!!!!!!!!!!!!!!!!!!!!!!!!!!!!!!!!!!!!8#e&>!a!'!'!'!'!'!'!'!'!'!'!'!'!'!'!'!'!'!'!'!'!'!'!'!'!'!'!'!'!'!'!'!'!'!'!'!'!'!'!'!'!'!'!'!'!'!'!'!'!'!'!'!'!'!'!'!'!'!'!'!'!'!'!'!'!'!'!'!'!'!'!a#w$*!8!!!!!!!!!!!!!!!!!!!!!!!!!!!!!!!!!!!!!!!!!!!!!!!!!!!!!!!!!!!!!!!!!!!!!!!!!!!!!!!!!!!!!!!!!!!!!!!!!!!!!!!G&$$U!4!'!'!'!'!'!'!'!'!'!'!'!'!'!'!'!'!'!'!'!'!'!'!'!'!'!'!'!'!'!'!'!'!'!'",
"!'!'!'!'!'!'!'!'!'!'!'!'!'!'!'!'!'!'!'!'!'!'!'!'!'!'!'!'!'!'!'!'!'!'!'!N#~&f!8!!!!!!!!!!!!!!!!!!!!!!!!!!!!!!!!!!!!!!!!!!!!!!!!!!!!!!!!!!!!!!!!!!!!!!!!!!!!!!!!!!!!!!!!!!!!!!!!!!!!!!!G$|#1!-!'!'!'!'!'!'!'!'!'!'!'!'!'!'!'!'!'!'!'!'!'!'!'!'!'!'!'!'!'!'!'!'!'!'!'!'!'!'!'!'!'!'!'!'!'!'!'!'!'!'!'!'!'!'!'!'!'!'!'!'!'!'!'!'!'!'!'!'!.#p&g!G!!!!!!!!!!!!!!!!!!!!!!!!!!!!!!!!!!!!!!!!!!!!!!!!!!!!!!!!!!!!!!!!!!!!!!!!!!!!!!!!!!!!!!!!!!!!!!!!!!!!!!!8!}&h!'!'!'!'!'!'!'!'!'!'!'!'!'!'!'!'!'!'!'!'!'!'!'!'!'!'!'!'!'!'!'!'!'!'!'!'",
"!'!'!'!'!'!'!'!'!'!'!'!'!'!'!'!'!'!'!'!'!'!'!'!'!'!'!'!'!'!'!'!'!'!'!'!4!;&-!G!!!!!!!!!!!!!!!!!!!!!!!!!!!!!!!!!!!!!!!!!!!!!!!!!!!!!!!!!!!!!!!!!!!!!!!!!!!!!!!!!!!!!!!!!!!!!!!!!!!!!!!#!T$K!a!'!'!'!'!'!'!'!'!'!'!'!'!'!'!'!'!'!'!'!'!'!'!'!'!'!'!'!'!'!'!'!'!'!'!'!'!'!'!'!'!'!'!'!'!'!'!'!'!'!'!'!'!'!'!'!'!'!'!'!'!'!'!'!'!'!'!'!'!r&i%<!#!!!!!!!!!!!!!!!!!!!!!!!!!!!!!!!!!!!!!!!!!!!!!!!!!!!!!!!!!!!!!!!!!!!!!!!!!!!!!!!!!!!!!!!!!!!!!!!!!!!!!!!G%!#E!r!'!'!'!'!'!'!'!'!'!'!'!'!'!'!'!'!'!'!'!'!'!'!'!'!'!'!'!'!'!'!'!'!'!'!'",
"!'!'!'!'!'!'!'!'!'!'!'!'!'!'!'!'!'!'!'!'!'!'!'!'!'!'!'!'!'!'!'!'!'!'!'!'!?&j!##u!!!!!!!!!!!!!!!!!!!!!!!!!!!!!!!!!!!!!!!!!!!!!!!!!!!!!!!!!!!!!!!!!!!!!!!!!!!!!!!!!!!!!!!!!!!!!!!!!!!!$H!}#G!{!.!'!'!'!'!'!'!'!'!'!'!'!'!'!'!'!'!'!'!'!'!'!'!'!'!'!'!'!'!'!'!'!'!'!'!'!'!'!'!'!'!'!'!'!'!'!'!'!'!'!'!'!'!'!'!'!'!'!'!'!'!'!'!'!'!'!'!'!'&k!K!8!!!!!!!!!!!!!!!!!!!!!!!!!!!!!!!!!!!!!!!!!!!!!!!!!!!!!!!!!!!!!!!!!!!!!!!!!!!!!!!!!!!!!!!!!!!!!!!!!!!!!!!G&l$.!N!'!'!'!'!'!'!'!'!'!'!'!'!'!'!'!'!'!'!'!'!'!'!'!'!'!'!'!'!'!'!'!'!'!'!'",
"!'!'!'!'!'!'!'!'!'!'!'!'!'!'!'!'!'!'!'!'!'!'!'!'!'!'!'!'!'!'!'!'!'!'!'!'!r#P#H!=!!!!!!!!!!!!!!!!!!!!!!!!!!!!!!!!!!!!!!!!!!!!!!!!!!!!!!!!!!!!!!!!!!!!!!!!!!!!!!!!!!!!!!!!!!!!!!!!!!!!!!!G$V&m!4!'!'!'!'!'!'!'!'!'!'!'!'!'!'!'!'!'!'!'!'!'!'!'!'!'!'!'!'!'!'!'!'!'!'!'!'!'!'!'!'!'!'!'!'!'!'!'!'!'!'!'!'!'!'!'!'!'!'!'!'!'!'!'!'!'!'!-&n&?!G!!!!!!!!!!!!!!!!!!!!!!!!!!!!!!!!!!!!!!!!!!!!!!!!!!!!!!!!!!!!!!!!!!!!!!!!!!!!!!!!!!!!!!!!!!!!!!!!!!!!!!!#%V%t!a!'!'!'!'!'!'!'!'!'!'!'!'!'!'!'!'!'!'!'!'!'!'!'!'!'!'!'!'!'!'!'!'!'!'!'!'",
"!'!'!'!'!'!'!'!'!'!'!'!'!'!'!'!'!'!'!'!'!'!'!'!'!'!'!'!'!'!'!'!'!'!'!'!'!.$h%_!+!!!!!!!!!!!!!!!!!!!!!!!!!!!!!!!!!!!!!!!!!!!!!!!!!!!!!!!!!!!!!!!!!!!!!!!!!!!!!!!!!!!!!!!!!!!!!!!!!!!!!!!8#,&o!-!'!'!'!'!'!'!'!'!'!'!'!'!'!'!'!'!'!'!'!'!'!'!'!'!'!'!'!'!'!'!'!'!'!'!'!'!'!'!'!'!'!'!'!'!'!'!'!'!'!'!'!'!'!'!'!'!'!'!'!'!'!'!'!'!'!'!-&p!W!8!!!!!!!!!!!!!!!!!!!!!!!!!!!!!!!!!!!!!!!!!!!!!!!!!!!!!!!!!!!!!!!!!!!!!!!!!!!!!!!!!!!!!!!!!!!!!!!!!!!!!!!+&X#1!.!'!'!'!'!'!'!'!'!'!'!'!'!'!'!'!'!'!'!'!'!'!'!'!'!'!'!'!'!'!'!'!'!'!'!'!'",
"!'!'!'!'!'!'!'!'!'!'!'!'!'!'!'!'!'!'!'!'!'!'!'!'!'!'!'!'!'!'!'!'!'!'!'!'!'!4$i#e!#!!!!!!!!!!!!!!!!!!!!!!!!!!!!!!!!!!!!!!!!!!!!!!!!!!!!!!!!!!!!!!!!!!!!!!!!!!!!!!!!!!!!!!!!!!!!!!!!!!!!!!!B&q&r!-!'!'!'!'!'!'!'!'!'!'!'!'!'!'!'!'!'!'!'!'!'!'!'!'!'!'!'!'!'!'!'!'!'!'!'!'!'!'!'!'!'!'!'!'!'!'!'!'!'!'!'!'!'!'!'!'!'!'!'!'!'!'!'!'!-!^&s!B!!!!!!!!!!!!!!!!!!!!!!!!!!!!!!!!!!!!!!!!!!!!!!!!!!!!!!!!!!!!!!!!!!!!!!!!!!!!!!!!!!!!!!!!!!!!!!!!!!!!!!!#$&$'!4!'!'!'!'!'!'!'!'!'!'!'!'!'!'!'!'!'!'!'!'!'!'!'!'!'!'!'!'!'!'!'!'!'!'!'!'!'",
"!'!'!'!'!'!'!'!'!'!'!'!'!'!'!'!'!'!'!'!'!'!'!'!'!'!'!'!'!'!'!'!'!'!'!'!'!'!-$$$#!G!!!!!!!!!!!!!!!!!!!!!!!!!!!!!!!!!!!!!!!!!!!!!!!!!!!!!!!!!!!!!!!!!!!!!!!!!!!!!!!!!!!!!!!!!!!!!!!!!!!!!!!8$&#[!a!'!'!'!'!'!'!'!'!'!'!'!'!'!'!'!'!'!'!'!'!'!'!'!'!'!'!'!'!'!'!'!'!'!'!'!'!'!'!'!'!'!'!'!'!'!'!'!'!'!'!'!'!'!'!'!'!'!'!'!'!'!'!'!'!a&t%E!1!!!!!!!!!!!!!!!!!!!!!!!!!!!!!!!!!!!!!!!!!!!!!!!!!!!!!!!!!!!!!!!!!!!!!!!!!!!!!!!!!!!!!!!!!!!!!!!!!!!!!!!G&u&3!-!'!'!'!'!'!'!'!'!'!'!'!'!'!'!'!'!'!'!'!'!'!'!'!'!'!'!'!'!'!'!'!'!'!'!'!'!'",
"!'!'!'!'!'!'!'!'!'!'!'!'!'!'!'!'!'!'!'!'!'!'!'!'!'!'!'!'!'!'!'!'!'!'!'!'!'!'!'%d!F!8!!!!!!!!!!!!!!!!!!!!!!!!!!!!!!!!!!!!!!!!!!!!!!!!!!!!!!!!!!!!!!!!!!!!!!!!!!!!!!!!!!!!!!!!!!!!!!!!!!!!!!!B&/!]!-!'!'!'!'!'!'!'!'!'!'!'!'!'!'!'!'!'!'!'!'!'!'!'!'!'!'!'!'!'!'!'!'!'!'!'!'!'!'!'!'!'!'!'!'!'!'!'!'!'!'!'!'!'!'!'!'!'!'!'!'!'!'!.$h&v!G!!!!!!!!!!!!!!!!!!!!!!!!!!!!!!!!!!!!!!!!!!!!!!!!!!!!!!!!!!!!!!!!!!!!!!!!!!!!!!!!!!!!!!!!!!!!!!!!!!!!!!!8#&&w!'!'!'!'!'!'!'!'!'!'!'!'!'!'!'!'!'!'!'!'!'!'!'!'!'!'!'!'!'!'!'!'!'!'!'!'!'!'!'",
"!'!'!'!'!'!'!'!'!'!'!'!'!'!'!'!'!'!'!'!'!'!'!'!'!'!'!'!'!'!'!'!'!'!'!'!'!'!'!4&x#C!=!!!!!!!!!!!!!!!!!!!!!!!!!!!!!!!!!!!!!!!!!!!!!!!!!!!!!!!!!!!!!!!!!!!!!!!!!!!!!!!!!!!!!!!!!!!!!!!!!!!!!!!#!2&)!a!'!'!'!'!'!'!'!'!'!'!'!'!'!'!'!'!'!'!'!'!'!'!'!'!'!'!'!'!'!'!'!'!'!'!'!'!'!'!'!'!'!'!'!'!'!'!'!'!'!'!'!'!'!'!'!'!'!'!'!'!'!'!a&1!t!#!!!!!!!!!!!!!!!!!!!!!!!!!!!!!!!!!!!!!!!!!!!!!!!!!!!!!!!!!!!!!!!!!!!!!!!!!!!!!!!!!!!!!!!!!!!!!!!!!!!!!!!G%b#M!4!'!'!'!'!'!'!'!'!'!'!'!'!'!'!'!'!'!'!'!'!'!'!'!'!'!'!'!'!'!'!'!'!'!'!'!'!'!'",
"!'!'!'!'!'!'!'!'!'!'!'!'!'!'!'!'!'!'!'!'!'!'!'!'!'!'!'!'!'!'!'!'!'!'!'!'!'!'!'!{$(#u!8!!!!!!!!!!!!!!!!!!!!!!!!!!!!!!!!!!!!!!!!!!!!!!!!!!!!!!!!!!!!!!!!!!!!!!!!!!!!!!!!!!!!!!!!!!!!!!!!!!!!!!!8##$.!.!'!'!'!'!'!'!'!'!'!'!'!'!'!'!'!'!'!'!'!'!'!'!'!'!'!'!'!'!'!'!'!'!'!'!'!'!'!'!'!'!'!'!'!'!'!'!'!'!'!'!'!'!'!'!'!'!'!'!'!'!.!{%{!!!!!!!!!!!!!!!!!!!!!!!!!!!!!!!!!!!!!!!!!!!!!!!!!!!!!!!!!!!!!!!!!!!!!!!!!!!!!!!!!!!!!!!!!!!!!!!!!!!!!!!!!!!#&%!?!N!'!'!'!'!'!'!'!'!'!'!'!'!'!'!'!'!'!'!'!'!'!'!'!'!'!'!'!'!'!'!'!'!'!'!'!'!'!'",
"!'!'!'!'!'!'!'!'!'!'!'!'!'!'!'!'!'!'!'!'!'!'!'!'!'!'!'!'!'!'!'!'!'!'!'!'!'!'!'!a%(&y!G!!!!!!!!!!!!!!!!!!!!!!!!!!!!!!!!!!!!!!!!!!!!!!!!!!!!!!!!!!!!!!!!!!!!!!!!!!!!!!!!!!!!!!!!!!!!!!!!!!!!!!!G&z&7!4!'!'!'!'!'!'!'!'!'!'!'!'!'!'!'!'!'!'!'!'!'!'!'!'!'!'!'!'!'!'!'!'!'!'!'!'!'!'!'!'!'!'!'!'!'!'!'!'!'!'!'!'!'!'!'!'!'!'!'!'!4&{$Y!G!!!!!!!!!!!!!!!!!!!!!!!!!!!!!!!!!!!!!!!!!!!!!!!!!!!!!!!!!!!!!!!!!!!!!!!!!!!!!!!!!!!!!!!!!!!!!!!!!!!!!!!##j%+!a!'!'!'!'!'!'!'!'!'!'!'!'!'!'!'!'!'!'!'!'!'!'!'!'!'!'!'!'!'!'!'!'!'!'!'!'!'!'!'",
"!'!'!'!'!'!'!'!'!'!'!'!'!'!'!'!'!'!'!'!'!'!'!'!'!'!'!'!'!'!'!'!'!'!'!'!'!'!'!'!.!m&|!+!!!!!!!!!!!!!!!!!!!!!!!!!!!!!!!!!!!!!!!!!!!!!!!!!!!!!!!!!!!!!!!!!!!!!!!!!!!!!!!!!!!!!!!!!!!!!!!!!!!!!!!8#S&}!&#'!'!'!'!'!'!'!'!'!'!'!'!'!'!'!'!'!'!'!'!'!'!'!'!'!'!'!'!'!'!'!'!'!'!'!'!'!'!'!'!'!'!'!'!'!'!'!'!'!'!'!'!'!'!'!'!'!'!'!.!-&~$^!8!!!!!!!!!!!!!!!!!!!!!!!!!!!!!!!!!!!!!!!!!!!!!!!!!!!!!!!!!!!!!!!!!!!!!!!!!!!!!!!!!!!!!!!!!!!!!!!!!!!!!!!+&/#1!.!'!'!'!'!'!'!'!'!'!'!'!'!'!'!'!'!'!'!'!'!'!'!'!'!'!'!'!'!'!'!'!'!'!'!'!'!'!'!'",
"!'!'!'!'!'!'!'!'!'!'!'!'!'!'!'!'!'!'!'!'!'!'!'!'!'!'!'!'!'!'!'!'!'!'!'!'!'!'!'!'!a$5%c!#!!!!!!!!!!!!!!!!!!!!!!!!!!!!!!!!!!!!!!!!!!!!!!!!!!!!!!!!!!!!!!!!!!!!!!!!!!!!!!!!!!!!!!!!!!!!!!!!!!!!!!!B%5'!!-!'!'!'!'!'!'!'!'!'!'!'!'!'!'!'!'!'!'!'!'!'!'!'!'!'!'!'!'!'!'!'!'!'!'!'!'!'!'!'!'!'!'!'!'!'!'!'!'!'!'!'!'!'!'!'!'!'!'!-$c'#!B!!!!!!!!!!!!!!!!!!!!!!!!!!!!!!!!!!!!!!!!!!!!!!!!!!!!!!!!!!!!!!!!!!!!!!!!!!!!!!!!!!!!!!!!!!!!!!!!!!!!!!!#'$#6!a!'!'!'!'!'!'!'!'!'!'!'!'!'!'!'!'!'!'!'!'!'!'!'!'!'!'!'!'!'!'!'!'!'!'!'!'!'!'!'!'",
"!'!'!'!'!'!'!'!'!'!'!'!'!'!'!'!'!'!'!'!'!'!'!'!'!'!'!'!'!'!'!'!'!'!'!'!'!'!'!'!'!&#2&*!B!!!!!!!!!!!!!!!!!!!!!!!!!!!!!!!!!!!!!!!!!!!!!!!!!!!!!!!!!!!!!!!!!!!!!!!!!!!!!!!!!!!!!!!!!!!!!!!!!!!!!!!1%D#^!4!'!'!'!'!'!'!'!'!'!'!'!'!'!'!'!'!'!'!'!'!'!'!'!'!'!'!'!'!'!'!'!'!'!'!'!'!'!'!'!'!'!'!'!'!'!'!'!'!'!'!'!'!'!'!'!'!'!'!4&W#e!1!!!!!!!!!!!!!!!!!!!!!!!!!!!!!!!!!!!!!!!!!!!!!!!!!!!!!!!!!!!!!!!!!!!!!!!!!!!!!!!!!!!!!!!!!!!!!!!!!!!!!!!*!X#a!-!'!'!'!'!'!'!'!'!'!'!'!'!'!'!'!'!'!'!'!'!'!'!'!'!'!'!'!'!'!'!'!'!'!'!'!'!'!'!'!'",
"!'!'!'!'!'!'!'!'!'!'!'!'!'!'!'!'!'!'!'!'!'!'!'!'!'!'!'!'!'!'!'!'!'!'!'!'!'!'!'!'!'!.#4$^!#!!!!!!!!!!!!!!!!!!!!!!!!!!!!!!!!!!!!!!!!!!!!!!!!!!!!!!!!!!!!!!!!!!!!!!!!!!!!!!!!!!!!!!!!!!!!!!!!!!!!!!!G!)!(!-!'!'!'!'!'!'!'!'!'!'!'!'!'!'!'!'!'!'!'!'!'!'!'!'!'!'!'!'!'!'!'!'!'!'!'!'!'!'!'!'!'!'!'!'!'!'!'!'!'!'!'!'!'!'!'!'!&#;&O!G!!!!!!!!!!!!!!!!!!!!!!!!!!!!!!!!!!!!!!!!!!!!!!!!!!!!!!!!!!!!!!!!!!!!!!!!!!!!!!!!!!!!!!!!!!!!!!!!!!!!!!!1!9!q!.!'!'!'!'!'!'!'!'!'!'!'!'!'!'!'!'!'!'!'!'!'!'!'!'!'!'!'!'!'!'!'!'!'!'!'!'!'!'!'!'!'",
"!'!'!'!'!'!'!'!'!'!'!'!'!'!'!'!'!'!'!'!'!'!'!'!'!'!'!'!'!'!'!'!'!'!'!'!'!'!'!'!'!'!4!@!x!G!!!!!!!!!!!!!!!!!!!!!!!!!!!!!!!!!!!!!!!!!!!!!!!!!!!!!!!!!!!!!!!!!!!!!!!!!!!!!!!!!!!!!!!!!!!!!!!!!!!!!!!8#x#i!a!'!'!'!'!'!'!'!'!'!'!'!'!'!'!'!'!'!'!'!'!'!'!'!'!'!'!'!'!'!'!'!'!'!'!'!'!'!'!'!'!'!'!'!'!'!'!'!'!'!'!'!'!'!'!'!'!a$d#)!#!!!!!!!!!!!!!!!!!!!!!!!!!!!!!!!!!!!!!!!!!!!!!!!!!!!!!!!!!!!!!!!!!!!!!!!!!!!!!!!!!!!!!!!!!!!!!!!!!!!!!!!B$A$Z!5!'!'!'!'!'!'!'!'!'!'!'!'!'!'!'!'!'!'!'!'!'!'!'!'!'!'!'!'!'!'!'!'!'!'!'!'!'!'!'!'!'",
"!'!'!'!'!'!'!'!'!'!'!'!'!'!'!'!'!'!'!'!'!'!'!'!'!'!'!'!'!'!'!'!'!'!'!'!'!'!'!'!'!'!'!{%%!}!8!!!!!!!!!!!!!!!!!!!!!!!!!!!!!!!!!!!!!!!!!!!!!!!!!!!!!!!!!!!!!!!!!!!!!!!!!!!!!!!!!!!!!!!!!!!!!!!!!!!!!!!#!>%3!.!'!'!'!'!'!'!'!'!'!'!'!'!'!'!'!'!'!'!'!'!'!'!'!'!'!'!'!'!'!'!'!'!'!'!'!'!'!'!'!'!'!'!'!'!'!'!'!'!'!'!'!'!'!'!.!?'%!1!!!!!!!!!!!!!!!!!!!!!!!!!!!!!!!!!!!!!!!!!!!!!!!!!!!!!!!!!!!!!!!!!!!!!!!!!!!!!!!!!!!!!!!!!!!!!!!!!!!!!!!8!!$(!?!'!'!'!'!'!'!'!'!'!'!'!'!'!'!'!'!'!'!'!'!'!'!'!'!'!'!'!'!'!'!'!'!'!'!'!'!'!'!'!'!'!'",
"!'!'!'!'!'!'!'!'!'!'!'!'!'!'!'!'!'!'!'!'!'!'!'!'!'!'!'!'!'!'!'!'!'!'!'!'!'!'!'!'!'!'!r$,'&!G!!!!!!!!!!!!!!!!!!!!!!!!!!!!!!!!!!!!!!!!!!!!!!!!!!!!!!!!!!!!!!!!!!!!!!!!!!!!!!!!!!!!!!!!!!!!!!!!!!!!!!!#!<&.!r!'!'!'!'!'!'!'!'!'!'!'!'!'!'!'!'!'!'!'!'!'!'!'!'!'!'!'!'!'!'!'!'!'!'!'!'!'!'!'!'!'!'!'!'!'!'!'!'!'!'!'!'!'!'!4''$s!#!!!!!!!!!!!!!!!!!!!!!!!!!!!!!!!!!!!!!!!!!!!!!!!!!!!!!!!!!!!!!!!!!!!!!!!!!!!!!!!!!!!!!!!!!!!!!!!!!!!!!!!=#)!U!a!'!'!'!'!'!'!'!'!'!'!'!'!'!'!'!'!'!'!'!'!'!'!'!'!'!'!'!'!'!'!'!'!'!'!'!'!'!'!'!'!'!'",
"!'!'!'!'!'!'!'!'!'!'!'!'!'!'!'!'!'!'!'!'!'!'!'!'!'!'!'!'!'!'!'!'!'!'!'!'!'!'!'!'!'!'!.!m&]!B!!!!!!!!!!!!!!!!!!!!!!!!!!!!!!!!!!!!!!!!!!!!!!!!!!!!!!!!!!!!!!!!!!!!!!!!!!!!!!!!!!!!!!!!!!!!!!!!!!!!!!!8!}'(!'!N!'!'!'!'!'!'!'!'!'!'!'!'!'!'!'!'!'!'!'!'!'!'!'!'!'!'!'!'!'!'!'!'!'!'!'!'!'!'!'!'!'!'!'!'!'!'!'!'!'!'!'!'!.!N&o!F!8!!!!!!!!!!!!!!!!!!!!!!!!!!!!!!!!!!!!!!!!!!!!!!!!!!!!!!!!!!!!!!!!!!!!!!!!!!!!!!!!!!!!!!!!!!!!!!!!!!!!!!!+')$h!.!'!'!'!'!'!'!'!'!'!'!'!'!'!'!'!'!'!'!'!'!'!'!'!'!'!'!'!'!'!'!'!'!'!'!'!'!'!'!'!'!'!'",
"!'!'!'!'!'!'!'!'!'!'!'!'!'!'!'!'!'!'!'!'!'!'!'!'!'!'!'!'!'!'!'!'!'!'!'!'!'!'!'!'!'!'!'!a!e!f!#!!!!!!!!!!!!!!!!!!!!!!!!!!!!!!!!!!!!!!!!!!!!!!!!!!!!!!!!!!!!!!!!!!!!!!!!!!!!!!!!!!!!!!!!!!!!!!!!!!!!!!!G%z'*!5!'!'!'!'!'!'!'!'!'!'!'!'!'!'!'!'!'!'!'!'!'!'!'!'!'!'!'!'!'!'!'!'!'!'!'!'!'!'!'!'!'!'!'!'!'!'!'!'!'!'!'!'!-!O'+!G!!!!!!!!!!!!!!!!!!!!!!!!!!!!!!!!!!!!!!!!!!!!!!!!!!!!!!!!!!!!!!!!!!!!!!!!!!!!!!!!!!!!!!!!!!!!!!!!!!!!!!!#',%0!a!'!'!'!'!'!'!'!'!'!'!'!'!'!'!'!'!'!'!'!'!'!'!'!'!'!'!'!'!'!'!'!'!'!'!'!'!'!'!'!'!'!'!'",
"!'!'!'!'!'!'!'!'!'!'!'!'!'!'!'!'!'!'!'!'!'!'!'!'!'!'!'!'!'!'!'!'!'!'!'!'!'!'!'!'!'!'!'!.%2$e!*!!!!!!!!!!!!!!!!!!!!!!!!!!!!!!!!!!!!!!!!!!!!!!!!!!!!!!!!!!!!!!!!!!!!!!!!!!!!!!!!!!!!!!!!!!!!!!!!!!!!!!!8!W'-!-!'!'!'!'!'!'!'!'!'!'!'!'!'!'!'!'!'!'!'!'!'!'!'!'!'!'!'!'!'!'!'!'!'!'!'!'!'!'!'!'!'!'!'!'!'!'!'!'!'!'!'!'!5'.$&!8!!!!!!!!!!!!!!!!!!!!!!!!!!!!!!!!!!!!!!!!!!!!!!!!!!!!!!!!!!!!!!!!!!!!!!!!!!!!!!!!!!!!!!!!!!!!!!!!!!!!!!!*$J%a!.!'!'!'!'!'!'!'!'!'!'!'!'!'!'!'!'!'!'!'!'!'!'!'!'!'!'!'!'!'!'!'!'!'!'!'!'!'!'!'!'!'!'!'",
"!'!'!'!'!'!'!'!'!'!'!'!'!'!'!'!'!'!'!'!'!'!'!'!'!'!'!'!'!'!'!'!'!'!'!'!'!'!'!'!'!'!'!'!'!4%1!c!#!!!!!!!!!!!!!!!!!!!!!!!!!!!!!!!!!!!!!!!!!!!!!!!!!!!!!!!!!!!!!!!!!!!!!!!!!!!!!!!!!!!!!!!!!!!!!!!!!!!!!!!B$J!^!-!'!'!'!'!'!'!'!'!'!'!'!'!'!'!'!'!'!'!'!'!'!'!'!'!'!'!'!'!'!'!'!'!'!'!'!'!'!'!'!'!'!'!'!'!'!'!'!'!'!'!-#d!$!G!!!!!!!!!!!!!!!!!!!!!!!!!!!!!!!!!!!!!!!!!!!!!!!!!!!!!!!!!!!!!!!!!!!!!!!!!!!!!!!!!!!!!!!!!!!!!!!!!!!!!!!#$D#4!4!'!'!'!'!'!'!'!'!'!'!'!'!'!'!'!'!'!'!'!'!'!'!'!'!'!'!'!'!'!'!'!'!'!'!'!'!'!'!'!'!'!'!'!'",
"!'!'!'!'!'!'!'!'!'!'!'!'!'!'!'!'!'!'!'!'!'!'!'!'!'!'!'!'!'!'!'!'!'!'!'!'!'!'!'!'!'!'!'!'!-&3%]!+!!!!!!!!!!!!!!!!!!!!!!!!!!!!!!!!!!!!!!!!!!!!!!!!!!!!!!!!!!!!!!!!!!!!!!!!!!!!!!!!!!!!!!!!!!!!!!!!!!!!!!!1%c%0!r!'!'!'!'!'!'!'!'!'!'!'!'!'!'!'!'!'!'!'!'!'!'!'!'!'!'!'!'!'!'!'!'!'!'!'!'!'!'!'!'!'!'!'!'!'!'!'!'!'!'!4#w!2!#!!!!!!!!!!!!!!!!!!!!!!!!!!!!!!!!!!!!!!!!!!!!!!!!!!!!!!!!!!!!!!!!!!!!!!!!!!!!!!!!!!!!!!!!!!!!!!!!!!!!!!!+!A#.!-!'!'!'!'!'!'!'!'!'!'!'!'!'!'!'!'!'!'!'!'!'!'!'!'!'!'!'!'!'!'!'!'!'!'!'!'!'!'!'!'!'!'!'!'",
"!'!'!'!'!'!'!'!'!'!'!'!'!'!'!'!'!'!'!'!'!'!'!'!'!'!'!'!'!'!'!'!'!'!'!'!'!'!'!'!'!'!'!'!'!'!'%J!K!8!!!!!!!!!!!!!!!!!!!!!!!!!!!!!!!!!!!!!!!!!!!!!!!!!!!!!!!!!!!!!!!!!!!!!!!!!!!!!!!!!!!!!!!!!!!!!!!!!!!!!!!G&v!m!.!'!'!'!'!'!'!'!'!'!'!'!'!'!'!'!'!'!'!'!'!'!'!'!'!'!'!'!'!'!'!'!'!'!'!'!'!'!'!'!'!'!'!'!'!'!'!'!'!.#L#$!=!!!!!!!!!!!!!!!!!!!!!!!!!!!!!!!!!!!!!!!!!!!!!!!!!!!!!!!!!!!!!!!!!!!!!!!!!!!!!!!!!!!!!!!!!!!!!!!!!!!!!!!8!}#h!{!'!'!'!'!'!'!'!'!'!'!'!'!'!'!'!'!'!'!'!'!'!'!'!'!'!'!'!'!'!'!'!'!'!'!'!'!'!'!'!'!'!'!'!'!'",
"!'!'!'!'!'!'!'!'!'!'!'!'!'!'!'!'!'!'!'!'!'!'!'!'!'!'!'!'!'!'!'!'!'!'!'!'!'!'!'!'!'!'!'!'!'!4$B#l!G!!!!!!!!!!!!!!!!!!!!!!!!!!!!!!!!!!!!!!!!!!!!!!!!!!!!!!!!!!!!!!!!!!!!!!!!!!!!!!!!!!!!!!!!!!!!!!!!!!!!!!!#!t%=!a!'!'!'!'!'!'!'!'!'!'!'!'!'!'!'!'!'!'!'!'!'!'!'!'!'!'!'!'!'!'!'!'!'!'!'!'!'!'!'!'!'!'!'!'!'!'!'!'!r&i#t!=!!!!!!!!!!!!!!!!!!!!!!!!!!!!!!!!!!!!!!!!!!!!!!!!!!!!!!!!!!!!!!!!!!!!!!!!!!!!!!!!!!!!!!!!!!!!!!!!!!!!!!!G!S!R!r!'!'!'!'!'!'!'!'!'!'!'!'!'!'!'!'!'!'!'!'!'!'!'!'!'!'!'!'!'!'!'!'!'!'!'!'!'!'!'!'!'!'!'!'!'",
"!'!'!'!'!'!'!'!'!'!'!'!'!'!'!'!'!'!'!'!'!'!'!'!'!'!'!'!'!'!'!'!'!'!'!'!'!'!'!'!'!'!'!'!'!'!.$.$_!#$H!!!!!!!!!!!!!!!!!!!!!!!!!!!!!!!!!!!!!!!!!!!!!!!!!!!!!!!!!!!!!!!!!!!!!!!!!!!!!!!!!!!!!!!!!!!!!!!!!!!!!!!8'/!{!.!'!'!'!'!'!'!'!'!'!'!'!'!'!'!'!'!'!'!'!'!'!'!'!'!'!'!'!'!'!'!'!'!'!'!'!'!'!'!'!'!'!'!'!'!'!'!.!'!Q!}!!!!!!!!!!!!!!!!!!!!!!!!!!!!!!!!!!!!!!!!!!!!!!!!!!!!!!!!!!!!!!!!!!!!!!!!!!!!!!!!!!!!!!!!!!!!!!!!!!!!!!!8!#&g%3!.!'!'!'!'!'!'!'!'!'!'!'!'!'!'!'!'!'!'!'!'!'!'!'!'!'!'!'!'!'!'!'!'!'!'!'!'!'!'!'!'!'!'!'!'!'",
"!'!'!'!'!'!'!'!'!'!'!'!'!'!'!'!'!'!'!'!'!'!'!'!'!'!'!'!'!'!'!'!'!'!'!'!'!'!'!'!'!'!'!'!'!'!'!a$}&E!#!!!!!!!!!!!!!!!!!!!!!!!!!!!!!!!!!!!!!!!!!!!!!!!!!!!!!!!!!!!!!!!!!!!!!!!!!!!!!!!!!!!!!!!!!!!!!!!!!!!!!!!G%}'0!4!'!'!'!'!'!'!'!'!'!'!'!'!'!'!'!'!'!'!'!'!'!'!'!'!'!'!'!'!'!'!'!'!'!'!'!'!'!'!'!'!'!'!'!'!'!'!5'1&?!G!!!!!!!!!!!!!!!!!!!!!!!!!!!!!!!!!!!!!!!!!!!!!!!!!!!!!!!!!!!!!!!!!!!!!!!!!!!!!!!!!!!!!!!!!!!!!!!!!!!!!!!#!f'2!a!'!'!'!'!'!'!'!'!'!'!'!'!'!'!'!'!'!'!'!'!'!'!'!'!'!'!'!'!'!'!'!'!'!'!'!'!'!'!'!'!'!'!'!'!'!'",
"!'!'!'!'!'!'!'!'!'!'!'!'!'!'!'!'!'!'!'!'!'!'!'!'!'!'!'!'!'!'!'!'!'!'!'!'!'!'!'!'!'!'!'!'!'!'!.!]%F!*!!!!!!!!!!!!!!!!!!!!!!!!!!!!!!!!!!!!!!!!!!!!!!!!!!!!!!!!!!!!!!!!!!!!!!!!!!!!!!!!!!!!!!!!!!!!!!!!!!!!!!!8$^'3!-!N!'!'!'!'!'!'!'!'!'!'!'!'!'!'!'!'!'!'!'!'!'!'!'!'!'!'!'!'!'!'!'!'!'!'!'!'!'!'!'!'!'!'!'!'!'!-'4!W!8!!!!!!!!!!!!!!!!!!!!!!!!!!!!!!!!!!!!!!!!!!!!!!!!!!!!!!!!!!!!!!!!!!!!!!!!!!!!!!!!!!!!!!!!!!!!!!!!!!!!!!!*!g!^!.!'!'!'!'!'!'!'!'!'!'!'!'!'!'!'!'!'!'!'!'!'!'!'!'!'!'!'!'!'!'!'!'!'!'!'!'!'!'!'!'!'!'!'!'!'!'",
"!'!'!'!'!'!'!'!'!'!'!'!'!'!'!'!'!'!'!'!'!'!'!'!'!'!'!'!'!'!'!'!'!'!'!'!'!'!'!'!'!'!'!'!'!'!'!'!a#[$4!#!!!!!!!!!!!!!!!!!!!!!!!!!!!!!!!!!!!!!!!!!!!!!!!!!!!!!!!!!!!!!!!!!!!!!!!!!!!!!!!!!!!!!!!!!!!!!!!!!!!!!!!G$T#2!-!'!'!'!'!'!'!'!'!'!'!'!'!'!'!'!'!'!'!'!'!'!'!'!'!'!'!'!'!'!'!'!'!'!'!'!'!'!'!'!'!'!'!'!'!-!(!j!G!!!!!!!!!!!!!!!!!!!!!!!!!!!!!!!!!!!!!!!!!!!!!!!!!!!!!!!!!!!!!!!!!!!!!!!!!!!!!!!!!!!!!!!!!!!!!!!!!!!!!!!#!c#^!a!'!'!'!'!'!'!'!'!'!'!'!'!'!'!'!'!'!'!'!'!'!'!'!'!'!'!'!'!'!'!'!'!'!'!'!'!'!'!'!'!'!'!'!'!'!'!'",
"!'!'!'!'!'!'!'!'!'!'!'!'!'!'!'!'!'!'!'!'!'!'!'!'!'!'!'!'!'!'!'!'!'!'!'!'!'!'!'!'!'!'!'!'!'!'!'%K#a!X!+!!!!!!!!!!!!!!!!!!!!!!!!!!!!!!!!!!!!!!!!!!!!!!!!!!!!!!!!!!!!!!!!!!!!!!!!!!!!!!!!!!!!!!!!!!!!!!!!!!!!!!!1#e%[!4!'!'!'!'!'!'!'!'!'!'!'!'!'!'!'!'!'!'!'!'!'!'!'!'!'!'!'!'!'!'!'!'!'!'!'!'!'!'!'!'!'!'!'!'!5#z%c!#!!!!!!!!!!!!!!!!!!!!!!!!!!!!!!!!!!!!!!!!!!!!!!!!!!!!!!!!!!!!!!!!!!!!!!!!!!!!!!!!!!!!!!!!!!!!!!!!!!!!!!!+&6!O!.!'!'!'!'!'!'!'!'!'!'!'!'!'!'!'!'!'!'!'!'!'!'!'!'!'!'!'!'!'!'!'!'!'!'!'!'!'!'!'!'!'!'!'!'!'!'!'",
"!'!'!'!'!'!'!'!'!'!'!'!'!'!'!'!'!'!'!'!'!'!'!'!'!'!'!'!'!'!'!'!'!'!'!'!'!'!'!'!'!'!'!'!'!'!'!'!'!.!:!9!8!!!!!!!!!!!!!!!!!!!!!!!!!!!!!!!!!!!!!!!!!!!!!!!!!!!!!!!!!!!!!!!!!!!!!!!!!!!!!!!!!!!!!!!!!!!!!!!!!!!!!!!B![!m!.!'!'!'!'!'!'!'!'!'!'!'!'!'!'!'!'!'!'!'!'!'!'!'!'!'!'!'!'!'!'!'!'!'!'!'!'!'!'!'!'!'!'!.#L%,!B!!!!!!!!!!!!!!!!!!!!!!!!!!!!!!!!!!!!!!!!!!!!!!!!!!!!!!!!!!!!!!!!!!!!!!!!!!!!!!!!!!!!!!!!!!!!!!!!!!!!!!!8!F$W!.!'!'!'!'!'!'!'!'!'!'!'!'!'!'!'!'!'!'!'!'!'!'!'!'!'!'!'!'!'!'!'!'!'!'!'!'!'!'!'!'!'!'!'!'!'!'!'!'",
"!'!'!'!'!'!'!'!'!'!'!'!'!'!'!'!'!'!'!'!'!'!'!'!'!'!'!'!'!'!'!'!'!'!'!'!'!'!'!'!'!'!'!'!'!'!'!'!'!-$;'5!G!!!!!!!!!!!!!!!!!!!!!!!!!!!!!!!!!!!!!!!!!!!!!!!!!!!!!!!!!!!!!!!!!!!!!!!!!!!!!!!!!!!!!!!!!!!!!!!!!!!!!!!##)&)!a!'!'!'!'!'!'!'!'!'!'!'!'!'!'!'!'!'!'!'!'!'!'!'!'!'!'!'!'!'!'!'!'!'!'!'!'!'!'!'!'!'!'!r&1$7!=!!!!!!!!!!!!!!!!!!!!!!!!!!!!!!!!!!!!!!!!!!!!!!!!!!!!!!!!!!!!!!!!!!!!!!!!!!!!!!!!!!!!!!!!!!!!!!!!!!!!!!!G%!!I!5!'!'!'!'!'!'!'!'!'!'!'!'!'!'!'!'!'!'!'!'!'!'!'!'!'!'!'!'!'!'!'!'!'!'!'!'!'!'!'!'!'!'!'!'!'!'!'!'",
"!'!'!'!'!'!'!'!'!'!'!'!'!'!'!'!'!'!'!'!'!'!'!'!'!'!'!'!'!'!'!'!'!'!'!'!'!'!'!'!'!'!'!'!'!'!'!'!'!.$.!M#u!!!!!!!!!!!!!!!!!!!!!!!!!!!!!!!!!!!!!!!!!!!!!!!!!!!!!!!!!!!!!!!!!!!!!!!!!!!!!!!!!!!!!!!!!!!!!!!!!!!!!!!!!#'%!?!.!'!'!'!'!'!'!'!'!'!'!'!'!'!'!'!'!'!'!'!'!'!'!'!'!'!'!'!'!'!'!'!'!'!'!'!'!'!'!'!'!.!'!|!8!!!!!!!!!!!!!!!!!!!!!!!!!!!!!!!!!!!!!!!!!!!!!!!!!!!!!!!!!!!!!!!!!!!!!!!!!!!!!!!!!!!!!!!!!!!!!!!!!!!!!!$H$H&j!v!.!'!'!'!'!'!'!'!'!'!'!'!'!'!'!'!'!'!'!'!'!'!'!'!'!'!'!'!'!'!'!'!'!'!'!'!'!'!'!'!'!'!'!'!'!'!'!'!'",
"!'!'!'!'!'!'!'!'!'!'!'!'!'!'!'!'!'!'!'!'!'!'!'!'!'!'!'!'!'!'!'!'!'!'!'!'!'!'!'!'!'!'!'!'!'!'!'!'!'!r'6$-!#!!!!!!!!!!!!!!!!!!!!!!!!!!!!!!!!!!!!!!!!!!!!!!!!!!!!!!!!!!!!!!!!!!!!!!!!!!!!!!!!!!!!!!!!!!!!!!!!!!!!!!!##N&Q!4!'!'!'!'!'!'!'!'!'!'!'!'!'!'!'!'!'!'!'!'!'!'!'!'!'!'!'!'!'!'!'!'!'!'!'!'!'!'!'!'!4'7%C!#!!!!!!!!!!!!!!!!!!!!!!!!!!!!!!!!!!!!!!!!!!!!!!!!!!!!!!!!!!!!!!!!!!!!!!!!!!!!!!!!!!!!!!!!!!!!!!!!!!!!!!!#%V#(!r!'!'!'!'!'!'!'!'!'!'!'!'!'!'!'!'!'!'!'!'!'!'!'!'!'!'!'!'!'!'!'!'!'!'!'!'!'!'!'!'!'!'!'!'!'!'!'!'!'",
"!'!'!'!'!'!'!'!'!'!'!'!'!'!'!'!'!'!'!'!'!'!'!'!'!'!'!'!'!'!'!'!'!'!'!'!'!'!'!'!'!'!'!'!'!'!'!'!'!'!.#d$|!G!!!!!!!!!!!!!!!!!!!!!!!!!!!!!!!!!!!!!!!!!!!!!!!!!!!!!!!!!!!!!!!!!!!!!!!!!!!!!!!!!!!!!!!!!!!!!!!!!!!!!!!8!F'8#'!.!'!'!'!'!'!'!'!'!'!'!'!'!'!'!'!'!'!'!'!'!'!'!'!'!'!'!'!'!'!'!'!'!'!'!'!'!'!'!.!&'9!9!8!!!!!!!!!!!!!!!!!!!!!!!!!!!!!!!!!!!!!!!!!!!!!!!!!!!!!!!!!!!!!!!!!!!!!!!!!!!!!!!!!!!!!!!!!!!!!!!!!!!!!!!B$g#1!.!'!'!'!'!'!'!'!'!'!'!'!'!'!'!'!'!'!'!'!'!'!'!'!'!'!'!'!'!'!'!'!'!'!'!'!'!'!'!'!'!'!'!'!'!'!'!'!'!'",
"!'!'!'!'!'!'!'!'!'!'!'!'!'!'!'!'!'!'!'!'!'!'!'!'!'!'!'!'!'!'!'!'!'!'!'!'!'!'!'!'!'!'!'!'!'!'!'!'!'!'!a&5#e!#!!!!!!!!!!!!!!!!!!!!!!!!!!!!!!!!!!!!!!!!!!!!!!!!!!!!!!!!!!!!!!!!!!!!!!!!!!!!!!!!!!!!!!!!!!!!!!!!!!!!!!!G!P!l!-!'!'!'!'!'!'!'!'!'!'!'!'!'!'!'!'!'!'!'!'!'!'!'!'!'!'!'!'!'!'!'!'!'!'!'!'!'!'!-#a$#!#!!!!!!!!!!!!!!!!!!!!!!!!!!!!!!!!!!!!!!!!!!!!!!!!!!!!!!!!!!!!!!!!!!!!!!!!!!!!!!!!!!!!!!!!!!!!!!!!!!!!!!!#$&%H!a!'!'!'!'!'!'!'!'!'!'!'!'!'!'!'!'!'!'!'!'!'!'!'!'!'!'!'!'!'!'!'!'!'!'!'!'!'!'!'!'!'!'!'!'!'!'!'!'!'!'",
"!'!'!'!'!'!'!'!'!'!'!'!'!'!'!'!'!'!'!'!'!'!'!'!'!'!'!'!'!'!'!'!'!'!'!'!'!'!'!'!'!'!'!'!'!'!'!'!'!'!'!.$c%/':!!!!!!!!!!!!!!!!!!!!!!!!!!!!!!!!!!!!!!!!!!!!!!!!!!!!!!!!!!!!!!!!!!!!!!!!!!!!!!!!!!!!!!!!!!!!!!!!!!!!!!!8#]';!5!'!'!'!'!'!'!'!'!'!'!'!'!'!'!'!'!'!'!'!'!'!'!'!'!'!'!'!'!'!'!'!'!'!'!'!'!'!'!5'<$4!8!!!!!!!!!!!!!!!!!!!!!!!!!!!!!!!!!!!!!!!!!!!!!!!!!!!!!!!!!!!!!!!!!!!!!!!!!!!!!!!!!!!!!!!!!!!!!!!!!!!!!!':!k$$!.!'!'!'!'!'!'!'!'!'!'!'!'!'!'!'!'!'!'!'!'!'!'!'!'!'!'!'!'!'!'!'!'!'!'!'!'!'!'!'!'!'!'!'!'!'!'!'!'!'!'",
"!'!'!'!'!'!'!'!'!'!'!'!'!'!'!'!'!'!'!'!'!'!'!'!'!'!'!'!'!'!'!'!'!'!'!'!'!'!'!'!'!'!'!'!'!'!'!'!'!'!'!'!4%s!7!#!!!!!!!!!!!!!!!!!!!!!!!!!!!!!!!!!!!!!!!!!!!!!!!!!!!!!!!!!!!!!!!!!!!!!!!!!!!!!!!!!!!!!!!!!!!!!!!!!!!!!!!G%y!/!&!'!'!'!'!'!'!'!'!'!'!'!'!'!'!'!'!'!'!'!'!'!'!'!'!'!'!'!'!'!'!'!'!'!'!'!'!.#p#V!G!!!!!!!!!!!!!!!!!!!!!!!!!!!!!!!!!!!!!!!!!!!!!!!!!!!!!!!!!!!!!!!!!!!!!!!!!!!!!!!!!!!!!!!!!!!!!!!!!!!!!!!8!9#~!4!'!'!'!'!'!'!'!'!'!'!'!'!'!'!'!'!'!'!'!'!'!'!'!'!'!'!'!'!'!'!'!'!'!'!'!'!'!'!'!'!'!'!'!'!'!'!'!'!'!'!'",
"!'!'!'!'!'!'!'!'!'!'!'!'!'!'!'!'!'!'!'!'!'!'!'!'!'!'!'!'!'!'!'!'!'!'!'!'!'!'!'!'!'!'!'!'!'!'!'!'!'!'!'!-$m!C!+!!!!!!!!!!!!!!!!!!!!!!!!!!!!!!!!!!!!!!!!!!!!!!!!!!!!!!!!!!!!!!!!!!!!!!!!!!!!!!!!!!!!!!!!!!!!!!!!!!!!!!!#%V$y!r!'!'!'!'!'!'!'!'!'!'!'!'!'!'!'!'!'!'!'!'!'!'!'!'!'!'!'!'!'!'!'!'!'!'!'!'!4&)%)!G!!!!!!!!!!!!!!!!!!!!!!!!!!!!!!!!!!!!!!!!!!!!!!!!!!!!!!!!!!!!!!!!!!!!!!!!!!!!!!!!!!!!!!!!!!!!!!!!!!!!!!!B%6$;!-!'!'!'!'!'!'!'!'!'!'!'!'!'!'!'!'!'!'!'!'!'!'!'!'!'!'!'!'!'!'!'!'!'!'!'!'!'!'!'!'!'!'!'!'!'!'!'!'!'!'!'",
"!'!'!'!'!'!'!'!'!'!'!'!'!'!'!'!'!'!'!'!'!'!'!'!'!'!'!'!'!'!'!'!'!'!'!'!'!'!'!'!'!'!'!'!'!'!'!'!'!'!'!'!.!{$(!}!8!!!!!!!!!!!!!!!!!!!!!!!!!!!!!!!!!!!!!!!!!!!!!!!!!!!!!!!!!!!!!!!!!!!!!!!!!!!!!!!!!!!!!!!!!!!!!!!!!!!!!!!=%>#F!.!'!'!'!'!'!'!'!'!'!'!'!'!'!'!'!'!'!'!'!'!'!'!'!'!'!'!'!'!'!'!'!'!'!'!.!'#v&G!!!!!!!!!!!!!!!!!!!!!!!!!!!!!!!!!!!!!!!!!!!!!!!!!!!!!!!!!!!!!!!!!!!!!!!!!!!!!!!!!!!!!!!!!!!!!!!!!!!!!!!8!!&%!?!.!'!'!'!'!'!'!'!'!'!'!'!'!'!'!'!'!'!'!'!'!'!'!'!'!'!'!'!'!'!'!'!'!'!'!'!'!'!'!'!'!'!'!'!'!'!'!'!'!'!'!'",
"!'!'!'!'!'!'!'!'!'!'!'!'!'!'!'!'!'!'!'!'!'!'!'!'!'!'!'!'!'!'!'!'!'!'!'!'!'!'!'!'!'!'!'!'!'!'!'!'!'!'!'!'!4!R$O!G!!!!!!!!!!!!!!!!!!!!!!!!!!!!!!!!!!!!!!!!!!!!!!!!!!!!!!!!!!!!!!!!!!!!!!!!!!!!!!!!!!!!!!!!!!!!!!!!!!!!!!!#!H%v!a!'!'!'!'!'!'!'!'!'!'!'!'!'!'!'!'!'!'!'!'!'!'!'!'!'!'!'!'!'!'!'!'!'!'!r&9$V!G!!!!!!!!!!!!!!!!!!!!!!!!!!!!!!!!!!!!!!!!!!!!!!!!!!!!!!!!!!!!!!!!!!!!!!!!!!!!!!!!!!!!!!!!!!!!!!!!!!!!!!!G#)'=!4!'!'!'!'!'!'!'!'!'!'!'!'!'!'!'!'!'!'!'!'!'!'!'!'!'!'!'!'!'!'!'!'!'!'!'!'!'!'!'!'!'!'!'!'!'!'!'!'!'!'!'!'",
"!'!'!'!'!'!'!'!'!'!'!'!'!'!'!'!'!'!'!'!'!'!'!'!'!'!'!'!'!'!'!'!'!'!'!'!'!'!'!'!'!'!'!'!'!'!'!'!'!'!'!'!'!.$h%e!1!8!!!!!!!!!!!!!!!!!!!!!!!!!!!!!!!!!!!!!!!!!!!!!!!!!!!!!!!!!!!!!!!!!!!!!!!!!!!!!!!!!!!!!!!!!!!!!!!!!!!!!!!!'>!'!.!'!'!'!'!'!'!'!'!'!'!'!'!'!'!'!'!'!'!'!'!'!'!'!'!'!'!'!'!'!'!'!'!.!.'?!}!!!!!!!!!!!!!!!!!!!!!!!!!!!!!!!!!!!!!!!!!!!!!!!!!!!!!!!!!!!!!!!!!!!!!!!!!!!!!!!!!!!!!!!!!!!!!!!!!!!!!!#u!#%,!/!.!'!'!'!'!'!'!'!'!'!'!'!'!'!'!'!'!'!'!'!'!'!'!'!'!'!'!'!'!'!'!'!'!'!'!'!'!'!'!'!'!'!'!'!'!'!'!'!'!'!'!'!'",
"!'!'!'!'!'!'!'!'!'!'!'!'!'!'!'!'!'!'!'!'!'!'!'!'!'!'!'!'!'!'!'!'!'!'!'!'!'!'!'!'!'!'!'!'!'!'!'!'!'!'!'!'!'!a%t!o!#!!!!!!!!!!!!!!!!!!!!!!!!!!!!!!!!!!!!!!!!!!!!!!!!!!!!!!!!!!!!!!!!!!!!!!!!!!!!!!!!!!!!!!!!!!!!!!!!!!!!!!!G&8'@!4!'!'!'!'!'!'!'!'!'!'!'!'!'!'!'!'!'!'!'!'!'!'!'!'!'!'!'!'!'!'!'!'!5'A'B!G!!!!!!!!!!!!!!!!!!!!!!!!!!!!!!!!!!!!!!!!!!!!!!!!!!!!!!!!!!!!!!!!!!!!!!!!!!!!!!!!!!!!!!!!!!!!!!!!!!!!!!!#$4%0!r!'!'!'!'!'!'!'!'!'!'!'!'!'!'!'!'!'!'!'!'!'!'!'!'!'!'!'!'!'!'!'!'!'!'!'!'!'!'!'!'!'!'!'!'!'!'!'!'!'!'!'!'!'",
"!'!'!'!'!'!'!'!'!'!'!'!'!'!'!'!'!'!'!'!'!'!'!'!'!'!'!'!'!'!'!'!'!'!'!'!'!'!'!'!'!'!'!'!'!'!'!'!'!'!'!'!'!'!.#2%m!+!!!!!!!!!!!!!!!!!!!!!!!!!!!!!!!!!!!!!!!!!!!!!!!!!!!!!!!!!!!!!!!!!!!!!!!!!!!!!!!!!!!!!!!!!!!!!!!!!!!!!!!8!7'C!-!'!'!'!'!'!'!'!'!'!'!'!'!'!'!'!'!'!'!'!'!'!'!'!'!'!'!'!'!'!'!'!'!-'D!c!8!!!!!!!!!!!!!!!!!!!!!!!!!!!!!!!!!!!!!!!!!!!!!!!!!!!!!!!!!!!!!!!!!!!!!!!!!!!!!!!!!!!!!!!!!!!!!!!!!!!!!!!+$w#9!&!'!'!'!'!'!'!'!'!'!'!'!'!'!'!'!'!'!'!'!'!'!'!'!'!'!'!'!'!'!'!'!'!'!'!'!'!'!'!'!'!'!'!'!'!'!'!'!'!'!'!'!'!'",
"!'!'!'!'!'!'!'!'!'!'!'!'!'!'!'!'!'!'!'!'!'!'!'!'!'!'!'!'!'!'!'!'!'!'!'!'!'!'!'!'!'!'!'!'!'!'!'!'!'!'!'!'!'!'!4!V$j!1!!!!!!!!!!!!!!!!!!!!!!!!!!!!!!!!!!!!!!!!!!!!!!!!!!!!!!!!!!!!!!!!!!!!!!!!!!!!!!!!!!!!!!!!!!!!!!!!!!!!!!!G!j%2!-!'!'!'!'!'!'!'!'!'!'!'!'!'!'!'!'!'!'!'!'!'!'!'!'!'!'!'!'!'!'!.!m#0!=!!!!!!!!!!!!!!!!!!!!!!!!!!!!!!!!!!!!!!!!!!!!!!!!!!!!!!!!!!!!!!!!!!!!!!!!!!!!!!!!!!!!!!!!!!!!!!!!!!!!!!!8$^%s!4!'!'!'!'!'!'!'!'!'!'!'!'!'!'!'!'!'!'!'!'!'!'!'!'!'!'!'!'!'!'!'!'!'!'!'!'!'!'!'!'!'!'!'!'!'!'!'!'!'!'!'!'!'!'",
"!'!'!'!'!'!'!'!'!'!'!'!'!'!'!'!'!'!'!'!'!'!'!'!'!'!'!'!'!'!'!'!'!'!'!'!'!'!'!'!'!'!'!'!'!'!'!'!'!'!'!'!'!'!'!-$@#:!+!!!!!!!!!!!!!!!!!!!!!!!!!!!!!!!!!!!!!!!!!!!!!!!!!!!!!!!!!!!!!!!!!!!!!!!!!!!!!!!!!!!!!!!!!!!!!!!!!!!!!!!#!f#=!4!'!'!'!'!'!'!'!'!'!'!'!'!'!'!'!'!'!'!'!'!'!'!'!'!'!'!'!'!'!'!5%W!T!=!!!!!!!!!!!!!!!!!!!!!!!!!!!!!!!!!!!!!!!!!!!!!!!!!!!!!!!!!!!!!!!!!!!!!!!!!!!!!!!!!!!!!!!!!!!!!!!!!!!!!!!+%.#%!-!'!'!'!'!'!'!'!'!'!'!'!'!'!'!'!'!'!'!'!'!'!'!'!'!'!'!'!'!'!'!'!'!'!'!'!'!'!'!'!'!'!'!'!'!'!'!'!'!'!'!'!'!'!'",
"!'!'!'!'!'!'!'!'!'!'!'!'!'!'!'!'!'!'!'!'!'!'!'!'!'!'!'!'!'!'!'!'!'!'!'!'!'!'!'!'!'!'!'!'!'!'!'!'!'!'!'!'!'!'!'!.%%#&!8!!!!!!!!!!!!!!!!!!!!!!!!!!!!!!!!!!!!!!!!!!!!!!!!!!!!!!!!!!!!!!!!!!!!!!!!!!!!!!!!!!!!!!!!!!!!!!!!!!!!!!!#&v!?!.!'!'!'!'!'!'!'!'!'!'!'!'!'!'!'!'!'!'!'!'!'!'!'!'!'!'!'!'!.!{$v!8!!!!!!!!!!!!!!!!!!!!!!!!!!!!!!!!!!!!!!!!!!!!!!!!!!!!!!!!!!!!!!!!!!!!!!!!!!!!!!!!!!!!!!!!!!!!!!!!!!!!!!!8!}!J!N!'!'!'!'!'!'!'!'!'!'!'!'!'!'!'!'!'!'!'!'!'!'!'!'!'!'!'!'!'!'!'!'!'!'!'!'!'!'!'!'!'!'!'!'!'!'!'!'!'!'!'!'!'!'!'",
"!'!'!'!'!'!'!'!'!'!'!'!'!'!'!'!'!'!'!'!'!'!'!'!'!'!'!'!'!'!'!'!'!'!'!'!'!'!'!'!'!'!'!'!'!'!'!'!'!'!'!'!'!'!'!'!5#!%!!G!!!!!!!!!!!!!!!!!!!!!!!!!!!!!!!!!!!!!!!!!!!!!!!!!!!!!!!!!!!!!!!!!!!!!!!!!!!!!!!!!!!!!!!!!!!!!!!!!!!!!!!#$2'E!4!'!'!'!'!'!'!'!'!'!'!'!'!'!'!'!'!'!'!'!'!'!'!'!'!'!'!'!'!4&.$o!G!!!!!!!!!!!!!!!!!!!!!!!!!!!!!!!!!!!!!!!!!!!!!!!!!!!!!!!!!!!!!!!!!!!!!!!!!!!!!!!!!!!!!!!!!!!!!!!!!!!!!!!G%w!R!4!'!'!'!'!'!'!'!'!'!'!'!'!'!'!'!'!'!'!'!'!'!'!'!'!'!'!'!'!'!'!'!'!'!'!'!'!'!'!'!'!'!'!'!'!'!'!'!'!'!'!'!'!'!'!'",
"!'!'!'!'!'!'!'!'!'!'!'!'!'!'!'!'!'!'!'!'!'!'!'!'!'!'!'!'!'!'!'!'!'!'!'!'!'!'!'!'!'!'!'!'!'!'!'!'!'!'!'!'!'!'!'!.#p'F!8!8!!!!!!!!!!!!!!!!!!!!!!!!!!!!!!!!!!!!!!!!!!!!!!!!!!!!!!!!!!!!!!!!!!!!!!!!!!!!!!!!!!!!!!!!!!!!!!!!!!!!!!!8#O!'!.!'!'!'!'!'!'!'!'!'!'!'!'!'!'!'!'!'!'!'!'!'!'!'!'!'!'!N!.'G$G!!!!!!!!!!!!!!!!!!!!!!!!!!!!!!!!!!!!!!!!!!!!!!!!!!!!!!!!!!!!!!!!!!!!!!!!!!!!!!!!!!!!!!!!!!!!!!!!!!!!!!!8!#'H$h!.!'!'!'!'!'!'!'!'!'!'!'!'!'!'!'!'!'!'!'!'!'!'!'!'!'!'!'!'!'!'!'!'!'!'!'!'!'!'!'!'!'!'!'!'!'!'!'!'!'!'!'!'!'!'!'",
"!'!'!'!'!'!'!'!'!'!'!'!'!'!'!'!'!'!'!'!'!'!'!'!'!'!'!'!'!'!'!'!'!'!'!'!'!'!'!'!'!'!'!'!'!'!'!'!'!'!'!'!'!'!'!'!'!4%i!f!#!!!!!!!!!!!!!!!!!!!!!!!!!!!!!!!!!!!!!!!!!!!!!!!!!!!!!!!!!!!!!!!!!!!!!!!!!!!!!!!!!!!!!!!!!!!!!!!!!!!!!!!#%C&A!4!'!'!'!'!'!'!'!'!'!'!'!'!'!'!'!'!'!'!'!'!'!'!'!'!'!'!4'@%5!=!!!!!!!!!!!!!!!!!!!!!!!!!!!!!!!!!!!!!!!!!!!!!!!!!!!!!!!!!!!!!!!!!!!!!!!!!!!!!!!!!!!!!!!!!!!!!!!!!!!!!!!##e#R!4!'!'!'!'!'!'!'!'!'!'!'!'!'!'!'!'!'!'!'!'!'!'!'!'!'!'!'!'!'!'!'!'!'!'!'!'!'!'!'!'!'!'!'!'!'!'!'!'!'!'!'!'!'!'!'!'",
"!'!'!'!'!'!'!'!'!'!'!'!'!'!'!'!'!'!'!'!'!'!'!'!'!'!'!'!'!'!'!'!'!'!'!'!'!'!'!'!'!'!'!'!'!'!'!'!'!'!'!'!'!'!'!'!'!&!^&(!G!!!!!!!!!!!!!!!!!!!!!!!!!!!!!!!!!!!!!!!!!!!!!!!!!!!!!!!!!!!!!!!!!!!!!!!!!!!!!!!!!!!!!!!!!!!!!!!!!!!!!!!8#S'3!&!'!'!'!'!'!'!'!'!'!'!'!'!'!'!'!'!'!'!'!'!'!'!'!'!'!'!-'I$^!8!!!!!!!!!!!!!!!!!!!!!!!!!!!!!!!!!!!!!!!!!!!!!!!!!!!!!!!!!!!!!!!!!!!!!!!!!!!!!!!!!!!!!!!!!!!!!!!!!!!!!!!G!$!h!&!'!'!'!'!'!'!'!'!'!'!'!'!'!'!'!'!'!'!'!'!'!'!'!'!'!'!'!'!'!'!'!'!'!'!'!'!'!'!'!'!'!'!'!'!'!'!'!'!'!'!'!'!'!'!'!'",
"!'!'!'!'!'!'!'!'!'!'!'!'!'!'!'!'!'!'!'!'!'!'!'!'!'!'!'!'!'!'!'!'!'!'!'!'!'!'!'!'!'!'!'!'!'!'!'!'!'!'!'!'!'!'!'!'!'!r&'!c!#!!!!!!!!!!!!!!!!!!!!!!!!!!!!!!!!!!!!!!!!!!!!!!!!!!!!!!!!!!!!!!!!!!!!!!!!!!!!!!!!!!!!!!!!!!!!!!!!!!!!!!!G&&$c!-!'!'!'!'!'!'!'!'!'!'!'!'!'!'!'!'!'!'!'!'!'!'!'!'!-!h&=!G!!!!!!!!!!!!!!!!!!!!!!!!!!!!!!!!!!!!!!!!!!!!!!!!!!!!!!!!!!!!!!!!!!!!!!!!!!!!!!!!!!!!!!!!!!!!!!!!!!!!!!!1!7!`!r!'!'!'!'!'!'!'!'!'!'!'!'!'!'!'!'!'!'!'!'!'!'!'!'!'!'!'!'!'!'!'!'!'!'!'!'!'!'!'!'!'!'!'!'!'!'!'!'!'!'!'!'!'!'!'!'!'",
"!'!'!'!'!'!'!'!'!'!'!'!'!'!'!'!'!'!'!'!'!'!'!'!'!'!'!'!'!'!'!'!'!'!'!'!'!'!'!'!'!'!'!'!'!'!'!'!'!'!'!'!'!'!'!'!'!'!&!O&&!*!!!!!!!!!!!!!!!!!!!!!!!!!!!!!!!!!!!!!!!!!!!!!!!!!!!!!!!!!!!!!!!!!!!!!!!!!!!!!!!!!!!!!!!!!!!!!!!!!!!!!!!##y$5!4!'!'!'!'!'!'!'!'!'!'!'!'!'!'!'!'!'!'!'!'!'!'!'!'!4#w!f!#!!!!!!!!!!!!!!!!!!!!!!!!!!!!!!!!!!!!!!!!!!!!!!!!!!!!!!!!!!!!!!!!!!!!!!!!!!!!!!!!!!!!!!!!!!!!!!!!!!!!!!!*#X#c!-!'!'!'!'!'!'!'!'!'!'!'!'!'!'!'!'!'!'!'!'!'!'!'!'!'!'!'!'!'!'!'!'!'!'!'!'!'!'!'!'!'!'!'!'!'!'!'!'!'!'!'!'!'!'!'!'!'",
"!'!'!'!'!'!'!'!'!'!'!'!'!'!'!'!'!'!'!'!'!'!'!'!'!'!'!'!'!'!'!'!'!'!'!'!'!'!'!'!'!'!'!'!'!'!'!'!'!'!'!'!'!'!'!'!'!'!'!4%J!F!8!!!!!!!!!!!!!!!!!!!!!!!!!!!!!!!!!!!!!!!!!!!!!!!!!!!!!!!!!!!!!!!!!!!!!!!!!!!!!!!!!!!!!!!!!!!!!!!!!!!!!!!#![#p!.!'!'!'!'!'!'!'!'!'!'!'!'!'!'!'!'!'!'!'!'!'!'!.!?%,!8!!!!!!!!!!!!!!!!!!!!!!!!!!!!!!!!!!!!!!!!!!!!!!!!!!!!!!!!!!!!!!!!!!!!!!!!!!!!!!!!!!!!!!!!!!!!!!!!!!!!!!!8&f%%!4!'!'!'!'!'!'!'!'!'!'!'!'!'!'!'!'!'!'!'!'!'!'!'!'!'!'!'!'!'!'!'!'!'!'!'!'!'!'!'!'!'!'!'!'!'!'!'!'!'!'!'!'!'!'!'!'!'!'",
"!'!'!'!'!'!'!'!'!'!'!'!'!'!'!'!'!'!'!'!'!'!'!'!'!'!'!'!'!'!'!'!'!'!'!'!'!'!'!'!'!'!'!'!'!'!'!'!'!'!'!'!'!'!'!'!'!'!'!-!I'J!B!!!!!!!!!!!!!!!!!!!!!!!!!!!!!!!!!!!!!!!!!!!!!!!!!!!!!!!!!!!!!!!!!!!!!!!!!!!!!!!!!!!!!!!!!!!!!!!!!!!!!!!=%)'K!5!'!'!'!'!'!'!'!'!'!'!'!'!'!'!'!'!'!'!'!'!'!'!4!s!<!G!!!!!!!!!!!!!!!!!!!!!!!!!!!!!!!!!!!!!!!!!!!!!!!!!!!!!!!!!!!!!!!!!!!!!!!!!!!!!!!!!!!!!!!!!!!!!!!!!!!!!!!G'L$t!-!'!'!'!'!'!'!'!'!'!'!'!'!'!'!'!'!'!'!'!'!'!'!'!'!'!'!'!'!'!'!'!'!'!'!'!'!'!'!'!'!'!'!'!'!'!'!'!'!'!'!'!'!'!'!'!'!'!'",
"!'!'!'!'!'!'!'!'!'!'!'!'!'!'!'!'!'!'!'!'!'!'!'!'!'!'!'!'!'!'!'!'!'!'!'!'!'!'!'!'!'!'!'!'!'!'!'!'!'!'!'!'!'!'!'!'!'!'!.!?%$!!!8!!!!!!!!!!!!!!!!!!!!!!!!!!!!!!!!!!!!!!!!!!!!!!!!!!!!!!!!!!!!!!!!!!!!!!!!!!!!!!!!!!!!!!!!!!!!!!!!!!!!!!!8#v!'!.!'!'!'!'!'!'!'!'!'!'!'!'!'!'!'!'!'!'!'!'!'!&'M!!!!!!!!!!!!!!!!!!!!!!!!!!!!!!!!!!!!!!!!!!!!!!!!!!!!!!!!!!!!!!!!!!!!!!!!!!!!!!!!!!!!!!!!!!!!!!!!!!!!!!!!!8!8'N$.!.!'!'!'!'!'!'!'!'!'!'!'!'!'!'!'!'!'!'!'!'!'!'!'!'!'!'!'!'!'!'!'!'!'!'!'!'!'!'!'!'!'!'!'!'!'!'!'!'!'!'!'!'!'!'!'!'!'!'",
"!'!'!'!'!'!'!'!'!'!'!'!'!'!'!'!'!'!'!'!'!'!'!'!'!'!'!'!'!'!'!'!'!'!'!'!'!'!'!'!'!'!'!'!'!'!'!'!'!'!'!'!'!'!'!'!'!'!'!'!4'O!2!#!!!!!!!!!!!!!!!!!!!!!!!!!!!!!!!!!!!!!!!!!!!!!!!!!!!!!!!!!!!!!!!!!!!!!!!!!!!!!!!!!!!!!!!!!!!!!!!!!!!!!!!G$V&Q!4!'!'!'!'!'!'!'!'!'!'!'!'!'!'!'!'!'!'!'!'!4'7%9!G!!!!!!!!!!!!!!!!!!!!!!!!!!!!!!!!!!!!!!!!!!!!!!!!!!!!!!!!!!!!!!!!!!!!!!!!!!!!!!!!!!!!!!!!!!!!!!!!!!!!!!!##x&L!5!'!'!'!'!'!'!'!'!'!'!'!'!'!'!'!'!'!'!'!'!'!'!'!'!'!'!'!'!'!'!'!'!'!'!'!'!'!'!'!'!'!'!'!'!'!'!'!'!'!'!'!'!'!'!'!'!'!'!'",
"!'!'!'!'!'!'!'!'!'!'!'!'!'!'!'!'!'!'!'!'!'!'!'!'!'!'!'!'!'!'!'!'!'!'!'!'!'!'!'!'!'!'!'!'!'!'!'!'!'!'!'!'!'!'!'!'!'!'!'!.!]$g!#!!!!!!!!!!!!!!!!!!!!!!!!!!!!!!!!!!!!!!!!!!!!!!!!!!!!!!!!!!!!!!!!!!!!!!!!!!!!!!!!!!!!!!!!!!!!!!!!!!!!!!!!!K&o!.!'!'!'!'!'!'!'!'!'!'!'!'!'!'!'!'!'!'!'!'!-'P!F!8!!!!!!!!!!!!!!!!!!!!!!!!!!!!!!!!!!!!!!!!!!!!!!!!!!!!!!!!!!!!!!!!!!!!!!!!!!!!!!!!!!!!!!!!!!!!!!!!!!!!!!!#![!(!.!'!'!'!'!'!'!'!'!'!'!'!'!'!'!'!'!'!'!'!'!'!'!'!'!'!'!'!'!'!'!'!'!'!'!'!'!'!'!'!'!'!'!'!'!'!'!'!'!'!'!'!'!'!'!'!'!'!'!'",
"!'!'!'!'!'!'!'!'!'!'!'!'!'!'!'!'!'!'!'!'!'!'!'!'!'!'!'!'!'!'!'!'!'!'!'!'!'!'!'!'!'!'!'!'!'!'!'!'!'!'!'!'!'!'!'!'!'!'!'!'!r#z#]!#!!!!!!!!!!!!!!!!!!!!!!!!!!!!!!!!!!!!!!!!!!!!!!!!!!!!!!!!!!!!!!!!!!!!!!!!!!!!!!!!!!!!!!!!!!!!!!!!!!!!!!!='Q&n!-!'!'!'!'!'!'!'!'!'!'!'!'!'!'!'!'!'!'!-#W#3!G!!!!!!!!!!!!!!!!!!!!!!!!!!!!!!!!!!!!!!!!!!!!!!!!!!!!!!!!!!!!!!!!!!!!!!!!!!!!!!!!!!!!!!!!!!!!!!!!!!!!!!!1$D!d!r!'!'!'!'!'!'!'!'!'!'!'!'!'!'!'!'!'!'!'!'!'!'!'!'!'!'!'!'!'!'!'!'!'!'!'!'!'!'!'!'!'!'!'!'!'!'!'!'!'!'!'!'!'!'!'!'!'!'!'!'",
"!'!'!'!'!'!'!'!'!'!'!'!'!'!'!'!'!'!'!'!'!'!'!'!'!'!'!'!'!'!'!'!'!'!'!'!'!'!'!'!'!'!'!'!'!'!'!'!'!'!'!'!'!'!'!'!'!'!'!'!'!-!i&=!+!!!!!!!!!!!!!!!!!!!!!!!!!!!!!!!!!!!!!!!!!!!!!!!!!!!!!!!!!!!!!!!!!!!!!!!!!!!!!!!!!!!!!!!!!!!!!!!!!!!!!!!8!c&W!5!'!'!'!'!'!'!'!'!'!'!'!'!'!'!'!'!'!'!5#z#]!8!!!!!!!!!!!!!!!!!!!!!!!!!!!!!!!!!!!!!!!!!!!!!!!!!!!!!!!!!!!!!!!!!!!!!!!!!!!!!!!!!!!!!!!!!!!!!!!!!!!!!!!+$T!Y!-!'!'!'!'!'!'!'!'!'!'!'!'!'!'!'!'!'!'!'!'!'!'!'!'!'!'!'!'!'!'!'!'!'!'!'!'!'!'!'!'!'!'!'!'!'!'!'!'!'!'!'!'!'!'!'!'!'!'!'!'",
"!'!'!'!'!'!'!'!'!'!'!'!'!'!'!'!'!'!'!'!'!'!'!'!'!'!'!'!'!'!'!'!'!'!'!'!'!'!'!'!'!'!'!'!'!'!'!'!'!'!'!'!'!'!'!'!'!'!'!'!'!'!r#>!9!8!!!!!!!!!!!!!!!!!!!!!!!!!!!!!!!!!!!!!!!!!!!!!!!!!!!!!!!!!!!!!!!!!!!!!!!!!!!!!!!!!!!!!!!!!!!!!!!!!!!!!!!##0!/!.!'!'!'!'!'!'!'!'!'!'!'!'!'!'!'!'!.#p$M!#!!!!!!!!!!!!!!!!!!!!!!!!!!!!!!!!!!!!!!!!!!!!!!!!!!!!!!!!!!!!!!!!!!!!!!!!!!!!!!!!!!!!!!!!!!!!!!!!!!!!!!!8!K%`!4!'!'!'!'!'!'!'!'!'!'!'!'!'!'!'!'!'!'!'!'!'!'!'!'!'!'!'!'!'!'!'!'!'!'!'!'!'!'!'!'!'!'!'!'!'!'!'!'!'!'!'!'!'!'!'!'!'!'!'!'!'",
"!'!'!'!'!'!'!'!'!'!'!'!'!'!'!'!'!'!'!'!'!'!'!'!'!'!'!'!'!'!'!'!'!'!'!'!'!'!'!'!'!'!'!'!'!'!'!'!'!'!'!'!'!'!'!'!'!'!'!'!'!'!-%g#b!+!!!!!!!!!!!!!!!!!!!!!!!!!!!!!!!!!!!!!!!!!!!!!!!!!!!!!!!!!!!!!!!!!!!!!!!!!!!!!!!!!!!!!!!!!!!!!!!!!!!!!!!#!T%i!5!'!'!'!'!'!'!'!'!'!'!'!'!'!'!'!'!-%r!t!=!!!!!!!!!!!!!!!!!!!!!!!!!!!!!!!!!!!!!!!!!!!!!!!!!!!!!!!!!!!!!!!!!!!!!!!!!!!!!!!!!!!!!!!!!!!!!!!!!!!!!!!+%L#M!-!'!'!'!'!'!'!'!'!'!'!'!'!'!'!'!'!'!'!'!'!'!'!'!'!'!'!'!'!'!'!'!'!'!'!'!'!'!'!'!'!'!'!'!'!'!'!'!'!'!'!'!'!'!'!'!'!'!'!'!'!'",
"!'!'!'!'!'!'!'!'!'!'!'!'!'!'!'!'!'!'!'!'!'!'!'!'!'!'!'!'!'!'!'!'!'!'!'!'!'!'!'!'!'!'!'!'!'!'!'!'!'!'!'!'!'!'!'!'!'!'!'!'!'!'!'$Q!}!8!!!!!!!!!!!!!!!!!!!!!!!!!!!!!!!!!!!!!!!!!!!!!!!!!!!!!!!!!!!!!!!!!!!!!!!!!!!!!!!!!!!!!!!!!!!!!!!!!!!!!!!8#$'R!.!'!'!'!'!'!'!'!'!'!'!'!'!'!'!N!.##!!!!!!!!!!!!!!!!!!!!!!!!!!!!!!!!!!!!!!!!!!!!!!!!!!!!!!!!!!!!!!!!!!!!!!!!!!!!!!!!!!!!!!!!!!!!!!!!!!!!!!!!!8!!$F!'!'!'!'!'!'!'!'!'!'!'!'!'!'!'!'!'!'!'!'!'!'!'!'!'!'!'!'!'!'!'!'!'!'!'!'!'!'!'!'!'!'!'!'!'!'!'!'!'!'!'!'!'!'!'!'!'!'!'!'!'!'!'",
"!'!'!'!'!'!'!'!'!'!'!'!'!'!'!'!'!'!'!'!'!'!'!'!'!'!'!'!'!'!'!'!'!'!'!'!'!'!'!'!'!'!'!'!'!'!'!'!'!'!'!'!'!'!'!'!'!'!'!'!'!'!'!5#E!<!G!!!!!!!!!!!!!!!!!!!!!!!!!!!!!!!!!!!!!!!!!!!!!!!!!!!!!!!!!!!!!!!!!!!!!!!!!!!!!!!!!!!!!!!!!!!!!!!!!!!!!!!G#{%*!4!'!'!'!'!'!'!'!'!'!'!'!'!'!'!4&+$V!B!!!!!!!!!!!!!!!!!!!!!!!!!!!!!!!!!!!!!!!!!!!!!!!!!!!!!!!!!!!!!!!!!!!!!!!!!!!!!!!!!!!!!!!!!!!!!!!!!!!!!!!G!t'=!4!'!'!'!'!'!'!'!'!'!'!'!'!'!'!'!'!'!'!'!'!'!'!'!'!'!'!'!'!'!'!'!'!'!'!'!'!'!'!'!'!'!'!'!'!'!'!'!'!'!'!'!'!'!'!'!'!'!'!'!'!'!'",
"!'!'!'!'!'!'!'!'!'!'!'!'!'!'!'!'!'!'!'!'!'!'!'!'!'!'!'!'!'!'!'!'!'!'!'!'!'!'!'!'!'!'!'!'!'!'!'!'!'!'!'!'!'!'!'!'!'!'!'!'!'!'!.$h&v!8!8!!!!!!!!!!!!!!!!!!!!!!!!!!!!!!!!!!!!!!!!!!!!!!!!!!!!!!!!!!!!!!!!!!!!!!!!!!!!!!!!!!!!!!!!!!!!!!!!!!!!!!!!!E!&!'!'!'!'!'!'!'!'!'!'!'!'!'!'!-'?$X!8!!!!!!!!!!!!!!!!!!!!!!!!!!!!!!!!!!!!!!!!!!!!!!!!!!!!!!!!!!!!!!!!!!!!!!!!!!!!!!!!!!!!!!!!!!!!!!!!!!!!!!!##<#;!.!'!'!'!'!'!'!'!'!'!'!'!'!'!'!'!'!'!'!'!'!'!'!'!'!'!'!'!'!'!'!'!'!'!'!'!'!'!'!'!'!'!'!'!'!'!'!'!'!'!'!'!'!'!'!'!'!'!'!'!'!'!'",
"!'!'!'!'!'!'!'!'!'!'!'!'!'!'!'!'!'!'!'!'!'!'!'!'!'!'!'!'!'!'!'!'!'!'!'!'!'!'!'!'!'!'!'!'!'!'!'!'!'!'!'!'!'!'!'!'!'!'!'!'!'!'!'!4!p#e!#!!!!!!!!!!!!!!!!!!!!!!!!!!!!!!!!!!!!!!!!!!!!!!!!!!!!!!!!!!!!!!!!!!!!!!!!!!!!!!!!!!!!!!!!!!!!!!!!!!!!!!!='S'0!4!'!'!'!'!'!'!'!'!'!'!'!'!5'*'Q!G!!!!!!!!!!!!!!!!!!!!!!!!!!!!!!!!!!!!!!!!!!!!!!!!!!!!!!!!!!!!!!!!!!!!!!!!!!!!!!!!!!!!!!!!!!!!!!!!!!!!!!!##]%j!5!'!'!'!'!'!'!'!'!'!'!'!'!'!'!'!'!'!'!'!'!'!'!'!'!'!'!'!'!'!'!'!'!'!'!'!'!'!'!'!'!'!'!'!'!'!'!'!'!'!'!'!'!'!'!'!'!'!'!'!'!'!'!'",
"!'!'!'!'!'!'!'!'!'!'!'!'!'!'!'!'!'!'!'!'!'!'!'!'!'!'!'!'!'!'!'!'!'!'!'!'!'!'!'!'!'!'!'!'!'!'!'!'!'!'!'!'!'!'!'!'!'!'!'!'!'!'!'!-#2$e!G!!!!!!!!!!!!!!!!!!!!!!!!!!!!!!!!!!!!!!!!!!!!!!!!!!!!!!!!!!!!!!!!!!!!!!!!!!!!!!!!!!!!!!!!!!!!!!!!!!!!!!!8%P%1!5!'!'!'!'!'!'!'!'!'!'!'!'!4#6#Y!8!!!!!!!!!!!!!!!!!!!!!!!!!!!!!!!!!!!!!!!!!!!!!!!!!!!!!!!!!!!!!!!!!!!!!!!!!!!!!!!!!!!!!!!!!!!!!!!!!!!!!!!G!j#9!-!'!'!'!'!'!'!'!'!'!'!'!'!'!'!'!'!'!'!'!'!'!'!'!'!'!'!'!'!'!'!'!'!'!'!'!'!'!'!'!'!'!'!'!'!'!'!'!'!'!'!'!'!'!'!'!'!'!'!'!'!'!'!'",
"!'!'!'!'!'!'!'!'!'!'!'!'!'!'!'!'!'!'!'!'!'!'!'!'!'!'!'!'!'!'!'!'!'!'!'!'!'!'!'!'!'!'!'!'!'!'!'!'!'!'!'!'!'!'!'!'!'!'!'!'!'!'!'!'!4!V#S!8!!!!!!!!!!!!!!!!!!!!!!!!!!!!!!!!!!!!!!!!!!!!!!!!!!!!!!!!!!!!!!!!!!!!!!!!!!!!!!!!!!!!!!!!!!!!!!!!!!!!!!!=$J#|!-!'!'!'!'!'!'!'!'!'!'!&!(!g!#!!!!!!!!!!!!!!!!!!!!!!!!!!!!!!!!!!!!!!!!!!!!!!!!!!!!!!!!!!!!!!!!!!!!!!!!!!!!!!!!!!!!!!!!!!!!!!!!!!!!!!!8!K%s!4!'!'!'!'!'!'!'!'!'!'!'!'!'!'!'!'!'!'!'!'!'!'!'!'!'!'!'!'!'!'!'!'!'!'!'!'!'!'!'!'!'!'!'!'!'!'!'!'!'!'!'!'!'!'!'!'!'!'!'!'!'!'!'!'",
"!'!'!'!'!'!'!'!'!'!'!'!'!'!'!'!'!'!'!'!'!'!'!'!'!'!'!'!'!'!'!'!'!'!'!'!'!'!'!'!'!'!'!'!'!'!'!'!'!'!'!'!'!'!'!'!'!'!'!'!'!'!'!'!'!-#U$u!+!!!!!!!!!!!!!!!!!!!!!!!!!!!!!!!!!!!!!!!!!!!!!!!!!!!!!!!!!!!!!!!!!!!!!!!!!!!!!!!!!!!!!!!!!!!!!!!!!!!!!!!#!f!p!4!'!'!'!'!'!'!'!'!'!'!5#@!2!#!!!!!!!!!!!!!!!!!!!!!!!!!!!!!!!!!!!!!!!!!!!!!!!!!!!!!!!!!!!!!!!!!!!!!!!!!!!!!!!!!!!!!!!!!!!!!!!!!!!!!!!+$%%7!-!'!'!'!'!'!'!'!'!'!'!'!'!'!'!'!'!'!'!'!'!'!'!'!'!'!'!'!'!'!'!'!'!'!'!'!'!'!'!'!'!'!'!'!'!'!'!'!'!'!'!'!'!'!'!'!'!'!'!'!'!'!'!'!'",
"!'!'!'!'!'!'!'!'!'!'!'!'!'!'!'!'!'!'!'!'!'!'!'!'!'!'!'!'!'!'!'!'!'!'!'!'!'!'!'!'!'!'!'!'!'!'!'!'!'!'!'!'!'!'!'!'!'!'!'!'!'!'!'!'!'!-#h!}!8!!!!!!!!!!!!!!!!!!!!!!!!!!!!!!!!!!!!!!!!!!!!!!!!!!!!!!!!!!!!!!!!!!!!!!!!!!!!!!!!!!!!!!!!!!!!!!!!!!!!!!!8'T!{!.!'!'!'!'!'!'!'!'!.!{$v!!!!!!!!!!!!!!!!!!!!!!!!!!!!!!!!!!!!!!!!!!!!!!!!!!!!!!!!!!!!!!!!!!!!!!!!!!!!!!!!!!!!!!!!!!!!!!!!!!!!!!!!!8!!!J!-!'!'!'!'!'!'!'!'!'!'!'!'!'!'!'!'!'!'!'!'!'!'!'!'!'!'!'!'!'!'!'!'!'!'!'!'!'!'!'!'!'!'!'!'!'!'!'!'!'!'!'!'!'!'!'!'!'!'!'!'!'!'!'!'!'",
"!'!'!'!'!'!'!'!'!'!'!'!'!'!'!'!'!'!'!'!'!'!'!'!'!'!'!'!'!'!'!'!'!'!'!'!'!'!'!'!'!'!'!'!'!'!'!'!'!'!'!'!'!'!'!'!'!'!'!'!'!'!'!'!'!'!-#s%b!G!!!!!!!!!!!!!!!!!!!!!!!!!!!!!!!!!!!!!!!!!!!!!!!!!!!!!!!!!!!!!!!!!!!!!!!!!!!!!!!!!!!!!!!!!!!!!!!!!!!!!!!G%<!s!4!'!'!'!'!'!'!'!'!-$n!H!B!!!!!!!!!!!!!!!!!!!!!!!!!!!!!!!!!!!!!!!!!!!!!!!!!!!!!!!!!!!!!!!!!!!!!!!!!!!!!!!!!!!!!!!!!!!!!!!!!!!!!!!G#l'U!4!'!'!'!'!'!'!'!'!'!'!'!'!'!'!'!'!'!'!'!'!'!'!'!'!'!'!'!'!'!'!'!'!'!'!'!'!'!'!'!'!'!'!'!'!'!'!'!'!'!'!'!'!'!'!'!'!'!'!'!'!'!'!'!'!'",
"!'!'!'!'!'!'!'!'!'!'!'!'!'!'!'!'!'!'!'!'!'!'!'!'!'!'!'!'!'!'!'!'!'!'!'!'!'!'!'!'!'!'!'!'!'!'!'!'!'!'!'!'!'!'!'!'!'!'!'!'!'!'!'!'!'!.$.'V!8!8!!!!!!!!!!!!!!!!!!!!!!!!!!!!!!!!!!!!!!!!!!!!!!!!!!!!!!!!!!!!!!!!!!!!!!!!!!!!!!!!!!!!!!!!!!!!!!!!!!!!!!!!'W!.!'!'!'!'!'!'!'!'!-'X!}#u!!!!!!!!!!!!!!!!!!!!!!!!!!!!!!!!!!!!!!!!!!!!!!!!!!!!!!!!!!!!!!!!!!!!!!!!!!!!!!!!!!!!!!!!!!!!!!!!!!!!#u!##A#p!.!'!'!'!'!'!'!'!'!'!'!'!'!'!'!'!'!'!'!'!'!'!'!'!'!'!'!'!'!'!'!'!'!'!'!'!'!'!'!'!'!'!'!'!'!'!'!'!'!'!'!'!'!'!'!'!'!'!'!'!'!'!'!'!'!'",
"!'!'!'!'!'!'!'!'!'!'!'!'!'!'!'!'!'!'!'!'!'!'!'!'!'!'!'!'!'!'!'!'!'!'!'!'!'!'!'!'!'!'!'!'!'!'!'!'!'!'!'!'!'!'!'!'!'!'!'!'!'!'!'!'!'!'!5#*!f!#!!!!!!!!!!!!!!!!!!!!!!!!!!!!!!!!!!!!!!!!!!!!!!!!!!!!!!!!!!!!!!!!!!!!!!!!!!!!!!!!!!!!!!!!!!!!!!!!!!!!!!!G&8'Y!4!'!'!'!'!'!'!5'Z'S!G!!!!!!!!!!!!!!!!!!!!!!!!!!!!!!!!!!!!!!!!!!!!!!!!!!!!!!!!!!!!!!!!!!!!!!!!!!!!!!!!!!!!!!!!!!!!!!!!!!!!!!!##e'2!4!'!'!'!'!'!'!'!'!'!'!'!'!'!'!'!'!'!'!'!'!'!'!'!'!'!'!'!'!'!'!'!'!'!'!'!'!'!'!'!'!'!'!'!'!'!'!'!'!'!'!'!'!'!'!'!'!'!'!'!'!'!'!'!'!'!'",
"!'!'!'!'!'!'!'!'!'!'!'!'!'!'!'!'!'!'!'!'!'!'!'!'!'!'!'!'!'!'!'!'!'!'!'!'!'!'!'!'!'!'!'!'!'!'!'!'!'!'!'!'!'!'!'!'!'!'!'!'!'!'!'!'!'!'!&#|!g!#!!!!!!!!!!!!!!!!!!!!!!!!!!!!!!!!!!!!!!!!!!!!!!!!!!!!!!!!!!!!!!!!!!!!!!!!!!!!!!!!!!!!!!!!!!!!!!!!!!!!!!!8$X%s!4!'!'!'!'!'!'!4%1#S!8!!!!!!!!!!!!!!!!!!!!!!!!!!!!!!!!!!!!!!!!!!!!!!!!!!!!!!!!!!!!!!!!!!!!!!!!!!!!!!!!!!!!!!!!!!!!!!!!!!!!!!!#$9#2!-!'!'!'!'!'!'!'!'!'!'!'!'!'!'!'!'!'!'!'!'!'!'!'!'!'!'!'!'!'!'!'!'!'!'!'!'!'!'!'!'!'!'!'!'!'!'!'!'!'!'!'!'!'!'!'!'!'!'!'!'!'!'!'!'!'!'",
"!'!'!'!'!'!'!'!'!'!'!'!'!'!'!'!'!'!'!'!'!'!'!'!'!'!'!'!'!'!'!'!'!'!'!'!'!'!'!'!'!'!'!'!'!'!'!'!'!'!'!'!'!'!'!'!'!'!'!'!'!'!'!'!'!'!'!'!4#6!7!8!!!!!!!!!!!!!!!!!!!!!!!!!!!!!!!!!!!!!!!!!!!!!!!!!!!!!!!!!!!!!!!!!!!!!!!!!!!!!!!!!!!!!!!!!!!!!!!!!!!!!!!G'[&r!-!'!'!'!'!-$c#}!=!!!!!!!!!!!!!!!!!!!!!!!!!!!!!!!!!!!!!!!!!!!!!!!!!!!!!!!!!!!!!!!!!!!!!!!!!!!!!!!!!!!!!!!!!!!!!!!!!!!!!!!8!9$'!5!'!'!'!'!'!'!'!'!'!'!'!'!'!'!'!'!'!'!'!'!'!'!'!'!'!'!'!'!'!'!'!'!'!'!'!'!'!'!'!'!'!'!'!'!'!'!'!'!'!'!'!'!'!'!'!'!'!'!'!'!'!'!'!'!'!'!'",
"!'!'!'!'!'!'!'!'!'!'!'!'!'!'!'!'!'!'!'!'!'!'!'!'!'!'!'!'!'!'!'!'!'!'!'!'!'!'!'!'!'!'!'!'!'!'!'!'!'!'!'!'!'!'!'!'!'!'!'!'!'!'!'!'!'!'!'!-$U']!B!!!!!!!!!!!!!!!!!!!!!!!!!!!!!!!!!!!!!!!!!!!!!!!!!!!!!!!!!!!!!!!!!!!!!!!!!!!!!!!!!!!!!!!!!!!!!!!!!!!!!!!1$4'^!4!'!'!'!'!4#R#y!#!!!!!!!!!!!!!!!!!!!!!!!!!!!!!!!!!!!!!!!!!!!!!!!!!!!!!!!!!!!!!!!!!!!!!!!!!!!!!!!!!!!!!!!!!!!!!!!!!!!!!!!B#:$m!-!'!'!'!'!'!'!'!'!'!'!'!'!'!'!'!'!'!'!'!'!'!'!'!'!'!'!'!'!'!'!'!'!'!'!'!'!'!'!'!'!'!'!'!'!'!'!'!'!'!'!'!'!'!'!'!'!'!'!'!'!'!'!'!'!'!'!'",
"!'!'!'!'!'!'!'!'!'!'!'!'!'!'!'!'!'!'!'!'!'!'!'!'!'!'!'!'!'!'!'!'!'!'!'!'!'!'!'!'!'!'!'!'!'!'!'!'!'!'!'!'!'!'!'!'!'!'!'!'!'!'!'!'!'!'!'!'!-%`!}!8!!!!!!!!!!!!!!!!!!!!!!!!!!!!!!!!!!!!!!!!!!!!!!!!!!!!!!!!!!!!!!!!!!!!!!!!!!!!!!!!!!!!!!!!!!!!!!!!!!!!!!!8$M$h!.!'!'!.!m%,!8!!!!!!!!!!!!!!!!!!!!!!!!!!!!!!!!!!!!!!!!!!!!!!!!!!!!!!!!!!!!!!!!!!!!!!!!!!!!!!!!!!!!!!!!!!!!!!!!!!!!!!!8$G&h!-!'!'!'!'!'!'!'!'!'!'!'!'!'!'!'!'!'!'!'!'!'!'!'!'!'!'!'!'!'!'!'!'!'!'!'!'!'!'!'!'!'!'!'!'!'!'!'!'!'!'!'!'!'!'!'!'!'!'!'!'!'!'!'!'!'!'!'!'",
"!'!'!'!'!'!'!'!'!'!'!'!'!'!'!'!'!'!'!'!'!'!'!'!'!'!'!'!'!'!'!'!'!'!'!'!'!'!'!'!'!'!'!'!'!'!'!'!'!'!'!'!'!'!'!'!'!'!'!'!'!'!'!'!'!'!'!'!'!-#!#C!B!!!!!!!!!!!!!!!!!!!!!!!!!!!!!!!!!!!!!!!!!!!!!!!!!!!!!!!!!!!!!!!!!!!!!!!!!!!!!!!!!!!!!!!!!!!!!!!!!!!!!!!=#H%T!-!'!'!5$R$O!=!!!!!!!!!!!!!!!!!!!!!!!!!!!!!!!!!!!!!!!!!!!!!!!!!!!!!!!!!!!!!!!!!!!!!!!!!!!!!!!!!!!!!!!!!!!!!!!!!!!!!!!G$[!R!5!'!'!'!'!'!'!'!'!'!'!'!'!'!'!'!'!'!'!'!'!'!'!'!'!'!'!'!'!'!'!'!'!'!'!'!'!'!'!'!'!'!'!'!'!'!'!'!'!'!'!'!'!'!'!'!'!'!'!'!'!'!'!'!'!'!'!'!'",
"!'!'!'!'!'!'!'!'!'!'!'!'!'!'!'!'!'!'!'!'!'!'!'!'!'!'!'!'!'!'!'!'!'!'!'!'!'!'!'!'!'!'!'!'!'!'!'!'!'!'!'!'!'!'!'!'!'!'!'!'!'!'!'!'!'!'!'!'!'!{%$!!!8!!!!!!!!!!!!!!!!!!!!!!!!!!!!!!!!!!!!!!!!!!!!!!!!!!!!!!!!!!!!!!!!!!!!!!!!!!!!!!!!!!!!!!!!!!!!!!!!!!!!!!!!$I!N!N!'!.'%!}#u!!!!!!!!!!!!!!!!!!!!!!!!!!!!!!!!!!!!!!!!!!!!!!!!!!!!!!!!!!!!!!!!!!!!!!!!!!!!!!!!!!!!!!!!!!!!!!!!!!!!!!!1$v!{!N!'!'!'!'!'!'!'!'!'!'!'!'!'!'!'!'!'!'!'!'!'!'!'!'!'!'!'!'!'!'!'!'!'!'!'!'!'!'!'!'!'!'!'!'!'!'!'!'!'!'!'!'!'!'!'!'!'!'!'!'!'!'!'!'!'!'!'!'",
"!'!'!'!'!'!'!'!'!'!'!'!'!'!'!'!'!'!'!'!'!'!'!'!'!'!'!'!'!'!'!'!'!'!'!'!'!'!'!'!'!'!'!'!'!'!'!'!'!'!'!'!'!'!'!'!'!'!'!'!'!'!'!'!'!'!'!'!'!'!4#(#Q!=!!!!!!!!!!!!!!!!!!!!!!!!!!!!!!!!!!!!!!!!!!!!!!!!!!!!!!!!!!!!!!!!!!!!!!!!!!!!!!!!!!!!!!!!!!!!!!!!!!!!!!!+#T&Q!-!-&A'_!B!!!!!!!!!!!!!!!!!!!!!!!!!!!!!!!!!!!!!!!!!!!!!!!!!!!!!!!!!!!!!!!!!!!!!!!!!!!!!!!!!!!!!!!!!!!!!!!!!!!!!!!#!2#*!4!'!'!'!'!'!'!'!'!'!'!'!'!'!'!'!'!'!'!'!'!'!'!'!'!'!'!'!'!'!'!'!'!'!'!'!'!'!'!'!'!'!'!'!'!'!'!'!'!'!'!'!'!'!'!'!'!'!'!'!'!'!'!'!'!'!'!'!'!'",
"!'!'!'!'!'!'!'!'!'!'!'!'!'!'!'!'!'!'!'!'!'!'!'!'!'!'!'!'!'!'!'!'!'!'!'!'!'!'!'!'!'!'!'!'!'!'!'!'!'!'!'!'!'!'!'!'!'!'!'!'!'!'!'!'!'!'!'!'!'!.#1![!#!!!!!!!!!!!!!!!!!!!!!!!!!!!!!!!!!!!!!!!!!!!!!!!!!!!!!!!!!!!!!!!!!!!!!!!!!!!!!!!!!!!!!!!!!!!!!!!!!!!!!!!8!K'`!-!4#>#S!8!!!!!!!!!!!!!!!!!!!!!!!!!!!!!!!!!!!!!!!!!!!!!!!!!!!!!!!!!!!!!!!!!!!!!!!!!!!!!!!!!!!!!!!!!!!!!!!!!!!!!!!=!g!(!.!'!'!'!'!'!'!'!'!'!'!'!'!'!'!'!'!'!'!'!'!'!'!'!'!'!'!'!'!'!'!'!'!'!'!'!'!'!'!'!'!'!'!'!'!'!'!'!'!'!'!'!'!'!'!'!'!'!'!'!'!'!'!'!'!'!'!'!'!'",
"!'!'!'!'!'!'!'!'!'!'!'!'!'!'!'!'!'!'!'!'!'!'!'!'!'!'!'!'!'!'!'!'!'!'!'!'!'!'!'!'!'!'!'!'!'!'!'!'!'!'!'!'!'!'!'!'!'!'!'!'!'!'!'!'!'!'!'!'!'!'!-#=%D!#!!!!!!!!!!!!!!!!!!!!!!!!!!!!!!!!!!!!!!!!!!!!!!!!!!!!!!!!!!!!!!!!!!!!!!!!!!!!!!!!!!!!!!!!!!!!!!!!!!!!!!!G'a&3#a'b!G!!!!!!!!!!!!!!!!!!!!!!!!!!!!!!!!!!!!!!!!!!!!!!!!!!!!!!!!!!!!!!!!!!!!!!!!!!!!!!!!!!!!!!!!!!!!!!!!!!!!!!!1$D#7!-!'!'!'!'!'!'!'!'!'!'!'!'!'!'!'!'!'!'!'!'!'!'!'!'!'!'!'!'!'!'!'!'!'!'!'!'!'!'!'!'!'!'!'!'!'!'!'!'!'!'!'!'!'!'!'!'!'!'!'!'!'!'!'!'!'!'!'!'!'!'",
"!'!'!'!'!'!'!'!'!'!'!'!'!'!'!'!'!'!'!'!'!'!'!'!'!'!'!'!'!'!'!'!'!'!'!'!'!'!'!'!'!'!'!'!'!'!'!'!'!'!'!'!'!'!'!'!'!'!'!'!'!'!'!'!'!'!'!'!'!'!'!-!i#3!G!!!!!!!!!!!!!!!!!!!!!!!!!!!!!!!!!!!!!!!!!!!!!!!!!!!!!!!!!!!!!!!!!!!!!!!!!!!!!!!!!!!!!!!!!!!!!!!!!!!!!!!8!W%W#@$&!8!!!!!!!!!!!!!!!!!!!!!!!!!!!!!!!!!!!!!!!!!!!!!!!!!!!!!!!!!!!!!!!!!!!!!!!!!!!!!!!!!!!!!!!!!!!!!!!!!!!!!!!G&6!l!-!'!'!'!'!'!'!'!'!'!'!'!'!'!'!'!'!'!'!'!'!'!'!'!'!'!'!'!'!'!'!'!'!'!'!'!'!'!'!'!'!'!'!'!'!'!'!'!'!'!'!'!'!'!'!'!'!'!'!'!'!'!'!'!'!'!'!'!'!'!'",
"!'!'!'!'!'!'!'!'!'!'!'!'!'!'!'!'!'!'!'!'!'!'!'!'!'!'!'!'!'!'!'!'!'!'!'!'!'!'!'!'!'!'!'!'!'!'!'!'!'!'!'!'!'!'!'!'!'!'!'!'!'!'!'!'!'!'!'!'!'!'!'!-#>!K!8!!!!!!!!!!!!!!!!!!!!!!!!!!!!!!!!!!!!!!!!!!!!!!!!!!!!!!!!!!!!!!!!!!!!!!!!!!!!!!!!!!!!!!!!!!!!!!!!!!!!!!!!$/$P!}!!!!!!!!!!!!!!!!!!!!!!!!!!!!!!!!!!!!!!!!!!!!!!!!!!!!!!!!!!!!!!!!!!!!!!!!!!!!!!!!!!!!!!!!!!!!!!!!!!!!!!!8!}#~!&!'!'!'!'!'!'!'!'!'!'!'!'!'!'!'!'!'!'!'!'!'!'!'!'!'!'!'!'!'!'!'!'!'!'!'!'!'!'!'!'!'!'!'!'!'!'!'!'!'!'!'!'!'!'!'!'!'!'!'!'!'!'!'!'!'!'!'!'!'!'!'",
"!'!'!'!'!'!'!'!'!'!'!'!'!'!'!'!'!'!'!'!'!'!'!'!'!'!'!'!'!'!'!'!'!'!'!'!'!'!'!'!'!'!'!'!'!'!'!'!'!'!'!'!'!'!'!'!'!'!'!'!'!'!'!'!'!'!'!'!'!'!'!'!-!I!x!B!!!!!!!!!!!!!!!!!!!!!!!!!!!!!!!!!!!!!!!!!!!!!!!!!!!!!!!!!!!!!!!!!!!!!!!!!!!!!!!!!!!!!!!!!!!!!!!!!!!!!!!!$D'c!!!!!!!!!!!!!!!!!!!!!!!!!!!!!!!!!!!!!!!!!!!!!!!!!!!!!!!!!!!!!!!!!!!!!!!!!!!!!!!!!!!!!!!!!!!!!!!!!!!!!!!!!B#C#B!5!'!'!'!'!'!'!'!'!'!'!'!'!'!'!'!'!'!'!'!'!'!'!'!'!'!'!'!'!'!'!'!'!'!'!'!'!'!'!'!'!'!'!'!'!'!'!'!'!'!'!'!'!'!'!'!'!'!'!'!'!'!'!'!'!'!'!'!'!'!'!'",
"!'!'!'!'!'!'!'!'!'!'!'!'!'!'!'!'!'!'!'!'!'!'!'!'!'!'!'!'!'!'!'!'!'!'!'!'!'!'!'!'!'!'!'!'!'!'!'!'!'!'!'!'!'!'!'!'!'!'!'!'!'!'!'!'!'!'!'!'!'!'!'!'!.#v!8!!!!!!!!!!!!!!!!!!!!!!!!!!!!!!!!!!!!!!!!!!!!!!!!!!!!!!!!!!!!!!!!!!!!!!!!!!!!!!!!!!!!!!!!!!!!!!!!!!!!!!!!!8!8!!!!!!!!!!!!!!!!!!!!!!!!!!!!!!!!!!!!!!!!!!!!!!!!!!!!!!!!!!!!!!!!!!!!!!!!!!!!!!!!!!!!!!!!!!!!!!!!!!!!!!!!!#'d!'!'!'!'!'!'!'!'!'!'!'!'!'!'!'!'!'!'!'!'!'!'!'!'!'!'!'!'!'!'!'!'!'!'!'!'!'!'!'!'!'!'!'!'!'!'!'!'!'!'!'!'!'!'!'!'!'!'!'!'!'!'!'!'!'!'!'!'!'!'!'!'!'",
"!'!'!'!'!'!'!'!'!'!'!'!'!'!'!'!'!'!'!'!'!'!'!'!'!'!'!'!'!'!'!'!'!'!'!'!'!'!'!'!'!'!'!'!'!'!'!'!'!'!'!'!'!'!'!'!'!'!'!'!'!'!'!'!'!'!'!'!'!'!'!'!'!4'e'f!G!!!!!!!!!!!!!!!!!!!!!!!!!!!!!!!!!!!!!!!!!!!!!!!!!!!!!!!!!!!!!!!!!!!!!!!!!!!!!!!!!!!!!!!!!!!!!!!!!!!!!!!!!!!!!!!!!!!!!!!!!!!!!!!!!!!!!!!!!!!!!!!!!!!!!!!!!!!!!!!!!!!!!!!!!!!!!!!!!!!!!!!!!!!!!!!!!!!!!!!!!!!!!!!!!G$O'g!4!'!'!'!'!'!'!'!'!'!'!'!'!'!'!'!'!'!'!'!'!'!'!'!'!'!'!'!'!'!'!'!'!'!'!'!'!'!'!'!'!'!'!'!'!'!'!'!'!'!'!'!'!'!'!'!'!'!'!'!'!'!'!'!'!'!'!'!'!'!'!'!'",
"!'!'!'!'!'!'!'!'!'!'!'!'!'!'!'!'!'!'!'!'!'!'!'!'!'!'!'!'!'!'!'!'!'!'!'!'!'!'!'!'!'!'!'!'!'!'!'!'!'!'!'!'!'!'!'!'!'!'!'!'!'!'!'!'!'!'!'!'!'!'!'!'!.#p%'!#!!!!!!!!!!!!!!!!!!!!!!!!!!!!!!!!!!!!!!!!!!!!!!!!!!!!!!!!!!!!!!!!!!!!!!!!!!!!!!!!!!!!!!!!!!!!!!!!!!!!!!!!!!!!!!!!!!!!!!!!!!!!!!!!!!!!!!!!!!!!!!!!!!!!!!!!!!!!!!!!!!!!!!!!!!!!!!!!!!!!!!!!!!!!!!!!!!!!!!!!!!!!!!!!!#$M#p!.!'!'!'!'!'!'!'!'!'!'!'!'!'!'!'!'!'!'!'!'!'!'!'!'!'!'!'!'!'!'!'!'!'!'!'!'!'!'!'!'!'!'!'!'!'!'!'!'!'!'!'!'!'!'!'!'!'!'!'!'!'!'!'!'!'!'!'!'!'!'!'!'",
"!'!'!'!'!'!'!'!'!'!'!'!'!'!'!'!'!'!'!'!'!'!'!'!'!'!'!'!'!'!'!'!'!'!'!'!'!'!'!'!'!'!'!'!'!'!'!'!'!'!'!'!'!'!'!'!'!'!'!'!'!'!'!'!'!'!'!'!'!'!'!'!'!'!4'h!o!#!!!!!!!!!!!!!!!!!!!!!!!!!!!!!!!!!!!!!!!!!!!!!!!!!!!!!!!!!!!!!!!!!!!!!!!!!!!!!!!!!!!!!!!!!!!!!!!!!!!!!!!!!!!!!!!!!!!!!!!!!!!!!!!!!!!!!!!!!!!!!!!!!!!!!!!!!!!!!!!!!!!!!!!!!!!!!!!!!!!!!!!!!!!!!!!!!!!!!!!!!!!!!#$4#z!4!'!'!'!'!'!'!'!'!'!'!'!'!'!'!'!'!'!'!'!'!'!'!'!'!'!'!'!'!'!'!'!'!'!'!'!'!'!'!'!'!'!'!'!'!'!'!'!'!'!'!'!'!'!'!'!'!'!'!'!'!'!'!'!'!'!'!'!'!'!'!'!'!'",
"!'!'!'!'!'!'!'!'!'!'!'!'!'!'!'!'!'!'!'!'!'!'!'!'!'!'!'!'!'!'!'!'!'!'!'!'!'!'!'!'!'!'!'!'!'!'!'!'!'!'!'!'!'!'!'!'!'!'!'!'!'!'!'!'!'!'!'!'!'!'!'!'!'!-%I%n!#!!!!!!!!!!!!!!!!!!!!!!!!!!!!!!!!!!!!!!!!!!!!!!!!!!!!!!!!!!!!!!!!!!!!!!!!!!!!!!!!!!!!!!!!!!!!!!!!!!!!!!!!!!!!!!!!!!!!!!!!!!!!!!!!!!!!!!!!!!!!!!!!!!!!!!!!!!!!!!!!!!!!!!!!!!!!!!!!!!!!!!!!!!!!!!!!!!!!!!!!!!!!!=&&$$!-!'!'!'!'!'!'!'!'!'!'!'!'!'!'!'!'!'!'!'!'!'!'!'!'!'!'!'!'!'!'!'!'!'!'!'!'!'!'!'!'!'!'!'!'!'!'!'!'!'!'!'!'!'!'!'!'!'!'!'!'!'!'!'!'!'!'!'!'!'!'!'!'!'",
"!'!'!'!'!'!'!'!'!'!'!'!'!'!'!'!'!'!'!'!'!'!'!'!'!'!'!'!'!'!'!'!'!'!'!'!'!'!'!'!'!'!'!'!'!'!'!'!'!'!'!'!'!'!'!'!'!'!'!'!'!'!'!'!'!'!'!'!'!'!'!'!'!'!'!-!V!F!8!!!!!!!!!!!!!!!!!!!!!!!!!!!!!!!!!!!!!!!!!!!!!!!!!!!!!!!!!!!!!!!!!!!!!!!!!!!!!!!!!!!!!!!!!!!!!!!!!!!!!!!!!!!!!!!!!!!!!!!!!!!!!!!!!!!!!!!!!!!!!!!!!!!!!!!!!!!!!!!!!!!!!!!!!!!!!!!!!!!!!!!!!!!!!!!!!!!!!!!!!8!K%4!&!'!'!'!'!'!'!'!'!'!'!'!'!'!'!'!'!'!'!'!'!'!'!'!'!'!'!'!'!'!'!'!'!'!'!'!'!'!'!'!'!'!'!'!'!'!'!'!'!'!'!'!'!'!'!'!'!'!'!'!'!'!'!'!'!'!'!'!'!'!'!'!'!'!'",
"!'!'!'!'!'!'!'!'!'!'!'!'!'!'!'!'!'!'!'!'!'!'!'!'!'!'!'!'!'!'!'!'!'!'!'!'!'!'!'!'!'!'!'!'!'!'!'!'!'!'!'!'!'!'!'!'!'!'!'!'!'!'!'!'!'!'!'!'!'!'!'!'!'!'!5$Z#-!G!!!!!!!!!!!!!!!!!!!!!!!!!!!!!!!!!!!!!!!!!!!!!!!!!!!!!!!!!!!!!!!!!!!!!!!!!!!!!!!!!!!!!!!!!!!!!!!!!!!!!!!!!!!!!!!!!!!!!!!!!!!!!!!!!!!!!!!!!!!!!!!!!!!!!!!!!!!!!!!!!!!!!!!!!!!!!!!!!!!!!!!!!!!!!!!!!!!!!!!!!G!C%7!5!'!'!'!'!'!'!'!'!'!'!'!'!'!'!'!'!'!'!'!'!'!'!'!'!'!'!'!'!'!'!'!'!'!'!'!'!'!'!'!'!'!'!'!'!'!'!'!'!'!'!'!'!'!'!'!'!'!'!'!'!'!'!'!'!'!'!'!'!'!'!'!'!'!'",
"!'!'!'!'!'!'!'!'!'!'!'!'!'!'!'!'!'!'!'!'!'!'!'!'!'!'!'!'!'!'!'!'!'!'!'!'!'!'!'!'!'!'!'!'!'!'!'!'!'!'!'!'!'!'!'!'!'!'!'!'!'!'!'!'!'!'!'!'!'!'!'!'!'!'!'%K%Y!!!8!!!!!!!!!!!!!!!!!!!!!!!!!!!!!!!!!!!!!!!!!!!!!!!!!!!!!!!!!!!!!!!!!!!!!!!!!!!!!!!!!!!!!!!!!!!!!!!!!!!!!!!!!!!!!!!!!!!!!!!!!!!!!!!!!!!!!!!!!!!!!!!!!!!!!!!!!!!!!!!!!!!!!!!!!!!!!!!!!!!!!!!!!!!!!!!!!!!!!8!8%&!.!'!'!'!'!'!'!'!'!'!'!'!'!'!'!'!'!'!'!'!'!'!'!'!'!'!'!'!'!'!'!'!'!'!'!'!'!'!'!'!'!'!'!'!'!'!'!'!'!'!'!'!'!'!'!'!'!'!'!'!'!'!'!'!'!'!'!'!'!'!'!'!'!'!'!'",
"!'!'!'!'!'!'!'!'!'!'!'!'!'!'!'!'!'!'!'!'!'!'!'!'!'!'!'!'!'!'!'!'!'!'!'!'!'!'!'!'!'!'!'!'!'!'!'!'!'!'!'!'!'!'!'!'!'!'!'!'!'!'!'!'!'!'!'!'!'!'!'!'!'!'!'!5#n%b!B!!!!!!!!!!!!!!!!!!!!!!!!!!!!!!!!!!!!!!!!!!!!!!!!!!!!!!!!!!!!!!!!!!!!!!!!!!!!!!!!!!!!!!!!!!!!!!!!!!!!!!!!!!!!!!!!!!!!!!!!!!!!!!!!!!!!!!!!!!!!!!!!!!!!!!!!!!!!!!!!!!!!!!!!!!!!!!!!!!!!!!!!!!!!!!!!!!!!!B#l!U!4!'!'!'!'!'!'!'!'!'!'!'!'!'!'!'!'!'!'!'!'!'!'!'!'!'!'!'!'!'!'!'!'!'!'!'!'!'!'!'!'!'!'!'!'!'!'!'!'!'!'!'!'!'!'!'!'!'!'!'!'!'!'!'!'!'!'!'!'!'!'!'!'!'!'!'",
"!'!'!'!'!'!'!'!'!'!'!'!'!'!'!'!'!'!'!'!'!'!'!'!'!'!'!'!'!'!'!'!'!'!'!'!'!'!'!'!'!'!'!'!'!'!'!'!'!'!'!'!'!'!'!'!'!'!'!'!'!'!'!'!'!'!'!'!'!'!'!'!'!'!'!'!N'R$v!#!!!!!!!!!!!!!!!!!!!!!!!!!!!!!!!!!!!!!!!!!!!!!!!!!!!!!!!!!!!!!!!!!!!!!!!!!!!!!!!!!!!!!!!!!!!!!!!!!!!!!!!!!!!!!!!!!!!!!!!!!!!!!!!!!!!!!!!!!!!!!!!!!!!!!!!!!!!!!!!!!!!!!!!!!!!!!!!!!!!!!!!!!!!!!!!!!!!!!=&v!{!.!'!'!'!'!'!'!'!'!'!'!'!'!'!'!'!'!'!'!'!'!'!'!'!'!'!'!'!'!'!'!'!'!'!'!'!'!'!'!'!'!'!'!'!'!'!'!'!'!'!'!'!'!'!'!'!'!'!'!'!'!'!'!'!'!'!'!'!'!'!'!'!'!'!'!'",
"!'!'!'!'!'!'!'!'!'!'!'!'!'!'!'!'!'!'!'!'!'!'!'!'!'!'!'!'!'!'!'!'!'!'!'!'!'!'!'!'!'!'!'!'!'!'!'!'!'!'!'!'!'!'!'!'!'!'!'!'!'!'!'!'!'!'!'!'!'!'!'!'!'!'!'!'!5#*#j!#!!!!!!!!!!!!!!!!!!!!!!!!!!!!!!!!!!!!!!!!!!!!!!!!!!!!!!!!!!!!!!!!!!!!!!!!!!!!!!!!!!!!!!!!!!!!!!!!!!!!!!!!!!!!!!!!!!!!!!!!!!!!!!!!!!!!!!!!!!!!!!!!!!!!!!!!!!!!!!!!!!!!!!!!!!!!!!!!!!!!!!!!!!!!!!!!!#!f'i!5!'!'!'!'!'!'!'!'!'!'!'!'!'!'!'!'!'!'!'!'!'!'!'!'!'!'!'!'!'!'!'!'!'!'!'!'!'!'!'!'!'!'!'!'!'!'!'!'!'!'!'!'!'!'!'!'!'!'!'!'!'!'!'!'!'!'!'!'!'!'!'!'!'!'!'!'",
"!'!'!'!'!'!'!'!'!'!'!'!'!'!'!'!'!'!'!'!'!'!'!'!'!'!'!'!'!'!'!'!'!'!'!'!'!'!'!'!'!'!'!'!'!'!'!'!'!'!'!'!'!'!'!'!'!'!'!'!'!'!'!'!'!'!'!'!'!'!'!'!'!'!'!'!'!.!]$e!=!!!!!!!!!!!!!!!!!!!!!!!!!!!!!!!!!!!!!!!!!!!!!!!!!!!!!!!!!!!!!!!!!!!!!!!!!!!!!!!!!!!!!!!!!!!!!!!!!!!!!!!!!!!!!!!!!!!!!!!!!!!!!!!!!!!!!!!!!!!!!!!!!!!!!!!!!!!!!!!!!!!!!!!!!!!!!!!!!!!!!!!!!!!!!!!!!G%/!h!&!'!'!'!'!'!'!'!'!'!'!'!'!'!'!'!'!'!'!'!'!'!'!'!'!'!'!'!'!'!'!'!'!'!'!'!'!'!'!'!'!'!'!'!'!'!'!'!'!'!'!'!'!'!'!'!'!'!'!'!'!'!'!'!'!'!'!'!'!'!'!'!'!'!'!'!'",
"!'!'!'!'!'!'!'!'!'!'!'!'!'!'!'!'!'!'!'!'!'!'!'!'!'!'!'!'!'!'!'!'!'!'!'!'!'!'!'!'!'!'!'!'!'!'!'!'!'!'!'!'!'!'!'!'!'!'!'!'!'!'!'!'!'!'!'!'!'!'!'!'!'!'!'!'!'!-#_#Y!8!!!!!!!!!!!!!!!!!!!!!!!!!!!!!!!!!!!!!!!!!!!!!!!!!!!!!!!!!!!!!!!!!!!!!!!!!!!!!!!!!!!!!!!!!!!!!!!!!!!!!!!!!!!!!!!!!!!!!!!!!!!!!!!!!!!!!!!!!!!!!!!!!!!!!!!!!!!!!!!!!!!!!!!!!!!!!!!!!!!!!!!!!!!!!8!9%1!.!'!'!'!'!'!'!'!'!'!'!'!'!'!'!'!'!'!'!'!'!'!'!'!'!'!'!'!'!'!'!'!'!'!'!'!'!'!'!'!'!'!'!'!'!'!'!'!'!'!'!'!'!'!'!'!'!'!'!'!'!'!'!'!'!'!'!'!'!'!'!'!'!'!'!'!'!'",
"!'!'!'!'!'!'!'!'!'!'!'!'!'!'!'!'!'!'!'!'!'!'!'!'!'!'!'!'!'!'!'!'!'!'!'!'!'!'!'!'!'!'!'!'!'!'!'!'!'!'!'!'!'!'!'!'!'!'!'!'!'!'!'!'!'!'!'!'!'!'!'!'!'!'!'!'!'!-#.%N!#!!!!!!!!!!!!!!!!!!!!!!!!!!!!!!!!!!!!!!!!!!!!!!!!!!!!!!!!!!!!!!!!!!!!!!!!!!!!!!!!!!!!!!!!!!!!!!!!!!!!!!!!!!!!!!!!!!!!!!!!!!!!!!!!!!!!!!!!!!!!!!!!!!!!!!!!!!!!!!!!!!!!!!!!!!!!!!!!!!!!!!!!!!!!!=%.$m!5!'!'!'!'!'!'!'!'!'!'!'!'!'!'!'!'!'!'!'!'!'!'!'!'!'!'!'!'!'!'!'!'!'!'!'!'!'!'!'!'!'!'!'!'!'!'!'!'!'!'!'!'!'!'!'!'!'!'!'!'!'!'!'!'!'!'!'!'!'!'!'!'!'!'!'!'!'",
"!'!'!'!'!'!'!'!'!'!'!'!'!'!'!'!'!'!'!'!'!'!'!'!'!'!'!'!'!'!'!'!'!'!'!'!'!'!'!'!'!'!'!'!'!'!'!'!'!'!'!'!'!'!'!'!'!'!'!'!'!'!'!'!'!'!'!'!'!'!'!'!'!'!'!'!'!'!'!.$>!}!8!!!!!!!!!!!!!!!!!!!!!!!!!!!!!!!!!!!!!!!!!!!!!!!!!!!!!!!!!!!!!!!!!!!!!!!!!!!!!!!!!!!!!!!!!!!!!!!!!!!!!!!!!!!!!!!!!!!!!!!!!!!!!!!!!!!!!!!!!!!!!!!!!!!!!!!!!!!!!!!!!!!!!!!!!!!!!!!!!!!!!!!!!8!L%J!.!'!'!'!'!'!'!'!'!'!'!'!'!'!'!'!'!'!'!'!'!'!'!'!'!'!'!'!'!'!'!'!'!'!'!'!'!'!'!'!'!'!'!'!'!'!'!'!'!'!'!'!'!'!'!'!'!'!'!'!'!'!'!'!'!'!'!'!'!'!'!'!'!'!'!'!'!'!'",
"!'!'!'!'!'!'!'!'!'!'!'!'!'!'!'!'!'!'!'!'!'!'!'!'!'!'!'!'!'!'!'!'!'!'!'!'!'!'!'!'!'!'!'!'!'!'!'!'!'!'!'!'!'!'!'!'!'!'!'!'!'!'!'!'!'!'!'!'!'!'!'!'!'!'!'!'!'!''j#B#C!G!!!!!!!!!!!!!!!!!!!!!!!!!!!!!!!!!!!!!!!!!!!!!!!!!!!!!!!!!!!!!!!!!!!!!!!!!!!!!!!!!!!!!!!!!!!!!!!!!!!!!!!!!!!!!!!!!!!!!!!!!!!!!!!!!!!!!!!!!!!!!!!!!!!!!!!!!!!!!!!!!!!!!!!!!!!!!!!!!!!!!!!!!G%b#E!r!'!'!'!'!'!'!'!'!'!'!'!'!'!'!'!'!'!'!'!'!'!'!'!'!'!'!'!'!'!'!'!'!'!'!'!'!'!'!'!'!'!'!'!'!'!'!'!'!'!'!'!'!'!'!'!'!'!'!'!'!'!'!'!'!'!'!'!'!'!'!'!'!'!'!'!'!'!'",
"!'!'!'!'!'!'!'!'!'!'!'!'!'!'!'!'!'!'!'!'!'!'!'!'!'!'!'!'!'!'!'!'!'!'!'!'!'!'!'!'!'!'!'!'!'!'!'!'!'!'!'!'!'!'!'!'!'!'!'!'!'!'!'!'!'!'!'!'!'!'!'!'!'!'!'!'!'!'!N!'&S&G!!!!!!!!!!!!!!!!!!!!!!!!!!!!!!!!!!!!!!!!!!!!!!!!!!!!!!!!!!!!!!!!!!!!!!!!!!!!!!!!!!!!!!!!!!!!!!!!!!!!!!!!!!!!!!!!!!!!!!!!!!!!!!!!!!!!!!!!!!!!!!!!!!!!!!!!!!!!!!!!!!!!!!!!!!!!!!!!!!!!!!!!!#!>!{!.!'!'!'!'!'!'!'!'!'!'!'!'!'!'!'!'!'!'!'!'!'!'!'!'!'!'!'!'!'!'!'!'!'!'!'!'!'!'!'!'!'!'!'!'!'!'!'!'!'!'!'!'!'!'!'!'!'!'!'!'!'!'!'!'!'!'!'!'!'!'!'!'!'!'!'!'!'!'",
"!'!'!'!'!'!'!'!'!'!'!'!'!'!'!'!'!'!'!'!'!'!'!'!'!'!'!'!'!'!'!'!'!'!'!'!'!'!'!'!'!'!'!'!'!'!'!'!'!'!'!'!'!'!'!'!'!'!'!'!'!'!'!'!'!'!'!'!'!'!'!'!'!'!'!'!'!'!'!'!4'k&y!G!!!!!!!!!!!!!!!!!!!!!!!!!!!!!!!!!!!!!!!!!!!!!!!!!!!!!!!!!!!!!!!!!!!!!!!!!!!!!!!!!!!!!!!!!!!!!!!!!!!!!!!!!!!!!!!!!!!!!!!!!!!!!!!!!!!!!!!!!!!!!!!!!!!!!!!!!!!!!!!!!!!!!!!!!!!!!!!!!!!!!#!T&M!4!'!'!'!'!'!'!'!'!'!'!'!'!'!'!'!'!'!'!'!'!'!'!'!'!'!'!'!'!'!'!'!'!'!'!'!'!'!'!'!'!'!'!'!'!'!'!'!'!'!'!'!'!'!'!'!'!'!'!'!'!'!'!'!'!'!'!'!'!'!'!'!'!'!'!'!'!'!'!'",
"!'!'!'!'!'!'!'!'!'!'!'!'!'!'!'!'!'!'!'!'!'!'!'!'!'!'!'!'!'!'!'!'!'!'!'!'!'!'!'!'!'!'!'!'!'!'!'!'!'!'!'!'!'!'!'!'!'!'!'!'!'!'!'!'!'!'!'!'!'!'!'!'!'!'!'!'!'!'!'!.$h#/!G!!!!!!!!!!!!!!!!!!!!!!!!!!!!!!!!!!!!!!!!!!!!!!!!!!!!!!!!!!!!!!!!!!!!!!!!!!!!!!!!!!!!!!!!!!!!!!!!!!!!!!!!!!!!!!!!!!!!!!!!!!!!!!!!!!!!!!!!!!!!!!!!!!!!!!!!!!!!!!!!!!!!!!!!!!!!!!!!!!!!!G'l#1!.!'!'!'!'!'!'!'!'!'!'!'!'!'!'!'!'!'!'!'!'!'!'!'!'!'!'!'!'!'!'!'!'!'!'!'!'!'!'!'!'!'!'!'!'!'!'!'!'!'!'!'!'!'!'!'!'!'!'!'!'!'!'!'!'!'!'!'!'!'!'!'!'!'!'!'!'!'!'!'",
"!'!'!'!'!'!'!'!'!'!'!'!'!'!'!'!'!'!'!'!'!'!'!'!'!'!'!'!'!'!'!'!'!'!'!'!'!'!'!'!'!'!'!'!'!'!'!'!'!'!'!'!'!'!'!'!'!'!'!'!'!'!'!'!'!'!'!'!'!'!'!'!'!'!'!'!'!'!'!'!'!-!d$4!#!!!!!!!!!!!!!!!!!!!!!!!!!!!!!!!!!!!!!!!!!!!!!!!!!!!!!!!!!!!!!!!!!!!!!!!!!!!!!!!!!!!!!!!!!!!!!!!!!!!!!!!!!!!!!!!!!!!!!!!!!!!!!!!!!!!!!!!!!!!!!!!!!!!!!!!!!!!!!!!!!!!!!!!!!!!!!!!!!1!c&'!-!'!'!'!'!'!'!'!'!'!'!'!'!'!'!'!'!'!'!'!'!'!'!'!'!'!'!'!'!'!'!'!'!'!'!'!'!'!'!'!'!'!'!'!'!'!'!'!'!'!'!'!'!'!'!'!'!'!'!'!'!'!'!'!'!'!'!'!'!'!'!'!'!'!'!'!'!'!'!'!'",
"!'!'!'!'!'!'!'!'!'!'!'!'!'!'!'!'!'!'!'!'!'!'!'!'!'!'!'!'!'!'!'!'!'!'!'!'!'!'!'!'!'!'!'!'!'!'!'!'!'!'!'!'!'!'!'!'!'!'!'!'!'!'!'!'!'!'!'!'!'!'!'!'!'!'!'!'!'!'!'!'!-!i&&!G!!!!!!!!!!!!!!!!!!!!!!!!!!!!!!!!!!!!!!!!!!!!!!!!!!!!!!!!!!!!!!!!!!!!!!!!!!!!!!!!!!!!!!!!!!!!!!!!!!!!!!!!!!!!!!!!!!!!!!!!!!!!!!!!!!!!!!!!!!!!!!!!!!!!!!!!!!!!!!!!!!!!!!!!!!!!!!!!!G#X!O!-!'!'!'!'!'!'!'!'!'!'!'!'!'!'!'!'!'!'!'!'!'!'!'!'!'!'!'!'!'!'!'!'!'!'!'!'!'!'!'!'!'!'!'!'!'!'!'!'!'!'!'!'!'!'!'!'!'!'!'!'!'!'!'!'!'!'!'!'!'!'!'!'!'!'!'!'!'!'!'!'",
"!'!'!'!'!'!'!'!'!'!'!'!'!'!'!'!'!'!'!'!'!'!'!'!'!'!'!'!'!'!'!'!'!'!'!'!'!'!'!'!'!'!'!'!'!'!'!'!'!'!'!'!'!'!'!'!'!'!'!'!'!'!'!'!'!'!'!'!'!'!'!'!'!'!'!'!'!'!'!'!'!'!.%s'm!8!!!!!!!!!!!!!!!!!!!!!!!!!!!!!!!!!!!!!!!!!!!!!!!!!!!!!!!!!!!!!!!!!!!!!!!!!!!!!!!!!!!!!!!!!!!!!!!!!!!!!!!!!!!!!!!!!!!!!!!!!!!!!!!!!!!!!!!!!!!!!!!!!!!!!!!!!!!!!!!!!!!!!!!!!!!!!8!K%@!'!'!'!'!'!'!'!'!'!'!'!'!'!'!'!'!'!'!'!'!'!'!'!'!'!'!'!'!'!'!'!'!'!'!'!'!'!'!'!'!'!'!'!'!'!'!'!'!'!'!'!'!'!'!'!'!'!'!'!'!'!'!'!'!'!'!'!'!'!'!'!'!'!'!'!'!'!'!'!'!'!'",
"!'!'!'!'!'!'!'!'!'!'!'!'!'!'!'!'!'!'!'!'!'!'!'!'!'!'!'!'!'!'!'!'!'!'!'!'!'!'!'!'!'!'!'!'!'!'!'!'!'!'!'!'!'!'!'!'!'!'!'!'!'!'!'!'!'!'!'!'!'!'!'!'!'!'!'!'!'!'!'!'!'!4!D!x!=!!!!!!!!!!!!!!!!!!!!!!!!!!!!!!!!!!!!!!!!!!!!!!!!!!!!!!!!!!!!!!!!!!!!!!!!!!!!!!!!!!!!!!!!!!!!!!!!!!!!!!!!!!!!!!!!!!!!!!!!!!!!!!!!!!!!!!!!!!!!!!!!!!!!!!!!!!!!!!!!!!!!!!!!!!!!!G'n$B!4!'!'!'!'!'!'!'!'!'!'!'!'!'!'!'!'!'!'!'!'!'!'!'!'!'!'!'!'!'!'!'!'!'!'!'!'!'!'!'!'!'!'!'!'!'!'!'!'!'!'!'!'!'!'!'!'!'!'!'!'!'!'!'!'!'!'!'!'!'!'!'!'!'!'!'!'!'!'!'!'!'",
"!'!'!'!'!'!'!'!'!'!'!'!'!'!'!'!'!'!'!'!'!'!'!'!'!'!'!'!'!'!'!'!'!'!'!'!'!'!'!'!'!'!'!'!'!'!'!'!'!'!'!'!'!'!'!'!'!'!'!'!'!'!'!'!'!'!'!'!'!'!'!'!'!'!'!'!'!'!'!'!'!'!'!'%;!8!!!!!!!!!!!!!!!!!!!!!!!!!!!!!!!!!!!!!!!!!!!!!!!!!!!!!!!!!!!!!!!!!!!!!!!!!!!!!!!!!!!!!!!!!!!!!!!!!!!!!!!!!!!!!!!!!!!!!!!!!!!!!!!!!!!!!!!!!!!!!!!!!!!!!!!!!!!!!!!!!!!!!!!!!!!!!##v!{!.!'!'!'!'!'!'!'!'!'!'!'!'!'!'!'!'!'!'!'!'!'!'!'!'!'!'!'!'!'!'!'!'!'!'!'!'!'!'!'!'!'!'!'!'!'!'!'!'!'!'!'!'!'!'!'!'!'!'!'!'!'!'!'!'!'!'!'!'!'!'!'!'!'!'!'!'!'!'!'!'!'",
"!'!'!'!'!'!'!'!'!'!'!'!'!'!'!'!'!'!'!'!'!'!'!'!'!'!'!'!'!'!'!'!'!'!'!'!'!'!'!'!'!'!'!'!'!'!'!'!'!'!'!'!'!'!'!'!'!'!'!'!'!'!'!'!'!'!'!'!'!'!'!'!'!'!'!'!'!'!'!'!'!'!'!4'O'&!G!!!!!!!!!!!!!!!!!!!!!!!!!!!!!!!!!!!!!!!!!!!!!!!!!!!!!!!!!!!!!!!!!!!!!!!!!!!!!!!!!!!!!!!!!!!!!!!!!!!!!!!!!!!!!!!!!!!!!!!!!!!!!!!!!!!!!!!!!!!!!!!!!!!!!!!!!!!!!!!!!!!!!!!!!='o&L!4!'!'!'!'!'!'!'!'!'!'!'!'!'!'!'!'!'!'!'!'!'!'!'!'!'!'!'!'!'!'!'!'!'!'!'!'!'!'!'!'!'!'!'!'!'!'!'!'!'!'!'!'!'!'!'!'!'!'!'!'!'!'!'!'!'!'!'!'!'!'!'!'!'!'!'!'!'!'!'!'!'!'",
"!'!'!'!'!'!'!'!'!'!'!'!'!'!'!'!'!'!'!'!'!'!'!'!'!'!'!'!'!'!'!'!'!'!'!'!'!'!'!'!'!'!'!'!'!'!'!'!'!'!'!'!'!'!'!'!'!'!'!'!'!'!'!'!'!'!'!'!'!'!'!'!'!'!'!'!'!'!'!'!'!'!'!.!v%'!G!!!!!!!!!!!!!!!!!!!!!!!!!!!!!!!!!!!!!!!!!!!!!!!!!!!!!!!!!!!!!!!!!!!!!!!!!!!!!!!!!!!!!!!!!!!!!!!!!!!!!!!!!!!!!!!!!!!!!!!!!!!!!!!!!!!!!!!!!!!!!!!!!!!!!!!!!!!!!!!!!!!!!!!!!G$M!m!.!'!'!'!'!'!'!'!'!'!'!'!'!'!'!'!'!'!'!'!'!'!'!'!'!'!'!'!'!'!'!'!'!'!'!'!'!'!'!'!'!'!'!'!'!'!'!'!'!'!'!'!'!'!'!'!'!'!'!'!'!'!'!'!'!'!'!'!'!'!'!'!'!'!'!'!'!'!'!'!'!'!'",
"!'!'!'!'!'!'!'!'!'!'!'!'!'!'!'!'!'!'!'!'!'!'!'!'!'!'!'!'!'!'!'!'!'!'!'!'!'!'!'!'!'!'!'!'!'!'!'!'!'!'!'!'!'!'!'!'!'!'!'!'!'!'!'!'!'!'!'!'!'!'!'!'!'!'!'!'!'!'!'!'!'!'!'!4#z%c!#!!!!!!!!!!!!!!!!!!!!!!!!!!!!!!!!!!!!!!!!!!!!!!!!!!!!!!!!!!!!!!!!!!!!!!!!!!!!!!!!!!!!!!!!!!!!!!!!!!!!!!!!!!!!!!!!!!!!!!!!!!!!!!!!!!!!!!!!!!!!!!!!!!!!!!!!!!!!!!!!!!!!!##y$i!4!'!'!'!'!'!'!'!'!'!'!'!'!'!'!'!'!'!'!'!'!'!'!'!'!'!'!'!'!'!'!'!'!'!'!'!'!'!'!'!'!'!'!'!'!'!'!'!'!'!'!'!'!'!'!'!'!'!'!'!'!'!'!'!'!'!'!'!'!'!'!'!'!'!'!'!'!'!'!'!'!'!'!'",
"!'!'!'!'!'!'!'!'!'!'!'!'!'!'!'!'!'!'!'!'!'!'!'!'!'!'!'!'!'!'!'!'!'!'!'!'!'!'!'!'!'!'!'!'!'!'!'!'!'!'!'!'!'!'!'!'!'!'!'!'!'!'!'!'!'!'!'!'!'!'!'!'!'!'!'!'!'!'!'!'!'!'!'!&!h%/!G!!!!!!!!!!!!!!!!!!!!!!!!!!!!!!!!!!!!!!!!!!!!!!!!!!!!!!!!!!!!!!!!!!!!!!!!!!!!!!!!!!!!!!!!!!!!!!!!!!!!!!!!!!!!!!!!!!!!!!!!!!!!!!!!!!!!!!!!!!!!!!!!!!!!!!!!!!!!!!!!!!!!!G!X#a!-!'!'!'!'!'!'!'!'!'!'!'!'!'!'!'!'!'!'!'!'!'!'!'!'!'!'!'!'!'!'!'!'!'!'!'!'!'!'!'!'!'!'!'!'!'!'!'!'!'!'!'!'!'!'!'!'!'!'!'!'!'!'!'!'!'!'!'!'!'!'!'!'!'!'!'!'!'!'!'!'!'!'!'",
"!'!'!'!'!'!'!'!'!'!'!'!'!'!'!'!'!'!'!'!'!'!'!'!'!'!'!'!'!'!'!'!'!'!'!'!'!'!'!'!'!'!'!'!'!'!'!'!'!'!'!'!'!'!'!'!'!'!'!'!'!'!'!'!'!'!'!'!'!'!'!'!'!'!'!'!'!'!'!'!'!'!'!'!'!.!V!9!8!!!!!!!!!!!!!!!!!!!!!!!!!!!!!!!!!!!!!!!!!!!!!!!!!!!!!!!!!!!!!!!!!!!!!!!!!!!!!!!!!!!!!!!!!!!!!!!!!!!!!!!!!!!!!!!!!!!!!!!!!!!!!!!!!!!!!!!!!!!!!!!!!!!!!!!!!!!!!!!!!8!F'p!N!'!'!'!'!'!'!'!'!'!'!'!'!'!'!'!'!'!'!'!'!'!'!'!'!'!'!'!'!'!'!'!'!'!'!'!'!'!'!'!'!'!'!'!'!'!'!'!'!'!'!'!'!'!'!'!'!'!'!'!'!'!'!'!'!'!'!'!'!'!'!'!'!'!'!'!'!'!'!'!'!'!'!'!'",
"!'!'!'!'!'!'!'!'!'!'!'!'!'!'!'!'!'!'!'!'!'!'!'!'!'!'!'!'!'!'!'!'!'!'!'!'!'!'!'!'!'!'!'!'!'!'!'!'!'!'!'!'!'!'!'!'!'!'!'!'!'!'!'!'!'!'!'!'!'!'!'!'!'!'!'!'!'!'!'!'!'!'!'!'!4#U$~!=!!!!!!!!!!!!!!!!!!!!!!!!!!!!!!!!!!!!!!!!!!!!!!!!!!!!!!!!!!!!!!!!!!!!!!!!!!!!!!!!!!!!!!!!!!!!!!!!!!!!!!!!!!!!!!!!!!!!!!!!!!!!!!!!!!!!!!!!!!!!!!!!!!!!!!!!!!!!!!!!!G!y!D!4!'!'!'!'!'!'!'!'!'!'!'!'!'!'!'!'!'!'!'!'!'!'!'!'!'!'!'!'!'!'!'!'!'!'!'!'!'!'!'!'!'!'!'!'!'!'!'!'!'!'!'!'!'!'!'!'!'!'!'!'!'!'!'!'!'!'!'!'!'!'!'!'!'!'!'!'!'!'!'!'!'!'!'!'",
"!'!'!'!'!'!'!'!'!'!'!'!'!'!'!'!'!'!'!'!'!'!'!'!'!'!'!'!'!'!'!'!'!'!'!'!'!'!'!'!'!'!'!'!'!'!'!'!'!'!'!'!'!'!'!'!'!'!'!'!'!'!'!'!'!'!'!'!'!'!'!'!'!'!'!'!'!'!'!'!'!'!'!'!'!N!{#h!8!8!!!!!!!!!!!!!!!!!!!!!!!!!!!!!!!!!!!!!!!!!!!!!!!!!!!!!!!!!!!!!!!!!!!!!!!!!!!!!!!!!!!!!!!!!!!!!!!!!!!!!!!!!!!!!!!!!!!!!!!!!!!!!!!!!!!!!!!!!!!!!!!!!!!!!!!!!!!!!8!8!J&K!.!'!'!'!'!'!'!'!'!'!'!'!'!'!'!'!'!'!'!'!'!'!'!'!'!'!'!'!'!'!'!'!'!'!'!'!'!'!'!'!'!'!'!'!'!'!'!'!'!'!'!'!'!'!'!'!'!'!'!'!'!'!'!'!'!'!'!'!'!'!'!'!'!'!'!'!'!'!'!'!'!'!'!'!'",
"!'!'!'!'!'!'!'!'!'!'!'!'!'!'!'!'!'!'!'!'!'!'!'!'!'!'!'!'!'!'!'!'!'!'!'!'!'!'!'!'!'!'!'!'!'!'!'!'!'!'!'!'!'!'!'!'!'!'!'!'!'!'!'!'!'!'!'!'!'!'!'!'!'!'!'!'!'!'!'!'!'!'!'!'!'!r'q#D!=!!!!!!!!!!!!!!!!!!!!!!!!!!!!!!!!!!!!!!!!!!!!!!!!!!!!!!!!!!!!!!!!!!!!!!!!!!!!!!!!!!!!!!!!!!!!!!!!!!!!!!!!!!!!!!!!!!!!!!!!!!!!!!!!!!!!!!!!!!!!!!!!!!!!!!!!!!!!!='r'e!r!'!'!'!'!'!'!'!'!'!'!'!'!'!'!'!'!'!'!'!'!'!'!'!'!'!'!'!'!'!'!'!'!'!'!'!'!'!'!'!'!'!'!'!'!'!'!'!'!'!'!'!'!'!'!'!'!'!'!'!'!'!'!'!'!'!'!'!'!'!'!'!'!'!'!'!'!'!'!'!'!'!'!'!'!'",
"!'!'!'!'!'!'!'!'!'!'!'!'!'!'!'!'!'!'!'!'!'!'!'!'!'!'!'!'!'!'!'!'!'!'!'!'!'!'!'!'!'!'!'!'!'!'!'!'!'!'!'!'!'!'!'!'!'!'!'!'!'!'!'!'!'!'!'!'!'!'!'!'!'!'!'!'!'!'!'!'!'!'!'!'!'!.$.$0!G!!!!!!!!!!!!!!!!!!!!!!!!!!!!!!!!!!!!!!!!!!!!!!!!!!!!!!!!!!!!!!!!!!!!!!!!!!!!!!!!!!!!!!!!!!!!!!!!!!!!!!!!!!!!!!!!!!!!!!!!!!!!!!!!!!!!!!!!!!!!!!!!!!!!!!!!!!!!!G#<$h!.!'!'!'!'!'!'!'!'!'!'!'!'!'!'!'!'!'!'!'!'!'!'!'!'!'!'!'!'!'!'!'!'!'!'!'!'!'!'!'!'!'!'!'!'!'!'!'!'!'!'!'!'!'!'!'!'!'!'!'!'!'!'!'!'!'!'!'!'!'!'!'!'!'!'!'!'!'!'!'!'!'!'!'!'!'"
};
