/* XPM */
static char *verge_xpm[] = {
"32 32 145 2",
"!! c #34BDE2",
"!# c #34C3E7",
"!$ c #324574",
"!% c #310032",
"!& c #310439",
"!' c #310338",
"!( c #310B3F",
"!) c #34A3CA",
"!* c #34C1E5",
"!+ c #34A3CB",
"!, c #324372",
"!- c #3387B0",
"!. c #310236",
"!/ c #310033",
"!0 c #336793",
"!1 c #34C5E9",
"!2 c #336894",
"!3 c #310135",
"!4 c #3385AF",
"!5 c #34C3E8",
"!6 c #34BEE3",
"!7 c #34BBE0",
"!8 c #32285A",
"!9 c #312153",
"!: c #34B7DD",
"!; c #34B8DD",
"!< c #312154",
"!= c #322658",
"!> c #34BADF",
"!? c #33719D",
"!@ c #310134",
"!A c #3381AB",
"!B c #34C4E8",
"!C c #3382AC",
"!D c #336F9B",
"!E c #34BFE4",
"!F c #34B0D6",
"!G c #31174B",
"!H c #310136",
"!I c #323768",
"!J c #34C0E5",
"!K c #323868",
"!L c #310237",
"!M c #311649",
"!N c #34AFD5",
"!O c #325A88",
"!P c #31073B",
"!Q c #3399C1",
"!R c #34C2E6",
"!S c #339AC2",
"!T c #325886",
"!U c #34A1C8",
"!V c #325180",
"!W c #34C4E9",
"!X c #325280",
"!Y c #310A3E",
"!Z c #34A0C7",
"![ c #34C1E6",
"!] c #34BFE3",
"!^ c #325B88",
"!_ c #324373",
"!` c #311347",
"!a c #34ACD3",
"!b c #34ADD3",
"!c c #324171",
"!d c #34C2E7",
"!e c #325C89",
"!f c #310B40",
"!g c #34A5CC",
"!h c #338EB7",
"!i c #310337",
"!j c #310339",
"!k c #336D99",
"!l c #336E99",
"!m c #338DB6",
"!n c #34A6CD",
"!o c #310C40",
"!p c #325F8C",
"!q c #322E5F",
"!r c #310034",
"!s c #322C5E",
"!t c #32608D",
"!u c #311B4E",
"!v c #34B3D9",
"!w c #3379A4",
"!x c #310235",
"!y c #338DB7",
"!z c #3377A2",
"!{ c #34B4DA",
"!| c #311C4F",
"!} c #324070",
"!~ c #3378A3",
"#! c #33618E",
"## c #31053A",
"#$ c #31063A",
"#% c #33608D",
"#& c #322D5E",
"#' c #310E42",
"#( c #310D41",
"#) c #324A79",
"#* c #324978",
"#+ c #324271",
"#, c #3395BD",
"#- c #310539",
"#. c #3394BC",
"#/ c #34A0C8",
"#0 c #310A3F",
"#1 c #323465",
"#2 c #323364",
"#3 c #325986",
"#4 c #3380AA",
"#5 c #337EA9",
"#6 c #34AFD6",
"#7 c #31164A",
"#8 c #33709B",
"#9 c #312053",
"#: c #34B7DC",
"#; c #33709C",
"#< c #336995",
"#= c #34BAE0",
"#> c #322759",
"#? c #3386B0",
"#@ c #34C0E4",
"#A c #34ABD1",
"#B c #311246",
"#C c #311145",
"#D c #34AAD1",
"#E c #323A6B",
"#F c #32507F",
"#G c #323B6B",
"#H c #349BC3",
"#I c #31083C",
"#J c #349AC2",
"#K c #339BC3",
"#L c #32517F",
"#M c #323A6A",
"#N c #311245",
"#O c #3386AF",
"#P c #34ABD2",
"#Q c #336895",
"#R c #312255",
"#S c #336A96",
"#T c #337FAA",
"#U c #34B4D9",
"#V c #3394BD",
"!!!!!!!#!$!%!&!&!&!'!(!)!*!!!!!!!!!!!!!*!+!(!'!&!&!&!%!,!#!!!!!!",
"!!!!!!!#!-!.!&!&!&!&!/!0!1!!!!!!!!!!!!!1!2!/!&!&!&!&!3!4!5!!!!!!",
"!!!!!!!6!7!8!3!&!&!&!3!9!:!6!!!!!!!!!6!;!<!3!&!&!&!3!=!>!6!!!!!!",
"!!!!!!!!!1!?!%!&!&!&!&!@!A!B!!!!!!!!!B!C!@!&!&!&!&!%!D!1!!!!!!!!",
"!!!!!!!!!E!F!G!H!&!&!&!/!I!J!!!!!!!!!*!K!/!&!&!&!L!M!N!E!!!!!!!!",
"!!!!!!!!!!!1!O!%!&!&!&!'!P!Q!R!!!!!R!S!P!'!&!&!&!%!T!1!!!!!!!!!!",
"!6!!!!!!!!!*!U!(!'!&!&!&!%!V!W!!!!!1!X!%!&!&!&!'!Y!Z![!!!!!!!!!]",
"!^!R!!!!!!!!!#!_!/!&!&!&!L!`!a!E!E!b!`!L!&!&!&!/!c!d!!!!!!!!!R!e",
"!f!g!J!!!!!!!#!h!i!j!&!&!&!%!k!1!1!l!%!&!&!&!&!i!m!#!!!!!!!J!n!o",
"!%!p!1!!!!!!!6!!!q!r!&!&!&!3!=!7!7!=!3!&!&!&!r!s!!!6!!!!!!!1!t!%",
"!H!u!v!E!!!!!!!1!w!/!&!&!&!&!x!y!h!.!&!&!&!&!/!z!1!!!!!!!E!v!u!H",
"!&!/!z!1!!!!!!!]!{!|!H!&!&!&!/!}!}!/!&!&!&!H!u!v!E!!!!!!!1!~!/!&",
"!&!r!s!!!6!!!!!!!1#!!%!&!&!&!&###$!&!&!&!&!%#%!1!!!!!!!6!!#&!r!&",
"!&!j!i!m!#!!!!!!!J!n#'!L!&!&!&!j!j!&!&!&!L#(!g!J!!!!!!!#!m!i!j!&",
"!&!&!/!c!d!!!!!!!!!B#)!%!&!&!&!&!&!&!&!&!%#*!B!!!!!!!!!##+!/!&!&",
"!&!&!'!Y!Z![!!!!!!!d#,#-!'!&!&!&!&!&!&!'#-#.!d!!!!!!![#/#0!'!&!&",
"!&!&!&!%!T!1!!!!!!!!!E#1!r!&!&!&!&!&!&!r#2!E!!!!!!!!!1#3!%!&!&!&",
"!&!&!&!L!M!N!E!!!!!!!B#4!@!&!&!&!&!&!&!r#5!B!!!!!!!E#6#7!L!&!&!&",
"!&!&!&!&!%#8!1!!!!!!!6!:!<!3!&!&!&!&!H#9#:!6!!!!!!!1#;!%!&!&!&!&",
"!&!&!&!&!3!=!>!6!!!!!!!1#<!%!&!&!&!&!%!2!1!!!!!!!6#=#>!3!&!&!&!&",
"!&!&!&!&!&!3#?!B!!!!!!#@#A#B!L!&!&!L#C#D!J!!!!!!!5!-!x!&!&!&!&!&",
"!&!&!&!&!&!/#E![!!!!!!!!!W!V!%!&!&!%#F!W!!!!!!!!![#G!/!&!&!&!&!&",
"!&!&!&!&!&!'!P!S!R!!!!!!!R#H#I!'!'!P#J!R!!!!!!!R#K#I!'!&!&!&!&!&",
"!&!&!&!&!&!&!%#L!W!!!!!!!!![#G!/!/#M![!!!!!!!!!1!V!%!&!&!&!&!&!&",
"!&!&!&!&!&!&!L#N#A#@!!!!!!!5#?!3!3#O!B!!!!!!#@#P#B!L!&!&!&!&!&!&",
"!&!&!&!&!&!&!&!%#Q!1!!!!!!!6!>#R!<!>!6!!!!!!!1#<!%!&!&!&!&!&!&!&",
"!&!&!&!&!&!&!&!3!9!:!6!!!!!!!1#S#S!1!!!!!!!6!:!<!3!&!&!&!&!&!&!&",
"!&!&!&!&!&!&!&!&!r#T!B!!!!!!!6#U!v!6!!!!!!!B#4!@!&!&!&!&!&!&!&!&",
"!&!&!&!&!&!&!&!&!r#1!E!!!!!!!!!6!6!!!!!!!!!E#1!r!&!&!&!&!&!&!&!&",
"!&!&!&!&!&!&!&!&!'#-#V!d!!!!!!!!!!!!!!!!!d#,#-!'!&!&!&!&!&!&!&!&",
"!&!&!&!&!&!&!&!&!&!%#*!#!!!!!!!!!!!!!!!!!##)!%!&!&!&!&!&!&!&!&!&",
"!&!&!&!&!&!&!&!&!&!L#B!a!E!!!!!!!!!!!!!E!b#B!L!&!&!&!&!&!&!&!&!&"
};
