/* XPM */
static char *verge_xpm[] = {
"128 128 358 2",
"!! c #34BDE2",
"!# c #34BFE3",
"!$ c #34B1D7",
"!% c #312254",
"!& c #310135",
"!' c #310439",
"!( c #310034",
"!) c #323869",
"!* c #34BDE3",
"!+ c #34BEE3",
"!, c #323B6B",
"!- c #310136",
"!. c #311B4F",
"!/ c #34ADD3",
"!0 c #34BFE4",
"!1 c #34C2E7",
"!2 c #335B89",
"!3 c #310033",
"!4 c #310238",
"!5 c #310E42",
"!6 c #339BC3",
"!7 c #34C1E6",
"!8 c #34C1E5",
"!9 c #339DC5",
"!: c #311044",
"!; c #310237",
"!< c #325280",
"!= c #349EC6",
"!> c #325986",
"!? c #34C3E7",
"!@ c #34C3E8",
"!A c #325C89",
"!B c #310338",
"!C c #310B3F",
"!D c #3397C0",
"!E c #34C2E6",
"!F c #324674",
"!G c #311C4F",
"!H c #34AFD5",
"!I c #311E50",
"!J c #323E6E",
"!K c #338DB6",
"!L c #31063B",
"!M c #33739F",
"!N c #34C4E8",
"!O c #3375A0",
"!P c #310438",
"!Q c #3385AF",
"!R c #34BADF",
"!S c #323162",
"!T c #310035",
"!U c #322F60",
"!V c #34B9DE",
"!W c #312A5B",
"!X c #34B6DC",
"!Y c #3378A3",
"!Z c #31063A",
"![ c #338CB5",
"!] c #338DB7",
"!^ c #31073B",
"!_ c #33709C",
"!` c #312053",
"!a c #324574",
"!b c #34C0E5",
"!c c #324877",
"!d c #311A4E",
"!e c #34ACD2",
"!f c #34C0E4",
"!g c #33638F",
"!h c #34A0C8",
"!i c #34A2C9",
"!j c #311145",
"!k c #325987",
"!l c #34A3CA",
"!m c #311246",
"!n c #325F8C",
"!o c #33618E",
"!p c #324C7B",
"!q c #321F51",
"!r c #34B0D6",
"!s c #322053",
"!t c #324473",
"!u c #34BEE2",
"!v c #3392BA",
"!w c #31083D",
"!x c #310236",
"!y c #3379A4",
"!z c #337CA7",
"!{ c #310339",
"!| c #338BB4",
"!} c #34BCE1",
"!~ c #323768",
"#! c #323364",
"## c #34BBE0",
"#$ c #323667",
"#% c #323061",
"#& c #34B9DF",
"#' c #337EA8",
"#( c #31083C",
"#) c #3391BA",
"#* c #3393BC",
"#+ c #31093D",
"#, c #3376A1",
"#- c #34B3D9",
"#. c #312456",
"#/ c #324F7D",
"#0 c #311F52",
"#1 c #326995",
"#2 c #311447",
"#3 c #34A4CC",
"#4 c #34A6CD",
"#5 c #311548",
"#6 c #310137",
"#7 c #32618E",
"#8 c #34A8CF",
"#9 c #31164A",
"#: c #336592",
"#; c #336894",
"#< c #325180",
"#= c #34B5DA",
"#> c #312658",
"#? c #324B7A",
"#@ c #3398C0",
"#A c #337FAA",
"#B c #3382AC",
"#C c #3392BB",
"#D c #323D6E",
"#E c #32396A",
"#F c #323B6C",
"#G c #323566",
"#H c #3384AE",
"#I c #310A3E",
"#J c #3496BE",
"#K c #3498C1",
"#L c #337DA8",
"#M c #34B7DC",
"#N c #322A5C",
"#O c #325381",
"#P c #325583",
"#Q c #312557",
"#R c #310134",
"#S c #311649",
"#T c #34A8CE",
"#U c #34A9D0",
"#V c #31184B",
"#W c #336995",
"#X c #34BFE5",
"#Y c #34ACD3",
"#Z c #336C98",
"#[ c #336E9A",
"#] c #34A7CE",
"#^ c #31295A",
"#_ c #34B5DB",
"#` c #312A5C",
"#a c #349DC5",
"#b c #3383AE",
"#c c #3386B0",
"#d c #3398BF",
"#e c #323F6F",
"#f c #324171",
"#g c #323D6D",
"#h c #33A2CA",
"#i c #310C41",
"#j c #349AC2",
"#k c #349CC4",
"#l c #310D41",
"#m c #33A5CC",
"#n c #323E6F",
"#o c #325785",
"#p c #325A87",
"#q c #324271",
"#r c #31073C",
"#s c #3390B9",
"#t c #34ADD4",
"#u c #311C50",
"#v c #324978",
"#w c #33719D",
"#x c #33749F",
"#y c #311A4D",
"#z c #34ABD2",
"#{ c #324C7A",
"#| c #33A2C9",
"#} c #32608D",
"#~ c #322D5E",
"$! c #34B8DD",
"$# c #322F61",
"$$ c #33A4CB",
"$% c #311346",
"$& c #338AB3",
"$' c #32628F",
"$( c #311E51",
"$) c #324474",
"$* c #324776",
"$+ c #34B0D7",
"$, c #310F43",
"$- c #349FC6",
"$. c #34A1C8",
"$/ c #31053A",
"$0 c #3379A3",
"$1 c #325E8B",
"$2 c #312153",
"$3 c #3377A3",
"$4 c #338CB6",
"$5 c #324372",
"$6 c #34B4D9",
"$7 c #3377A2",
"$8 c #324675",
"$9 c #349DC4",
"$: c #336793",
"$; c #323263",
"$< c #311549",
"$= c #338FB8",
"$> c #34A2CA",
"$? c #324979",
"$@ c #3497BF",
"$A c #310A3F",
"$B c #34A5CC",
"$C c #311347",
"$D c #33729D",
"$E c #323C6C",
"$F c #326390",
"$G c #326692",
"$H c #322C5E",
"$I c #3385AE",
"$J c #34B2D8",
"$K c #34B4DA",
"$L c #323C6D",
"$M c #32295B",
"$N c #310337",
"$O c #3380AA",
"$P c #322557",
"$Q c #310C40",
"$R c #34ABD1",
"$S c #31194C",
"$T c #325886",
"$U c #325885",
"$V c #325A88",
"$W c #31174A",
"$X c #336794",
"$Y c #3397BF",
"$Z c #336B97",
"$[ c #322759",
"$] c #3389B3",
"$^ c #310539",
"$_ c #337FA9",
"$` c #34BBE1",
"$a c #322B5C",
"$b c #34B7DD",
"$c c #336F9A",
"$d c #3394BC",
"$e c #31093E",
"$f c #311B4E",
"$g c #324D7C",
"$h c #34A4CB",
"$i c #336490",
"$j c #312154",
"$k c #338BB5",
"$l c #337AA5",
"$m c #323062",
"$n c #34BAE0",
"$o c #3376A2",
"$p c #338EB7",
"$q c #322355",
"$r c #324876",
"$s c #326693",
"$t c #34A0C7",
"$u c #311043",
"$v c #311448",
"$w c #311146",
"$x c #34A3C9",
"$y c #335C8A",
"$z c #32507E",
"${ c #324A79",
"$| c #34AED4",
"$} c #311D50",
"$~ c #3395BD",
"%! c #33739E",
"%# c #322C5D",
"%$ c #3383AD",
"%% c #3388B2",
"%& c #323F6E",
"%' c #324170",
"%( c #336C99",
"%) c #34C4E7",
"%* c #339AC2",
"%+ c #325281",
"%, c #31194D",
"%- c #325584",
"%. c #335684",
"%/ c #32517F",
"%0 c #34AAD1",
"%1 c #31184C",
"%2 c #349BC2",
"%3 c #312558",
"%4 c #324272",
"%5 c #312759",
"%6 c #3389B2",
"%7 c #3381AB",
"%8 c #34BCE2",
"%9 c #322D5F",
"%: c #323A6B",
"%; c #3374A0",
"%< c #3395BE",
"%= c #324D7B",
"%> c #335E8B",
"%? c #335987",
"%@ c #34A5CD",
"%A c #336491",
"%B c #339CC4",
"%C c #336692",
"%D c #312255",
"%E c #337BA6",
"%F c #323565",
"%G c #312052",
"%H c #339EC6",
"%I c #336591",
"%J c #33608D",
"%K c #335C89",
"%L c #34A1C9",
"%M c #34AED5",
"%N c #311D4F",
"%O c #3393BB",
"%P c #323A6A",
"%Q c #322E60",
"%R c #3387B1",
"%S c #324070",
"%T c #322859",
"%U c #310B40",
"%V c #3399C1",
"%W c #34A9CF",
"%X c #335785",
"%Y c #31174B",
"%Z c #325684",
"%[ c #339BC2",
"%] c #336D99",
"%^ c #322658",
"%_ c #34BEE4",
"%` c #3382AB",
"%a c #312C5E",
"%b c #33729E",
"%c c #336F9B",
"%d c #3396BE",
"%e c #324E7D",
"%f c #325C8A",
"%g c #336390",
"%h c #349FC7",
"%i c #336693",
"%j c #34B2D7",
"%k c #338AB4",
"%l c #325D8B",
"%m c #322E5F",
"%n c #339DC4",
"%o c #33709B",
"%p c #3384AD",
"%q c #33A6CC",
"%r c #33A7CE",
"%s c #336895",
"%t c #322255",
"!!!!!!!!!!!!!!!!!!!!!!!!!!!!!#!$!%!&!'!'!'!'!'!'!'!'!'!'!'!'!'!'!'!'!'!'!'!'!'!'!'!'!(!)!*!!!!!!!!!!!!!!!!!!!!!!!!!!!!!!!!!!!!!!!!!!!!!!!!!!!!!!!!!!!!!!!!!!!!!!!!!!!!!+!,!(!'!'!'!'!'!'!'!'!'!'!'!'!'!'!'!'!'!'!'!'!'!'!'!'!-!.!/!0!!!!!!!!!!!!!!!!!!!!!!!!!!!!",
"!!!!!!!!!!!!!!!!!!!!!!!!!!!!!!!1!2!3!'!'!'!'!'!'!'!'!'!'!'!'!'!'!'!'!'!'!'!'!'!'!'!'!4!5!6!7!!!!!!!!!!!!!!!!!!!!!!!!!!!!!!!!!!!!!!!!!!!!!!!!!!!!!!!!!!!!!!!!!!!!!!!!!8!9!:!;!'!'!'!'!'!'!'!'!'!'!'!'!'!'!'!'!'!'!'!'!'!'!'!'!3!<!7!!!!!!!!!!!!!!!!!!!!!!!!!!!!!!",
"!!!!!!!!!!!!!!!!!!!!!!!!!!!!!!!7!=!5!;!'!'!'!'!'!'!'!'!'!'!'!'!'!'!'!'!'!'!'!'!'!'!'!'!3!>!?!!!!!!!!!!!!!!!!!!!!!!!!!!!!!!!!!!!!!!!!!!!!!!!!!!!!!!!!!!!!!!!!!!!!!!!!!@!A!3!'!'!'!'!'!'!'!'!'!'!'!'!'!'!'!'!'!'!'!'!'!'!'!'!B!C!D!E!!!!!!!!!!!!!!!!!!!!!!!!!!!!!!",
"!!!!!!!!!!!!!!!!!!!!!!!!!!!!!!!!!0!F!3!'!'!'!'!'!'!'!'!'!'!'!'!'!'!'!'!'!'!'!'!'!'!'!'!-!G!/!0!!!!!!!!!!!!!!!!!!!!!!!!!!!!!!!!!!!!!!!!!!!!!!!!!!!!!!!!!!!!!!!!!!!!!0!H!I!-!'!'!'!'!'!'!'!'!'!'!'!'!'!'!'!'!'!'!'!'!'!'!'!'!(!J!+!+!!!!!!!!!!!!!!!!!!!!!!!!!!!!!!",
"!!!!!!!!!!!!!!!!!!!!!!!!!!!!!!!!!1!K!L!B!'!'!'!'!'!'!'!'!'!'!'!'!'!'!'!'!'!'!'!'!'!'!'!'!&!M!N!!!!!!!!!!!!!!!!!!!!!!!!!!!!!!!!!!!!!!!!!!!!!!!!!!!!!!!!!!!!!!!!!!!!!N!O!&!'!'!'!'!'!'!'!'!'!'!'!'!'!'!'!'!'!'!'!'!'!'!'!'!B!P!Q!?!!!!!!!!!!!!!!!!!!!!!!!!!!!!!!!!",
"!!!!!!!!!!!!!!!!!!!!!!!!!!!!!!!!!+!R!S!(!'!'!'!'!'!'!'!'!'!'!'!'!'!'!'!'!'!'!'!'!'!'!'!'!T!U!V!+!!!!!!!!!!!!!!!!!!!!!!!!!!!!!!!!!!!!!!!!!!!!!!!!!!!!!!!!!!!!!!!!!+!R!S!(!'!'!'!'!'!'!'!'!'!'!'!'!'!'!'!'!'!'!'!'!'!'!'!'!T!W!X!+!!!!!!!!!!!!!!!!!!!!!!!!!!!!!!!!",
"!!!!!!!!!!!!!!!!!!!!!!!!!!!!!!!!!!!@!Y!-!'!'!'!'!'!'!'!'!'!'!'!'!'!'!'!'!'!'!'!'!'!'!'!'!B!Z![!?!!!!!!!!!!!!!!!!!!!!!!!!!!!!!!!!!!!!!!!!!!!!!!!!!!!!!!!!!!!!!!!!!1!]!^!B!'!'!'!'!'!'!'!'!'!'!'!'!'!'!'!'!'!'!'!'!'!'!'!'!&!_!@!!!!!!!!!!!!!!!!!!!!!!!!!!!!!!!!!!",
"!!!!!!!!!!!!!!!!!!!!!!!!!!!!!!!!!!!0!$!`!-!'!'!'!'!'!'!'!'!'!'!'!'!'!'!'!'!'!'!'!'!'!'!'!'!3!a!b!!!!!!!!!!!!!!!!!!!!!!!!!!!!!!!!!!!!!!!!!!!!!!!!!!!!!!!!!!!!!!!!!b!c!3!'!'!'!'!'!'!'!'!'!'!'!'!'!'!'!'!'!'!'!'!'!'!'!'!-!d!e!f!!!!!!!!!!!!!!!!!!!!!!!!!!!!!!!!!!",
"!!!!!!!!!!!!!!!!!!!!!!!!!!!!!!!!!!!!!?!g!(!'!'!'!'!'!'!'!'!'!'!'!'!'!'!'!'!'!'!'!'!'!'!'!'!;!:!h!8!!!!!!!!!!!!!!!!!!!!!!!!!!!!!!!!!!!!!!!!!!!!!!!!!!!!!!!!!!!!!8!i!j!;!'!'!'!'!'!'!'!'!'!'!'!'!'!'!'!'!'!'!'!'!'!'!'!'!3!k!?!!!!!!!!!!!!!!!!!!!!!!!!!!!!!!!!!!!!",
"!!!!!!!!!!!!!!!!!!!!!!!!!!!!!!!!!!!!!8!l!m!;!'!'!'!'!'!'!'!'!'!'!'!'!'!'!'!'!'!'!'!'!'!'!'!'!(!n!?!!!!!!!!!!!!!!!!!!!!!!!!!!!!!!!!!!!!!!!!!!!!!!!!!!!!!!!!!!!!!?!o!3!'!'!'!'!'!'!'!'!'!'!'!'!'!'!'!'!'!'!'!'!'!'!'!'!4!5!9!7!!!!!!!!!!!!!!!!!!!!!!!!!!!!!!!!!!!!",
"!!!!!!!!!!!!!!!!!!!!!!!!!!!!!!!!!!!!!!!7!p!3!'!'!'!'!'!'!'!'!'!'!'!'!'!'!'!'!'!'!'!'!'!'!'!'!-!q!r!0!!!!!!!!!!!!!!!!!!!!!!!!!!!!!!!!!!!!!!!!!!!!!!!!!!!!!!!!!0!$!s!-!'!'!'!'!'!'!'!'!'!'!'!'!'!'!'!'!'!'!'!'!'!'!'!'!3!t!f!u!!!!!!!!!!!!!!!!!!!!!!!!!!!!!!!!!!!!",
"!!!!!!!!!!!!!!!!!!!!!!!!!!!!!!!!!!!!!!!E!v!w!B!'!'!'!'!'!'!'!'!'!'!'!'!'!'!'!'!'!'!'!'!'!'!'!'!x!y!@!!!!!!!!!!!!!!!!!!!!!!!!!!!!!!!!!!!!!!!!!!!!!!!!!!!!!!!!!@!z!x!{!'!'!'!'!'!'!'!'!'!'!'!'!'!'!'!'!'!'!'!'!'!'!'!B!Z!|!1!!!!!!!!!!!!!!!!!!!!!!!!!!!!!!!!!!!!!!",
"!!!!!!!!!!!!!!!!!!!!!!!!!!!!!!!!!!!!!!!+!}!~!(!'!'!'!'!'!'!'!'!'!'!'!'!'!'!'!'!'!'!'!'!'!'!'!'!(#!##!+!!!!!!!!!!!!!!!!!!!!!!!!!!!!!!!!!!!!!!!!!!!!!!!!!!!!!+!}#$!(!'!'!'!'!'!'!'!'!'!'!'!'!'!'!'!'!'!'!'!'!'!'!'!'!(#%#&!+!!!!!!!!!!!!!!!!!!!!!!!!!!!!!!!!!!!!!!",
"!!!!!!!!!!!!!!!!!!!!!!!!!!!!!!!!!!!!!!!!!@#'!;!'!'!'!'!'!'!'!'!'!'!'!'!'!'!'!'!'!'!'!'!'!'!'!'!B#(#)!E!!!!!!!!!!!!!!!!!!!!!!!!!!!!!!!!!!!!!!!!!!!!!!!!!!!!!E#*#+!B!'!'!'!'!'!'!'!'!'!'!'!'!'!'!'!'!'!'!'!'!'!'!'!'!-#,!@!!!!!!!!!!!!!!!!!!!!!!!!!!!!!!!!!!!!!!!!",
"!!!!!!!!!!!!!!!!!!!!!!!!!!!!!!!!!!!!!!!!!0#-#.!&!'!'!'!'!'!'!'!'!'!'!'!'!'!'!'!'!'!'!'!'!'!'!'!'!3!p!7!!!!!!!!!!!!!!!!!!!!!!!!!!!!!!!!!!!!!!!!!!!!!!!!!!!!!E#/!3!'!'!'!'!'!'!'!'!'!'!'!'!'!'!'!'!'!'!'!'!'!'!'!'!&#0!r!0!!!!!!!!!!!!!!!!!!!!!!!!!!!!!!!!!!!!!!!!",
"!!!!!!!!!!!!!!!!!!!!!!!!!!!!!!!!!!!!!!!!!!!@#1!(!'!'!'!'!'!'!'!'!'!'!'!'!'!'!'!'!'!'!'!'!'!'!'!'!;#2#3!8!!!!!!!!!!!!!!!!!!!!!!!!!!!!!!!!!!!!!!!!!!!!!!!!!b#4#5#6!'!'!'!'!'!'!'!'!'!'!'!'!'!'!'!'!'!'!'!'!'!'!'!'!3#7!@!!!!!!!!!!!!!!!!!!!!!!!!!!!!!!!!!!!!!!!!!!",
"!!!!!!!!!!!!!!!!!!!!!!!!!!!!!!!!!!!!!!!!!!!b#8#9!x!'!'!'!'!'!'!'!'!'!'!'!'!'!'!'!'!'!'!'!'!'!'!'!'!(#:!@!!!!!!!!!!!!!!!!!!!!!!!!!!!!!!!!!!!!!!!!!!!!!!!!!@#;!(!'!'!'!'!'!'!'!'!'!'!'!'!'!'!'!'!'!'!'!'!'!'!'!'!;!j!i!8!!!!!!!!!!!!!!!!!!!!!!!!!!!!!!!!!!!!!!!!!!",
"!!!!!!!!!!!!!!!!!!!!!!!!!!!!!!!!!!!!!!!!!!!!!E#<!3!'!'!'!'!'!'!'!'!'!'!'!'!'!'!'!'!'!'!'!'!'!'!'!'!&#.#-!0!!!!!!!!!!!!!!!!!!!!!!!!!!!!!!!!!!!!!!!!!!!!!0#=#>!&!'!'!'!'!'!'!'!'!'!'!'!'!'!'!'!'!'!'!'!'!'!'!'!'!3#?!8!!!!!!!!!!!!!!!!!!!!!!!!!!!!!!!!!!!!!!!!!!!!",
"!!!!!!!!!!!!!!!!!!!!!!!!!!!!!!!!!!!!!!!!!!!!!E#@!C!4!'!'!'!'!'!'!'!'!'!'!'!'!'!'!'!'!'!'!'!'!'!'!'!{!;#A!?!!!!!!!!!!!!!!!!!!!!!!!!!!!!!!!!!!!!!!!!!!!!!?#B!B!B!'!'!'!'!'!'!'!'!'!'!'!'!'!'!'!'!'!'!'!'!'!'!'!B#+#C!1!!!!!!!!!!!!!!!!!!!!!!!!!!!!!!!!!!!!!!!!!!!!",
"!!!!!!!!!!!!!!!!!!!!!!!!!!!!!!!!!!!!!!!!!!!!!u!+#D!3!'!'!'!'!'!'!'!'!'!'!'!'!'!'!'!'!'!'!'!'!'!'!'!'!(#E!!!+!!!!!!!!!!!!!!!!!!!!!!!!!!!!!!!!!!!!!!!!!u!!#F!(!'!'!'!'!'!'!'!'!'!'!'!'!'!'!'!'!'!'!'!'!'!'!'!'!(#G!}!+!!!!!!!!!!!!!!!!!!!!!!!!!!!!!!!!!!!!!!!!!!!!",
"!!!!!!!!!!!!!!!!!!!!!!!!!!!!!!!!!!!!!!!!!!!!!!!?#H!B!{!'!'!'!'!'!'!'!'!'!'!'!'!'!'!'!'!'!'!'!'!'!'!'!B#I#J!E!!!!!!!!!!!!!!!!!!!!!!!!!!!!!!!!!!!!!!!!!E#K!C!B!'!'!'!'!'!'!'!'!'!'!'!'!'!'!'!'!'!'!'!'!'!'!'!'!;#L!@!!!!!!!!!!!!!!!!!!!!!!!!!!!!!!!!!!!!!!!!!!!!!!",
"!!!!!!!!!!!!!!!!!!!!!!!!!!!!!!!!!!!!!!!!!!!!!!!##M#N!T!'!'!'!'!'!'!'!'!'!'!'!'!'!'!'!'!'!'!'!'!'!'!'!'!3#O!1!!!!!!!!!!!!!!!!!!!!!!!!!!!!!!!!!!!!!!!!!1#P!3!'!'!'!'!'!'!'!'!'!'!'!'!'!'!'!'!'!'!'!'!'!'!'!'!&#Q#-!0!!!!!!!!!!!!!!!!!!!!!!!!!!!!!!!!!!!!!!!!!!!!!!",
"!!!!!!!!!!!!!!!!!!!!!!!!!!!!!!!!!!!!!!!!!!!!!!!!!@!_#R!'!'!'!'!'!'!'!'!'!'!'!'!'!'!'!'!'!'!'!'!'!'!'!'!-#S#T!b!!!!!!!!!!!!!!!!!!!!!!!!!!!!!!!!!!!!!b#U#V!-!'!'!'!'!'!'!'!'!'!'!'!'!'!'!'!'!'!'!'!'!'!'!'!'!(#W!N!!!!!!!!!!!!!!!!!!!!!!!!!!!!!!!!!!!!!!!!!!!!!!!!",
"!!!!!!!!!!!!!!!!!!!!!!!!!!!!!!!!!!!!!!!!!!!!!!!!#X#Y!d!-!'!'!'!'!'!'!'!'!'!'!'!'!'!'!'!'!'!'!'!'!'!'!'!'!(#Z!@!!!!!!!!!!!!!!!!!!!!!!!!!!!!!!!!!!!!!N#[!(!'!'!'!'!'!'!'!'!'!'!'!'!'!'!'!'!'!'!'!'!'!'!'!'!-#S#]!b!!!!!!!!!!!!!!!!!!!!!!!!!!!!!!!!!!!!!!!!!!!!!!!!",
"!!!!!!!!!!!!!!!!!!!!!!!!!!!!!!!!!!!!!!!!!!!!!!!!!!!?!k!3!'!'!'!'!'!'!'!'!'!'!'!'!'!'!'!'!'!'!'!'!'!'!'!'!T#^#_!#!!!!!!!!!!!!!!!!!!!!!!!!!!!!!!!!!+!X#`!T!'!'!'!'!'!'!'!'!'!'!'!'!'!'!'!'!'!'!'!'!'!'!'!'!3#O!1!!!!!!!!!!!!!!!!!!!!!!!!!!!!!!!!!!!!!!!!!!!!!!!!!!",
"!!!!!!!!!!!!!!!!!!!!!!!!!!!!!!!!!!!!!!!!!!!!!!!!!!!7#a!5!;!'!'!'!'!'!'!'!'!'!'!'!'!'!'!'!'!'!'!'!'!'!'!'!{!B#b!@!!!!!!!!!!!!!!!!!!!!!!!!!!!!!!!!!?#c!'!B!'!'!'!'!'!'!'!'!'!'!'!'!'!'!'!'!'!'!'!'!'!'!'!4!C#d!7!!!!!!!!!!!!!!!!!!!!!!!!!!!!!!!!!!!!!!!!!!!!!!!!!!",
"!0!!!!!!!!!!!!!!!!!!!!!!!!!!!!!!!!!!!!!!!!!!!!!!!!!!!f!t!3!'!'!'!'!'!'!'!'!'!'!'!'!'!'!'!'!'!'!'!'!'!'!'!'!(#e!0!*!!!!!!!!!!!!!!!!!!!!!!!!!!!!!u!0#f!(!'!'!'!'!'!'!'!'!'!'!'!'!'!'!'!'!'!'!'!'!'!'!'!'!(#g!+!!!!!!!!!!!!!!!!!!!!!!!!!!!!!!!!!!!!!!!!!!!!!!!!!!!0",
"#h!0!!!!!!!!!!!!!!!!!!!!!!!!!!!!!!!!!!!!!!!!!!!!!!!!!?!|!Z!B!'!'!'!'!'!'!'!'!'!'!'!'!'!'!'!'!'!'!'!'!'!'!'!;#i#j!7!!!!!!!!!!!!!!!!!!!!!!!!!!!!!7#k#l!;!'!'!'!'!'!'!'!'!'!'!'!'!'!'!'!'!'!'!'!'!'!'!'!B!P#H!@!!!!!!!!!!!!!!!!!!!!!!!!!!!!!!!!!!!!!!!!!!!!!!!!!##m",
"#n##!+!!!!!!!!!!!!!!!!!!!!!!!!!!!!!!!!!!!!!!!!!!!!!!!+#&#%!(!'!'!'!'!'!'!'!'!'!'!'!'!'!'!'!'!'!'!'!'!'!'!'!'!3#o!?!!!!!!!!!!!!!!!!!!!!!!!!!!!!!?#p!3!'!'!'!'!'!'!'!'!'!'!'!'!'!'!'!'!'!'!'!'!'!'!'!'!T#`!X!+!!!!!!!!!!!!!!!!!!!!!!!!!!!!!!!!!!!!!!!!!!!!!!!+###q",
"#r#s!1!!!!!!!!!!!!!!!!!!!!!!!!!!!!!!!!!!!!!!!!!!!!!!!!!@#,!-!'!'!'!'!'!'!'!'!'!'!'!'!'!'!'!'!'!'!'!'!'!'!'!'#6!d!e!f!!!!!!!!!!!!!!!!!!!!!!!!!0#t#u!-!'!'!'!'!'!'!'!'!'!'!'!'!'!'!'!'!'!'!'!'!'!'!'!'!T!_!@!!!!!!!!!!!!!!!!!!!!!!!!!!!!!!!!!!!!!!!!!!!!!!!!!1#C#(",
"!3#v!8!!!!!!!!!!!!!!!!!!!!!!!!!!!!!!!!!!!!!!!!!!!!!!!!!0!r#0!-!'!'!'!'!'!'!'!'!'!'!'!'!'!'!'!'!'!'!'!'!'!'!'!'!T#w!@!!!!!!!!!!!!!!!!!!!!!!!!!@#x!&!'!'!'!'!'!'!'!'!'!'!'!'!'!'!'!'!'!'!'!'!'!'!'!'!-#y#z!f!!!!!!!!!!!!!!!!!!!!!!!!!!!!!!!!!!!!!!!!!!!!!!!!!7#{!3",
"!;!j#|!8!!!!!!!!!!!!!!!!!!!!!!!!!!!!!!!!!!!!!!!!!!!!!!!!!@#}!3!'!'!'!'!'!'!'!'!'!'!'!'!'!'!'!'!'!'!'!'!'!'!'!'!(#~$!!+!!!!!!!!!!!!!!!!!!!!!+!V$#!(!'!'!'!'!'!'!'!'!'!'!'!'!'!'!'!'!'!'!'!'!'!'!'!'!3!>!?!!!!!!!!!!!!!!!!!!!!!!!!!!!!!!!!!!!!!!!!!!!!!!!!!b$$$%!;",
"!'!3!n!?!!!!!!!!!!!!!!!!!!!!!!!!!!!!!!!!!!!!!!!!!!!!!!!!!b!i!j!;!'!'!'!'!'!'!'!'!'!'!'!'!'!'!'!'!'!'!'!'!'!'!'!B!Z$&!?!!!!!!!!!!!!!!!!!!!!!?![!Z!B!'!'!'!'!'!'!'!'!'!'!'!'!'!'!'!'!'!'!'!'!'!'!'!;!5#a!7!!!!!!!!!!!!!!!!!!!!!!!!!!!!!!!!!!!!!!!!!!!!!!!!!?$'!(!'",
"!'!-$(!H!0!!!!!!!!!!!!!!!!!!!!!!!!!!!!!!!!!!!!!!!!!!!!!!!!!7#?!3!'!'!'!'!'!'!'!'!'!'!'!'!'!'!'!'!'!'!'!'!'!'!'!'!3$)!b!!!!!!!!!!!!!!!!!!!!!b$*!3!'!'!'!'!'!'!'!'!'!'!'!'!'!'!'!'!'!'!'!'!'!'!'!'!3!t!f!!!!!!!!!!!!!!!!!!!!!!!!!!!!!!!!!!!!!!!!!!!!!!!!!0$+#0!-!'",
"!'!'!&#,!N!!!!!!!!!!!!!!!!!!!!!!!!!!!!!!!!!!!!!!!!!!!!!!!!!1#)#(!B!'!'!'!'!'!'!'!'!'!'!'!'!'!'!'!'!'!'!'!'!'!'!'!;$,$-!7!!!!!!!!!!!!!!!!!8$.!:!;!'!'!'!'!'!'!'!'!'!'!'!'!'!'!'!'!'!'!'!'!'!'!'!B$/$&!?!!!!!!!!!!!!!!!!!!!!!!!!!!!!!!!!!!!!!!!!!!!!!!!!!@$0!x!'!'",
"!'!'!($#!V!+!!!!!!!!!!!!!!!!!!!!!!!!!!!!!!!!!!!!!!!!!!!!!!!+###G!(!'!'!'!'!'!'!'!'!'!'!'!'!'!'!'!'!'!'!'!'!'!'!'!'!3$1!@!!!!!!!!!!!!!!!!!@#7!3!'!'!'!'!'!'!'!'!'!'!'!'!'!'!'!'!'!'!'!'!'!'!'!'!(#%!V!+!!!!!!!!!!!!!!!!!!!!!!!!!!!!!!!!!!!!!!!!!!!!!!!+#&!S!(!'!'",
"!'!'!B$/$&!1!!!!!!!!!!!!!!!!!!!!!!!!!!!!!!!!!!!!!!!!!!!!!!!!!?#'!;!'!'!'!'!'!'!'!'!'!'!'!'!'!'!'!'!'!'!'!'!'!'!'!'!-#0!r!0!!!!!!!!!!!!!0!$$2!-!'!'!'!'!'!'!'!'!'!'!'!'!'!'!'!'!'!'!'!'!'!'!'!'!-$3!@!!!!!!!!!!!!!!!!!!!!!!!!!!!!!!!!!!!!!!!!!!!!!!!!!1$4!L!B!'!'",
"!'!'!'!($5!0!u!!!!!!!!!!!!!!!!!!!!!!!!!!!!!!!!!!!!!!!!!!!!!!!#$6#Q!T!'!'!'!'!'!'!'!'!'!'!'!'!'!'!'!'!'!'!'!'!'!'!'!'!-$7!@!!!!!!!!!!!!!N!y!x!'!'!'!'!'!'!'!'!'!'!'!'!'!'!'!'!'!'!'!'!'!'!'!'!-#0!r!0!!!!!!!!!!!!!!!!!!!!!!!!!!!!!!!!!!!!!!!!!!!!!!!!!b$8!3!'!'!'",
"!'!'!'!4!5$9!7!!!!!!!!!!!!!!!!!!!!!!!!!!!!!!!!!!!!!!!!!!!!!!!!!@$:!(!'!'!'!'!'!'!'!'!'!'!'!'!'!'!'!'!'!'!'!'!'!'!'!'!($;##!+!!!!!!!!!+!}#G!(!'!'!'!'!'!'!'!'!'!'!'!'!'!'!'!'!'!'!'!'!'!'!'!'!3!o!@!!!!!!!!!!!!!!!!!!!!!!!!!!!!!!!!!!!!!!!!!!!!!!!!!8!=$,!;!'!'!'",
"!'!'!'!'!3!k!?!!!!!!!!!!!!!!!!!!!!!!!!!!!!!!!!!!!!!!!!!!!!!!!!!b#]$<!;!'!'!'!'!'!'!'!'!'!'!'!'!'!'!'!'!'!'!'!'!'!'!'!B#r$=!1!!!!!!!!!E#)#(!B!'!'!'!'!'!'!'!'!'!'!'!'!'!'!'!'!'!'!'!'!'!'!'!;!m$>!8!!!!!!!!!!!!!!!!!!!!!!!!!!!!!!!!!!!!!!!!!!!!!!!!!@!A!3!'!'!'!'",
"!'!'!'!'!-#y#z!f!!!!!!!!!!!!!!!!!!!!!!!!!!!!!!!!!!!!!!!!!!!!!!!!!E!<!3!'!'!'!'!'!'!'!'!'!'!'!'!'!'!'!'!'!'!'!'!'!'!'!'!3$?!8!!!!!!!!!7!p!3!'!'!'!'!'!'!'!'!'!'!'!'!'!'!'!'!'!'!'!'!'!'!'!'!3#?!7!!!!!!!!!!!!!!!!!!!!!!!!!!!!!!!!!!!!!!!!!!!!!!!!!0!/!G!-!'!'!'!'",
"!'!'!'!'!'!&#[!N!!!!!!!!!!!!!!!!!!!!!!!!!!!!!!!!!!!!!!!!!!!!!!!!!E$@$A!B!'!'!'!'!'!'!'!'!'!'!'!'!'!'!'!'!'!'!'!'!'!'!'!;!m!l!b!!!!!b$B$C!;!'!'!'!'!'!'!'!'!'!'!'!'!'!'!'!'!'!'!'!'!'!'!'!B#(#)!1!!!!!!!!!!!!!!!!!!!!!!!!!!!!!!!!!!!!!!!!!!!!!!!!!N$D!T!'!'!'!'!'",
"!'!'!'!'!'!T#N!X!+!!!!!!!!!!!!!!!!!!!!!!!!!!!!!!!!!!!!!!!!!!!!!!!+!*$E!(!'!'!'!'!'!'!'!'!'!'!'!'!'!'!'!'!'!'!'!'!'!'!'!'!3$F!@!!!!!@$G!3!'!'!'!'!'!'!'!'!'!'!'!'!'!'!'!'!'!'!'!'!'!'!'!'!(#$!}!+!!!!!!!!!!!!!!!!!!!!!!!!!!!!!!!!!!!!!!!!!!!!!!!+$!$H!T!'!'!'!'!'",
"!'!'!'!'!'!{!'$I!?!!!!!!!!!!!!!!!!!!!!!!!!!!!!!!!!!!!!!!!!!!!!!!!!!?#H!P!B!'!'!'!'!'!'!'!'!'!'!'!'!'!'!'!'!'!'!'!'!'!'!'!&!%$J!0!0$K#.!T!'!'!'!'!'!'!'!'!'!'!'!'!'!'!'!'!'!'!'!'!'!'!'!{!;#'!@!!!!!!!!!!!!!!!!!!!!!!!!!!!!!!!!!!!!!!!!!!!!!!!!!?#c!'!B!'!'!'!'!'",
"!'!'!'!'!'!'!($L!*!u!!!!!!!!!!!!!!!!!!!!!!!!!!!!!!!!!!!!!!!!!!!!!!!+!X$M!T!'!'!'!'!'!'!'!'!'!'!'!'!'!'!'!'!'!'!'!'!'!'!'!'$N#L!?!?$O!B!B!'!'!'!'!'!'!'!'!'!'!'!'!'!'!'!'!'!'!'!'!'!'!'!T$P$6!0!!!!!!!!!!!!!!!!!!!!!!!!!!!!!!!!!!!!!!!!!!!!!!!!!+!J!3!'!'!'!'!'!'",
"!'!'!'!'!'!'!B!C#@!7!!!!!!!!!!!!!!!!!!!!!!!!!!!!!!!!!!!!!!!!!!!!!!!!!@#[!(!'!'!'!'!'!'!'!'!'!'!'!'!'!'!'!'!'!'!'!'!'!'!'!'!(!~!!!+#E!(!'!'!'!'!'!'!'!'!'!'!'!'!'!'!'!'!'!'!'!'!'!'!'!'!(#;!N!!!!!!!!!!!!!!!!!!!!!!!!!!!!!!!!!!!!!!!!!!!!!!!!!7#j$Q!B!'!'!'!'!'!'",
"!'!'!'!'!'!'!'!3#O!E!!!!!!!!!!!!!!!!!!!!!!!!!!!!!!!!!!!!!!!!!!!!!!!!!f$R$S!-!'!'!'!'!'!'!'!'!'!'!'!'!'!'!'!'!'!'!'!'!'!'!'!B#+#@!6#I!B!'!'!'!'!'!'!'!'!'!'!'!'!'!'!'!'!'!'!'!'!'!'!'!;$<#]!b!!!!!!!!!!!!!!!!!!!!!!!!!!!!!!!!!!!!!!!!!!!!!!!!!1#P!3!'!'!'!'!'!'!'",
"!'!'!'!'!'!'!'#6$<#4!b!!!!!!!!!!!!!!!!!!!!!!!!!!!!!!!!!!!!!!!!!!!!!!!!!?$T!3!'!'!'!'!'!'!'!'!'!'!'!'!'!'!'!'!'!'!'!'!'!'!'!'!3$U$V!3!'!'!'!'!'!'!'!'!'!'!'!'!'!'!'!'!'!'!'!'!'!'!'!'!3#O!E!!!!!!!!!!!!!!!!!!!!!!!!!!!!!!!!!!!!!!!!!!!!!!!!!b#8$W#6!'!'!'!'!'!'!'",
"!'!'!'!'!'!'!'!'!($X!@!!!!!!!!!!!!!!!!!!!!!!!!!!!!!!!!!!!!!!!!!!!!!!!!!7$9!5!4!'!'!'!'!'!'!'!'!'!'!'!'!'!'!'!'!'!'!'!'!'!'!'!B!j!m!B!'!'!'!'!'!'!'!'!'!'!'!'!'!'!'!'!'!'!'!'!'!'!'!B$A$Y!E!!!!!!!!!!!!!!!!!!!!!!!!!!!!!!!!!!!!!!!!!!!!!!!!!N$Z!(!'!'!'!'!'!'!'!'",
"!'!'!'!'!'!'!'!'!T$P#-!#!!!!!!!!!!!!!!!!!!!!!!!!!!!!!!!!!!!!!!!!!!!!!!!u!0#q!3!'!'!'!'!'!'!'!'!'!'!'!'!'!'!'!'!'!'!'!'!'!'!'!'!4!;!'!'!'!'!'!'!'!'!'!'!'!'!'!'!'!'!'!'!'!'!'!'!'!'!($E!!!+!!!!!!!!!!!!!!!!!!!!!!!!!!!!!!!!!!!!!!!!!!!!!!!#$K$[!T!'!'!'!'!'!'!'!'",
"!'!'!'!'!'!'!'!'!{$N#L!@!!!!!!!!!!!!!!!!!!!!!!!!!!!!!!!!!!!!!!!!!!!!!!!!!?$]!Z!B!'!'!'!'!'!'!'!'!'!'!'!'!'!'!'!'!'!'!'!'!'!'!'!'!'!'!'!'!'!'!'!'!'!'!'!'!'!'!'!'!'!'!'!'!'!'!'!'!B$^!Q!?!!!!!!!!!!!!!!!!!!!!!!!!!!!!!!!!!!!!!!!!!!!!!!!!!?$_$N!B!'!'!'!'!'!'!'!'",
"!'!'!'!'!'!'!'!'!'!(#$$`!+!!!!!!!!!!!!!!!!!!!!!!!!!!!!!!!!!!!!!!!!!!!!!!!+#&#%!T!'!'!'!'!'!'!'!'!'!'!'!'!'!'!'!'!'!'!'!'!'!'!'!'!'!'!'!'!'!'!'!'!'!'!'!'!'!'!'!'!'!'!'!'!'!'!'!'!T$a$b!+!!!!!!!!!!!!!!!!!!!!!!!!!!!!!!!!!!!!!!!!!!!!!!!+!!!)!(!'!'!'!'!'!'!'!'!'",
"!'!'!'!'!'!'!'!'!'!B!w#)!E!!!!!!!!!!!!!!!!!!!!!!!!!!!!!!!!!!!!!!!!!!!!!!!!!N!O!T!'!'!'!'!'!'!'!'!'!'!'!'!'!'!'!'!'!'!'!'!'!'!'!'!'!'!'!'!'!'!'!'!'!'!'!'!'!'!'!'!'!'!'!'!'!'!'!'!T$c!@!!!!!!!!!!!!!!!!!!!!!!!!!!!!!!!!!!!!!!!!!!!!!!!!!E$d$e!B!'!'!'!'!'!'!'!'!'",
"!'!'!'!'!'!'!'!'!'!'!3#?!7!!!!!!!!!!!!!!!!!!!!!!!!!!!!!!!!!!!!!!!!!!!!!!!!!0!H$(!-!'!'!'!'!'!'!'!'!'!'!'!'!'!'!'!'!'!'!'!'!'!'!'!'!'!'!'!'!'!'!'!'!'!'!'!'!'!'!'!'!'!'!'!'!'!'!-$f!e!f!!!!!!!!!!!!!!!!!!!!!!!!!!!!!!!!!!!!!!!!!!!!!!!!!7$g!3!'!'!'!'!'!'!'!'!'!'",
"!'!'!'!'!'!'!'!'!'!'!;!m$>!b!!!!!!!!!!!!!!!!!!!!!!!!!!!!!!!!!!!!!!!!!!!!!!!!!@#}!3!'!'!'!'!'!'!'!'!'!'!'!'!'!'!'!'!'!'!'!'!'!'!'!'!'!'!'!'!'!'!'!'!'!'!'!'!'!'!'!'!'!'!'!'!'!'!3$V!?!!!!!!!!!!!!!!!!!!!!!!!!!!!!!!!!!!!!!!!!!!!!!!!!!b$h$C!;!'!'!'!'!'!'!'!'!'!'",
"!'!'!'!'!'!'!'!'!'!'!'!(!o!@!!!!!!!!!!!!!!!!!!!!!!!!!!!!!!!!!!!!!!!!!!!!!!!!!8#|!j!;!'!'!'!'!'!'!'!'!'!'!'!'!'!'!'!'!'!'!'!'!'!'!'!'!'!'!'!'!'!'!'!'!'!'!'!'!'!'!'!'!'!'!'!'!;!5!9!7!!!!!!!!!!!!!!!!!!!!!!!!!!!!!!!!!!!!!!!!!!!!!!!!!@$i!(!'!'!'!'!'!'!'!'!'!'!'",
"!'!'!'!'!'!'!'!'!'!'!'!-#0!r!0!!!!!!!!!!!!!!!!!!!!!!!!!!!!!!!!!!!!!!!!!!!!!!!!!b#v!3!'!'!'!'!'!'!'!'!'!'!'!'!'!'!'!'!'!'!'!'!'!'!'!'!'!'!'!'!'!'!'!'!'!'!'!'!'!'!'!'!'!'!'!'!3!t!0!!!!!!!!!!!!!!!!!!!!!!!!!!!!!!!!!!!!!!!!!!!!!!!!!0!$$j!&!'!'!'!'!'!'!'!'!'!'!'",
"!'!'!'!'!'!'!'!'!'!'!'!'!-$7!N!!!!!!!!!!!!!!!!!!!!!!!!!!!!!!!!!!!!!!!!!!!!!!!!!1#s#(!B!'!'!'!'!'!'!'!'!'!'!'!'!'!'!'!'!'!'!'!'!'!'!'!'!'!'!'!'!'!'!'!'!'!'!'!'!'!'!'!'!'!'!B!L$k!?!!!!!!!!!!!!!!!!!!!!!!!!!!!!!!!!!!!!!!!!!!!!!!!!!@$l!-!'!'!'!'!'!'!'!'!'!'!'!'",
"!'!'!'!'!'!'!'!'!'!'!'!'!(!S!R!+!!!!!!!!!!!!!!!!!!!!!!!!!!!!!!!!!!!!!!!!!!!!!!!+###G!(!'!'!'!'!'!'!'!'!'!'!'!'!'!'!'!'!'!'!'!'!'!'!'!'!'!'!'!'!'!'!'!'!'!'!'!'!'!'!'!'!'!'!($m#&!+!!!!!!!!!!!!!!!!!!!!!!!!!!!!!!!!!!!!!!!!!!!!!!!+$n#!!(!'!'!'!'!'!'!'!'!'!'!'!'",
"!'!'!'!'!'!'!'!'!'!'!'!'!B!Z!|!?!!!!!!!!!!!!!!!!!!!!!!!!!!!!!!!!!!!!!!!!!!!!!!!!!@!z!;!'!'!'!'!'!'!'!'!'!'!'!'!'!'!'!'!'!'!'!'!'!'!'!'!'!'!'!'!'!'!'!'!'!'!'!'!'!'!'!'!'!'!-$o!N!!!!!!!!!!!!!!!!!!!!!!!!!!!!!!!!!!!!!!!!!!!!!!!!!1$p!^!B!'!'!'!'!'!'!'!'!'!'!'!'",
"!'!'!'!'!'!'!'!'!'!'!'!'!'!3!a!b!!!!!!!!!!!!!!!!!!!!!!!!!!!!!!!!!!!!!!!!!!!!!!!!!0$J$q!&!'!'!'!'!'!'!'!'!'!'!'!'!'!'!'!'!'!'!'!'!'!'!'!'!'!'!'!'!'!'!'!'!'!'!'!'!'!'!'!'!&#0!r!0!!!!!!!!!!!!!!!!!!!!!!!!!!!!!!!!!!!!!!!!!!!!!!!!!b$r!3!'!'!'!'!'!'!'!'!'!'!'!'!'",
"!'!'!'!'!'!'!'!'!'!'!'!'!'!;$,!=!7!!!!!!!!!!!!!!!!!!!!!!!!!!!!!!!!!!!!!!!!!!!!!!!!!N$s!(!'!'!'!'!'!'!'!'!'!'!'!'!'!'!'!'!'!'!'!'!'!'!'!'!'!'!'!'!'!'!'!'!'!'!'!'!'!'!'!'!(#7!@!!!!!!!!!!!!!!!!!!!!!!!!!!!!!!!!!!!!!!!!!!!!!!!!!7$t$u!;!'!'!'!'!'!'!'!'!'!'!'!'!'",
"!'!'!'!'!'!'!'!'!'!'!'!'!'!'!3#p!?!!!!!!!!!!!!!!!!!!!!!!!!!!!!!!!!!!!!!!!!!!!!!!!!!b$B$v!x!'!'!'!'!'!'!'!'!'!'!'!'!'!'!'!'!'!'!'!'!'!'!'!'!'!'!'!'!'!'!'!'!'!'!'!'!'!'!;$w$x!b!!!!!!!!!!!!!!!!!!!!!!!!!!!!!!!!!!!!!!!!!!!!!!!!!?$y!3!'!'!'!'!'!'!'!'!'!'!'!'!'!'",
"!'!'!'!'!'!'!'!'!'!'!'!'!'!'!-#y#Y!b!!!!!!!!!!!!!!!!!!!!!!!!!!!!!!!!!!!!!!!!!!!!!!!!!E$z!3!'!'!'!'!'!'!'!'!'!'!'!'!'!'!'!'!'!'!'!'!'!'!'!'!'!'!'!'!'!'!'!'!'!'!'!'!'!'!3${!8!!!!!!!!!!!!!!!!!!!!!!!!!!!!!!!!!!!!!!!!!!!!!!!!!0$|$}!-!'!'!'!'!'!'!'!'!'!'!'!'!'!'",
"!'!'!'!'!'!'!'!'!'!'!'!'!'!'!'!T!_!@!!!!!!!!!!!!!!!!!!!!!!!!!!!!!!!!!!!!!!!!!!!!!!!!!E$~#I!B!'!'!'!'!'!'!'!'!'!'!'!'!'!'!'!'!'!'!'!'!'!'!'!'!'!'!'!'!'!'!'!'!'!'!'!'!B#(#s!1!!!!!!!!!!!!!!!!!!!!!!!!!!!!!!!!!!!!!!!!!!!!!!!!!@%!!&!'!'!'!'!'!'!'!'!'!'!'!'!'!'!'",
"!'!'!'!'!'!'!'!'!'!'!'!'!'!'!'!T#`!X!#!!!!!!!!!!!!!!!!!!!!!!!!!!!!!!!!!!!!!!!!!!!!!!!u!!$E!(!'!'!'!'!'!'!'!'!'!'!'!'!'!'!'!'!'!'!'!'!'!'!'!'!'!'!'!'!'!'!'!'!'!'!'!'!(!~!}!+!!!!!!!!!!!!!!!!!!!!!!!!!!!!!!!!!!!!!!!!!!!!!!!+$b%#!(!'!'!'!'!'!'!'!'!'!'!'!'!'!'!'",
"!'!'!'!'!'!'!'!'!'!'!'!'!'!'!'!{!'!Q!?!!!!!!!!!!!!!!!!!!!!!!!!!!!!!!!!!!!!!!!!!!!!!!!!!@%$!B!{!'!'!'!'!'!'!'!'!'!'!'!'!'!'!'!'!'!'!'!'!'!'!'!'!'!'!'!'!'!'!'!'!'!'!{!x#'!@!!!!!!!!!!!!!!!!!!!!!!!!!!!!!!!!!!!!!!!!!!!!!!!!!?%%$^!B!'!'!'!'!'!'!'!'!'!'!'!'!'!'!'",
"!'!'!'!'!'!'!'!'!'!'!'!'!'!'!'!'!(%&!+!+!!!!!!!!!!!!!!!!!!!!!!!!!!!!!!!!!!!!!!!!!!!!!!!##_$[!&!'!'!'!'!'!'!'!'!'!'!'!'!'!'!'!'!'!'!'!'!'!'!'!'!'!'!'!'!'!'!'!'!'!'!&#.#-!0!!!!!!!!!!!!!!!!!!!!!!!!!!!!!!!!!!!!!!!!!!!!!!!*!#%'!3!'!'!'!'!'!'!'!'!'!'!'!'!'!'!'!'",
"!'!'!'!'!'!'!'!'!'!'!'!'!'!'!'!'!4!C#@!E!!!!!!!!!!!!!!!!!!!!!!!!!!!!!!!!!!!!!!!!!!!!!!!!!N%(!(!'!'!'!'!'!'!'!'!'!'!'!'!'!'!'!'!'!'!'!'!'!'!'!'!'!'!'!'!'!'!'!'!'!'!(#W%)!!!!!!!!!!!!!!!!!!!!!!!!!!!!!!!!!!!!!!!!!!!!!!!!!7%*$Q!4!'!'!'!'!'!'!'!'!'!'!'!'!'!'!'!'",
"!'!'!'!'!'!'!'!'!'!'!'!'!'!'!'!'!'!3%+!1!!!!!!!!!!!!!!!!!!!!!!!!!!!!!!!!!!!!!!!!!!!!!!!!!b$R%,!-!'!'!'!'!'!'!'!'!'!'!'!'!'!'!'!'!'!'!'!'!'!'!'!'!'!'!'!'!'!'!'!'!-#S#8!b!!!!!!!!!!!!!!!!!!!!!!!!!!!!!!!!!!!!!!!!!!!!!!!!!1%-!3!'!'!'!'!'!'!'!'!'!'!'!'!'!'!'!'!'",
"!'!'!'!'!'!'!'!'!'!'!'!'!'!'!'!'!'!x#9#8!b!!!!!!!!!!!!!!!!!!!!!!!!!!!!!!!!!!!!!!!!!!!!!!!!!?%.!3!'!'!'!'!'!'!'!'!'!'!'!'!'!'!'!'!'!'!'!'!'!'!'!'!'!'!'!'!'!'!'!'!3%/!E!!!!!!!!!!!!!!!!!!!!!!!!!!!!!!!!!!!!!!!!!!!!!!!!!b%0%1!-!'!'!'!'!'!'!'!'!'!'!'!'!'!'!'!'!'",
"!'!'!'!'!'!'!'!'!'!'!'!'!'!'!'!'!'!'!(#1!@!!!!!!!!!!!!!!!!!!!!!!!!!!!!!!!!!!!!!!!!!!!!!!!!!7%2#l!;!'!'!'!'!'!'!'!'!'!'!'!'!'!'!'!'!'!'!'!'!'!'!'!'!'!'!'!'!'!'!B!C!D!E!!!!!!!!!!!!!!!!!!!!!!!!!!!!!!!!!!!!!!!!!!!!!!!!!@$Z!(!'!'!'!'!'!'!'!'!'!'!'!'!'!'!'!'!'!'",
"!'!'!'!'!'!'!'!'!'!'!'!'!'!'!'!'!'!'!&%3$K!0!!!!!!!!!!!!!!!!!!!!!!!!!!!!!!!!!!!!!!!!!!!!!!!u!0%4!3!'!'!'!'!'!'!'!'!'!'!'!'!'!'!'!'!'!'!'!'!'!'!'!'!'!'!'!'!'!'!3!J!+!+!!!!!!!!!!!!!!!!!!!!!!!!!!!!!!!!!!!!!!!!!!!!!!!0#_%5!T!'!'!'!'!'!'!'!'!'!'!'!'!'!'!'!'!'!'",
"!'!'!'!'!'!'!'!'!'!'!'!'!'!'!'!'!'!'!'$N$_!@!!!!!!!!!!!!!!!!!!!!!!!!!!!!!!!!!!!!!!!!!!!!!!!!!?%6$^!B!'!'!'!'!'!'!'!'!'!'!'!'!'!'!'!'!'!'!'!'!'!'!'!'!'!'!'!'!B!P#H!?!!!!!!!!!!!!!!!!!!!!!!!!!!!!!!!!!!!!!!!!!!!!!!!!!@%7$N!'!'!'!'!'!'!'!'!'!'!'!'!'!'!'!'!'!'!'",
"!'!'!'!'!'!'!'!'!'!'!'!'!'!'!'!'!'!'!'!(!)%8!+!!!!!!!!!!!!!!!!!!!!!!!!!!!!!!!!!!!!!!!!!!!!!!!#$!%9!T!'!'!'!'!'!'!'!'!'!'!'!'!'!'!'!'!'!'!'!'!'!'!'!'!'!'!'!'!T#N!X!0!!!!!!!!!!!!!!!!!!!!!!!!!!!!!!!!!!!!!!!!!!!!!!!+!!%:!3!'!'!'!'!'!'!'!'!'!'!'!'!'!'!'!'!'!'!'",
"!'!'!'!'!'!'!'!'!'!'!'!'!'!'!'!'!'!'!'!B#+#*!E!!!!!!!!!!!!!!!!!!!!!!!!!!!!!!!!!!!!!!!!!!!!!!!!!N%;!&!'!'!'!'!'!'!'!'!'!'!'!'!'!'!'!'!'!'!'!'!'!'!'!'!'!'!'!'!T!_!@!!!!!!!!!!!!!!!!!!!!!!!!!!!!!!!!!!!!!!!!!!!!!!!!!E%<#I!B!'!'!'!'!'!'!'!'!'!'!'!'!'!'!'!'!'!'!'",
"!'!'!'!'!'!'!'!'!'!'!'!'!'!'!'!'!'!'!'!'!3%=!7!!!!!!!!!!!!!!!!!!!!!!!!!!!!!!!!!!!!!!!!!!!!!!!!!0$|$}!-!'!'!'!'!'!'!'!'!'!'!'!'!'!'!'!'!'!'!'!'!'!'!'!'!'!'!-#y!e!f!!!!!!!!!!!!!!!!!!!!!!!!!!!!!!!!!!!!!!!!!!!!!!!!!E#/!3!'!'!'!'!'!'!'!'!'!'!'!'!'!'!'!'!'!'!'!'",
"!'!'!'!'!'!'!'!'!'!'!'!'!'!'!'!'!'!'!'!'!;!m$h!b!!!!!!!!!!!!!!!!!!!!!!!!!!!!!!!!!!!!!!!!!!!!!!!!!?%>!(!'!'!'!'!'!'!'!'!'!'!'!'!'!'!'!'!'!'!'!'!'!'!'!'!'!'!3%?!?!!!!!!!!!!!!!!!!!!!!!!!!!!!!!!!!!!!!!!!!!!!!!!!!!b%@$C!;!'!'!'!'!'!'!'!'!'!'!'!'!'!'!'!'!'!'!'!'",
"!'!'!'!'!'!'!'!'!'!'!'!'!'!'!'!'!'!'!'!'!'!(%A!N!!!!!!!!!!!!!!!!!!!!!!!!!!!!!!!!!!!!!!!!!!!!!!!!!8$t!:!;!'!'!'!'!'!'!'!'!'!'!'!'!'!'!'!'!'!'!'!'!'!'!'!'!;!5%B!7!!!!!!!!!!!!!!!!!!!!!!!!!!!!!!!!!!!!!!!!!!!!!!!!!@%C!(!'!'!'!'!'!'!'!'!'!'!'!'!'!'!'!'!'!'!'!'!'",
"!'!'!'!'!'!'!'!'!'!'!'!'!'!'!'!'!'!'!'!'!'!-!`!$!0!!!!!!!!!!!!!!!!!!!!!!!!!!!!!!!!!!!!!!!!!!!!!!!!!b!c!3!'!'!'!'!'!'!'!'!'!'!'!'!'!'!'!'!'!'!'!'!'!'!'!'!3$)!0!!!!!!!!!!!!!!!!!!!!!!!!!!!!!!!!!!!!!!!!!!!!!!!!!0$J%D!-!'!'!'!'!'!'!'!'!'!'!'!'!'!'!'!'!'!'!'!'!'",
"!'!'!'!'!'!'!'!'!'!'!'!'!'!'!'!'!'!'!'!'!'!'!-!Y!@!!!!!!!!!!!!!!!!!!!!!!!!!!!!!!!!!!!!!!!!!!!!!!!!!1$=#r!B!'!'!'!'!'!'!'!'!'!'!'!'!'!'!'!'!'!'!'!'!'!'!B!Z$k!?!!!!!!!!!!!!!!!!!!!!!!!!!!!!!!!!!!!!!!!!!!!!!!!!!@%E!x!'!'!'!'!'!'!'!'!'!'!'!'!'!'!'!'!'!'!'!'!'!'",
"!'!'!'!'!'!'!'!'!'!'!'!'!'!'!'!'!'!'!'!'!'!'!($;$n!+!!!!!!!!!!!!!!!!!!!!!!!!!!!!!!!!!!!!!!!!!!!!!!!+###!!(!'!'!'!'!'!'!'!'!'!'!'!'!'!'!'!'!'!'!'!'!'!'!T#%!V!+!!!!!!!!!!!!!!!!!!!!!!!!!!!!!!!!!!!!!!!!!!!!!!!+##%F!(!'!'!'!'!'!'!'!'!'!'!'!'!'!'!'!'!'!'!'!'!'!'",
"!'!'!'!'!'!'!'!'!'!'!'!'!'!'!'!'!'!'!'!'!'!'!B!L!K!1!!!!!!!!!!!!!!!!!!!!!!!!!!!!!!!!!!!!!!!!!!!!!!!!!@$l!x!'!'!'!'!'!'!'!'!'!'!'!'!'!'!'!'!'!'!'!'!'!'!&#,!@!!!!!!!!!!!!!!!!!!!!!!!!!!!!!!!!!!!!!!!!!!!!!!!!!1$=#r!B!'!'!'!'!'!'!'!'!'!'!'!'!'!'!'!'!'!'!'!'!'!'",
"!'!'!'!'!'!'!'!'!'!'!'!'!'!'!'!'!'!'!'!'!'!'!'!3!a!f!!!!!!!!!!!!!!!!!!!!!!!!!!!!!!!!!!!!!!!!!!!!!!!!!0$J%D!&!'!'!'!'!'!'!'!'!'!'!'!'!'!'!'!'!'!'!'!'!-%G!r!0!!!!!!!!!!!!!!!!!!!!!!!!!!!!!!!!!!!!!!!!!!!!!!!!!b!c!3!'!'!'!'!'!'!'!'!'!'!'!'!'!'!'!'!'!'!'!'!'!'!'",
"!'!'!'!'!'!'!'!'!'!'!'!'!'!'!'!'!'!'!'!'!'!'!'!;$,%H!8!!!!!!!!!!!!!!!!!!!!!!!!!!!!!!!!!!!!!!!!!!!!!!!!!N%I!3!'!'!'!'!'!'!'!'!'!'!'!'!'!'!'!'!'!'!'!'!3%J!@!!!!!!!!!!!!!!!!!!!!!!!!!!!!!!!!!!!!!!!!!!!!!!!!!8$.!:!;!'!'!'!'!'!'!'!'!'!'!'!'!'!'!'!'!'!'!'!'!'!'!'",
"!'!'!'!'!'!'!'!'!'!'!'!'!'!'!'!'!'!'!'!'!'!'!'!'!3%K!?!!!!!!!!!!!!!!!!!!!!!!!!!!!!!!!!!!!!!!!!!!!!!!!!!b$h$C!;!'!'!'!'!'!'!'!'!'!'!'!'!'!'!'!'!'!'!;!j%L!8!!!!!!!!!!!!!!!!!!!!!!!!!!!!!!!!!!!!!!!!!!!!!!!!!@%>!3!'!'!'!'!'!'!'!'!'!'!'!'!'!'!'!'!'!'!'!'!'!'!'!'",
"!'!'!'!'!'!'!'!'!'!'!'!'!'!'!'!'!'!'!'!'!'!'!'!'!-$f!/!0!!!!!!!!!!!!!!!!!!!!!!!!!!!!!!!!!!!!!!!!!!!!!!!!!7#/!3!'!'!'!'!'!'!'!'!'!'!'!'!'!'!'!'!'!'!3!p!7!!!!!!!!!!!!!!!!!!!!!!!!!!!!!!!!!!!!!!!!!!!!!!!!!0%M%N!-!'!'!'!'!'!'!'!'!'!'!'!'!'!'!'!'!'!'!'!'!'!'!'!'",
"!'!'!'!'!'!'!'!'!'!'!'!'!'!'!'!'!'!'!'!'!'!'!'!'!'!T#w!@!!!!!!!!!!!!!!!!!!!!!!!!!!!!!!!!!!!!!!!!!!!!!!!!!7%<#I!B!'!'!'!'!'!'!'!'!'!'!'!'!'!'!'!'!B!w%O!E!!!!!!!!!!!!!!!!!!!!!!!!!!!!!!!!!!!!!!!!!!!!!!!!!@%;!&!'!'!'!'!'!'!'!'!'!'!'!'!'!'!'!'!'!'!'!'!'!'!'!'!'",
"!'!'!'!'!'!'!'!'!'!'!'!'!'!'!'!'!'!'!'!'!'!'!'!'!'!T%#$b!+!!!!!!!!!!!!!!!!!!!!!!!!!!!!!!!!!!!!!!!!!!!!!!!+!!%P!(!'!'!'!'!'!'!'!'!'!'!'!'!'!'!'!'!(#$$`!+!!!!!!!!!!!!!!!!!!!!!!!!!!!!!!!!!!!!!!!!!!!!!!!+!V%Q!T!'!'!'!'!'!'!'!'!'!'!'!'!'!'!'!'!'!'!'!'!'!'!'!'!'",
"!'!'!'!'!'!'!'!'!'!'!'!'!'!'!'!'!'!'!'!'!'!'!'!'!'!B$^%R!?!!!!!!!!!!!!!!!!!!!!!!!!!!!!!!!!!!!!!!!!!!!!!!!!!@%7!B!B!'!'!'!'!'!'!'!'!'!'!'!'!'!'!{$N#'!@!!!!!!!!!!!!!!!!!!!!!!!!!!!!!!!!!!!!!!!!!!!!!!!!!?$]$/!B!'!'!'!'!'!'!'!'!'!'!'!'!'!'!'!'!'!'!'!'!'!'!'!'!'",
"!'!'!'!'!'!'!'!'!'!'!'!'!'!'!'!'!'!'!'!'!'!'!'!'!'!'!(%S!+!u!!!!!!!!!!!!!!!!!!!!!!!!!!!!!!!!!!!!!!!!!!!!!!!+#_%T!T!'!'!'!'!'!'!'!'!'!'!'!'!'!'!T#Q$6!#!!!!!!!!!!!!!!!!!!!!!!!!!!!!!!!!!!!!!!!!!!!!!!!!!0%4!3!'!'!'!'!'!'!'!'!'!'!'!'!'!'!'!'!'!'!'!'!'!'!'!'!'!'",
"!'!'!'!'!'!'!'!'!'!'!'!'!'!'!'!'!'!'!'!'!'!'!'!'!'!'!4%U%V!7!!!!!!!!!!!!!!!!!!!!!!!!!!!!!!!!!!!!!!!!!!!!!!!!!N#Z!(!'!'!'!'!'!'!'!'!'!'!'!'!'!'!($X!N!!!!!!!!!!!!!!!!!!!!!!!!!!!!!!!!!!!!!!!!!!!!!!!!!7!6#l!;!'!'!'!'!'!'!'!'!'!'!'!'!'!'!'!'!'!'!'!'!'!'!'!'!'!'",
"!'!'!'!'!'!'!'!'!'!'!'!'!'!'!'!'!'!'!'!'!'!'!'!'!'!'!'!3#P!1!!!!!!!!!!!!!!!!!!!!!!!!!!!!!!!!!!!!!!!!!!!!!!!!!b%W#V!-!'!'!'!'!'!'!'!'!'!'!'!'!;$<#4!b!!!!!!!!!!!!!!!!!!!!!!!!!!!!!!!!!!!!!!!!!!!!!!!!!1%X!3!'!'!'!'!'!'!'!'!'!'!'!'!'!'!'!'!'!'!'!'!'!'!'!'!'!'!'",
"!'!'!'!'!'!'!'!'!'!'!'!'!'!'!'!'!'!'!'!'!'!'!'!'!'!'!'!-%Y#U!f!!!!!!!!!!!!!!!!!!!!!!!!!!!!!!!!!!!!!!!!!!!!!!!!!1%Z!3!'!'!'!'!'!'!'!'!'!'!'!'!3!<!E!!!!!!!!!!!!!!!!!!!!!!!!!!!!!!!!!!!!!!!!!!!!!!!!!f$R%,!-!'!'!'!'!'!'!'!'!'!'!'!'!'!'!'!'!'!'!'!'!'!'!'!'!'!'!'",
"!'!'!'!'!'!'!'!'!'!'!'!'!'!'!'!'!'!'!'!'!'!'!'!'!'!'!'!'!($Z!@!!!!!!!!!!!!!!!!!!!!!!!!!!!!!!!!!!!!!!!!!!!!!!!!!7%[#i!4!'!'!'!'!'!'!'!'!'!'!4!C$Y!7!!!!!!!!!!!!!!!!!!!!!!!!!!!!!!!!!!!!!!!!!!!!!!!!!N%]!(!'!'!'!'!'!'!'!'!'!'!'!'!'!'!'!'!'!'!'!'!'!'!'!'!'!'!'!'",
"!'!'!'!'!'!'!'!'!'!'!'!'!'!'!'!'!'!'!'!'!'!'!'!'!'!'!'!'!T%^#=!0!!!!!!!!!!!!!!!!!!!!!!!!!!!!!!!!!!!!!!!!!!!!!!!+%_%S!3!'!'!'!'!'!'!'!'!'!'!(#g!+!+!!!!!!!!!!!!!!!!!!!!!!!!!!!!!!!!!!!!!!!!!!!!!!!+!X$M!T!'!'!'!'!'!'!'!'!'!'!'!'!'!'!'!'!'!'!'!'!'!'!'!'!'!'!'!'",
"!'!'!'!'!'!'!'!'!'!'!'!'!'!'!'!'!'!'!'!'!'!'!'!'!'!'!'!'!B!B%`!@!!!!!!!!!!!!!!!!!!!!!!!!!!!!!!!!!!!!!!!!!!!!!!!!!?%R!'!B!'!'!'!'!'!'!'!'!B!B#H!?!!!!!!!!!!!!!!!!!!!!!!!!!!!!!!!!!!!!!!!!!!!!!!!!!@#H!P!B!'!'!'!'!'!'!'!'!'!'!'!'!'!'!'!'!'!'!'!'!'!'!'!'!'!'!'!'",
"!'!'!'!'!'!'!'!'!'!'!'!'!'!'!'!'!'!'!'!'!'!'!'!'!'!'!'!'!'!(#E%8!+!!!!!!!!!!!!!!!!!!!!!!!!!!!!!!!!!!!!!!!!!!!!!!!+$b%a!T!'!'!'!'!'!'!'!'!T!W!X!+!!!!!!!!!!!!!!!!!!!!!!!!!!!!!!!!!!!!!!!!!!!!!!!+!!!,!(!'!'!'!'!'!'!'!'!'!'!'!'!'!'!'!'!'!'!'!'!'!'!'!'!'!'!'!'!'",
"!'!'!'!'!'!'!'!'!'!'!'!'!'!'!'!'!'!'!'!'!'!'!'!'!'!'!'!'!'!B#+#*!1!!!!!!!!!!!!!!!!!!!!!!!!!!!!!!!!!!!!!!!!!!!!!!!!!N%b!&!'!'!'!'!'!'!'!'!(%c!N!!!!!!!!!!!!!!!!!!!!!!!!!!!!!!!!!!!!!!!!!!!!!!!!!E%d#I!B!'!'!'!'!'!'!'!'!'!'!'!'!'!'!'!'!'!'!'!'!'!'!'!'!'!'!'!'!'",
"!'!'!'!'!'!'!'!'!'!'!'!'!'!'!'!'!'!'!'!'!'!'!'!'!'!'!'!'!'!'!3%e!7!!!!!!!!!!!!!!!!!!!!!!!!!!!!!!!!!!!!!!!!!!!!!!!!!f!/!G!-!'!'!'!'!'!'!x$S$R!b!!!!!!!!!!!!!!!!!!!!!!!!!!!!!!!!!!!!!!!!!!!!!!!!!E%/!3!'!'!'!'!'!'!'!'!'!'!'!'!'!'!'!'!'!'!'!'!'!'!'!'!'!'!'!'!'!'",
"!'!'!'!'!'!'!'!'!'!'!'!'!'!'!'!'!'!'!'!'!'!'!'!'!'!'!'!'!'!'!;$C$h!8!!!!!!!!!!!!!!!!!!!!!!!!!!!!!!!!!!!!!!!!!!!!!!!!!?%f!3!'!'!'!'!'!'!3!k!?!!!!!!!!!!!!!!!!!!!!!!!!!!!!!!!!!!!!!!!!!!!!!!!!!8%@$v#6!'!'!'!'!'!'!'!'!'!'!'!'!'!'!'!'!'!'!'!'!'!'!'!'!'!'!'!'!'!'",
"!'!'!'!'!'!'!'!'!'!'!'!'!'!'!'!'!'!'!'!'!'!'!'!'!'!'!'!'!'!'!'!3%g!@!!!!!!!!!!!!!!!!!!!!!!!!!!!!!!!!!!!!!!!!!!!!!!!!!7%h!:!;!'!'!'!'!;!5#a!7!!!!!!!!!!!!!!!!!!!!!!!!!!!!!!!!!!!!!!!!!!!!!!!!!@%i!(!'!'!'!'!'!'!'!'!'!'!'!'!'!'!'!'!'!'!'!'!'!'!'!'!'!'!'!'!'!'!'",
"!'!'!'!'!'!'!'!'!'!'!'!'!'!'!'!'!'!'!'!'!'!'!'!'!'!'!'!'!'!'!'!&$j%j!0!!!!!!!!!!!!!!!!!!!!!!!!!!!!!!!!!!!!!!!!!!!!!!!u!b$*!3!'!'!'!'!3!t!f!*!!!!!!!!!!!!!!!!!!!!!!!!!!!!!!!!!!!!!!!!!!!!!!!0#-#.!&!'!'!'!'!'!'!'!'!'!'!'!'!'!'!'!'!'!'!'!'!'!'!'!'!'!'!'!'!'!'!'",
"!'!'!'!'!'!'!'!'!'!'!'!'!'!'!'!'!'!'!'!'!'!'!'!'!'!'!'!'!'!'!'!'!x$l!@!!!!!!!!!!!!!!!!!!!!!!!!!!!!!!!!!!!!!!!!!!!!!!!!!1!K!L!B!'!'!B$/%k!?!!!!!!!!!!!!!!!!!!!!!!!!!!!!!!!!!!!!!!!!!!!!!!!!!@!z!;!'!'!'!'!'!'!'!'!'!'!'!'!'!'!'!'!'!'!'!'!'!'!'!'!'!'!'!'!'!'!'!'",
"!'!'!'!'!'!'!'!'!'!'!'!'!'!'!'!'!'!'!'!'!'!'!'!'!'!'!'!'!'!'!'!'!(#!$n!+!!!!!!!!!!!!!!!!!!!!!!!!!!!!!!!!!!!!!!!!!!!!!!!+###!!(!'!'!($m#&!+!!!!!!!!!!!!!!!!!!!!!!!!!!!!!!!!!!!!!!!!!!!!!!!+$`#G!(!'!'!'!'!'!'!'!'!'!'!'!'!'!'!'!'!'!'!'!'!'!'!'!'!'!'!'!'!'!'!'!'",
"!'!'!'!'!'!'!'!'!'!'!'!'!'!'!'!'!'!'!'!'!'!'!'!'!'!'!'!'!'!'!'!'!B!^$p!1!!!!!!!!!!!!!!!!!!!!!!!!!!!!!!!!!!!!!!!!!!!!!!!!!@$l!x!'!'!-$7!N!!!!!!!!!!!!!!!!!!!!!!!!!!!!!!!!!!!!!!!!!!!!!!!!!1#s#(!B!'!'!'!'!'!'!'!'!'!'!'!'!'!'!'!'!'!'!'!'!'!'!'!'!'!'!'!'!'!'!'!'",
"!'!'!'!'!'!'!'!'!'!'!'!'!'!'!'!'!'!'!'!'!'!'!'!'!'!'!'!'!'!'!'!'!'!3$*!b!!!!!!!!!!!!!!!!!!!!!!!!!!!!!!!!!!!!!!!!!!!!!!!!!0!$$2!-!-#0!r!0!!!!!!!!!!!!!!!!!!!!!!!!!!!!!!!!!!!!!!!!!!!!!!!!!b#v!3!'!'!'!'!'!'!'!'!'!'!'!'!'!'!'!'!'!'!'!'!'!'!'!'!'!'!'!'!'!'!'!'!'",
"!'!'!'!'!'!'!'!'!'!'!'!'!'!'!'!'!'!'!'!'!'!'!'!'!'!'!'!'!'!'!'!'!'!;!:%h!7!!!!!!!!!!!!!!!!!!!!!!!!!!!!!!!!!!!!!!!!!!!!!!!!!@%A!(!3#7!@!!!!!!!!!!!!!!!!!!!!!!!!!!!!!!!!!!!!!!!!!!!!!!!!!8%L!j!;!'!'!'!'!'!'!'!'!'!'!'!'!'!'!'!'!'!'!'!'!'!'!'!'!'!'!'!'!'!'!'!'!'",
"!'!'!'!'!'!'!'!'!'!'!'!'!'!'!'!'!'!'!'!'!'!'!'!'!'!'!'!'!'!'!'!'!'!'!3%l!?!!!!!!!!!!!!!!!!!!!!!!!!!!!!!!!!!!!!!!!!!!!!!!!!!8$B!j!:!l!7!!!!!!!!!!!!!!!!!!!!!!!!!!!!!!!!!!!!!!!!!!!!!!!!!@#}!3!'!'!'!'!'!'!'!'!'!'!'!'!'!'!'!'!'!'!'!'!'!'!'!'!'!'!'!'!'!'!'!'!'!'",
"!'!'!'!'!'!'!'!'!'!'!'!'!'!'!'!'!'!'!'!'!'!'!'!'!'!'!'!'!'!'!'!'!'!'!-!G$|!f!!!!!!!!!!!!!!!!!!!!!!!!!!!!!!!!!!!!!!!!!!!!!!!!!7$*!t!7!!!!!!!!!!!!!!!!!!!!!!!!!!!!!!!!!!!!!!!!!!!!!!!!!0!H$(!-!'!'!'!'!'!'!'!'!'!'!'!'!'!'!'!'!'!'!'!'!'!'!'!'!'!'!'!'!'!'!'!'!'!'",
"!'!'!'!'!'!'!'!'!'!'!'!'!'!'!'!'!'!'!'!'!'!'!'!'!'!'!'!'!'!'!'!'!'!'!'!&#x!N!!!!!!!!!!!!!!!!!!!!!!!!!!!!!!!!!!!!!!!!!!!!!!!!!E#s$=!E!!!!!!!!!!!!!!!!!!!!!!!!!!!!!!!!!!!!!!!!!!!!!!!!!N#,!&!'!'!'!'!'!'!'!'!'!'!'!'!'!'!'!'!'!'!'!'!'!'!'!'!'!'!'!'!'!'!'!'!'!'!'",
"!'!'!'!'!'!'!'!'!'!'!'!'!'!'!'!'!'!'!'!'!'!'!'!'!'!'!'!'!'!'!'!'!'!'!'!(%m!V!+!!!!!!!!!!!!!!!!!!!!!!!!!!!!!!!!!!!!!!!!!!!!!!!!!+!+!!!!!!!!!!!!!!!!!!!!!!!!!!!!!!!!!!!!!!!!!!!!!!!!!+#&#%!(!'!'!'!'!'!'!'!'!'!'!'!'!'!'!'!'!'!'!'!'!'!'!'!'!'!'!'!'!'!'!'!'!'!'!'",
"!'!'!'!'!'!'!'!'!'!'!'!'!'!'!'!'!'!'!'!'!'!'!'!'!'!'!'!'!'!'!'!'!'!'!'!B$^%R!?!!!!!!!!!!!!!!!!!!!!!!!!!!!!!!!!!!!!!!!!!!!!!!!!!!!!!!!!!!!!!!!!!!!!!!!!!!!!!!!!!!!!!!!!!!!!!!!!!!!!!?$&$/!B!'!'!'!'!'!'!'!'!'!'!'!'!'!'!'!'!'!'!'!'!'!'!'!'!'!'!'!'!'!'!'!'!'!'!'",
"!'!'!'!'!'!'!'!'!'!'!'!'!'!'!'!'!'!'!'!'!'!'!'!'!'!'!'!'!'!'!'!'!'!'!'!'!3%'!0!+!!!!!!!!!!!!!!!!!!!!!!!!!!!!!!!!!!!!!!!!!!!!!!!!!!!!!!!!!!!!!!!!!!!!!!!!!!!!!!!!!!!!!!!!!!!!!!!!!u!0!t!3!'!'!'!'!'!'!'!'!'!'!'!'!'!'!'!'!'!'!'!'!'!'!'!'!'!'!'!'!'!'!'!'!'!'!'!'",
"!'!'!'!'!'!'!'!'!'!'!'!'!'!'!'!'!'!'!'!'!'!'!'!'!'!'!'!'!'!'!'!'!'!'!'!'!;#l!6!7!!!!!!!!!!!!!!!!!!!!!!!!!!!!!!!!!!!!!!!!!!!!!!!!!!!!!!!!!!!!!!!!!!!!!!!!!!!!!!!!!!!!!!!!!!!!!!!!!7%n!5!;!'!'!'!'!'!'!'!'!'!'!'!'!'!'!'!'!'!'!'!'!'!'!'!'!'!'!'!'!'!'!'!'!'!'!'!'",
"!'!'!'!'!'!'!'!'!'!'!'!'!'!'!'!'!'!'!'!'!'!'!'!'!'!'!'!'!'!'!'!'!'!'!'!'!'!3#P!1!!!!!!!!!!!!!!!!!!!!!!!!!!!!!!!!!!!!!!!!!!!!!!!!!!!!!!!!!!!!!!!!!!!!!!!!!!!!!!!!!!!!!!!!!!!!!!!!!?$T!3!'!'!'!'!'!'!'!'!'!'!'!'!'!'!'!'!'!'!'!'!'!'!'!'!'!'!'!'!'!'!'!'!'!'!'!'!'",
"!'!'!'!'!'!'!'!'!'!'!'!'!'!'!'!'!'!'!'!'!'!'!'!'!'!'!'!'!'!'!'!'!'!'!'!'!'#6%Y#U!b!!!!!!!!!!!!!!!!!!!!!!!!!!!!!!!!!!!!!!!!!!!!!!!!!!!!!!!!!!!!!!!!!!!!!!!!!!!!!!!!!!!!!!!!!!!!!b#z$S!-!'!'!'!'!'!'!'!'!'!'!'!'!'!'!'!'!'!'!'!'!'!'!'!'!'!'!'!'!'!'!'!'!'!'!'!'!'",
"!'!'!'!'!'!'!'!'!'!'!'!'!'!'!'!'!'!'!'!'!'!'!'!'!'!'!'!'!'!'!'!'!'!'!'!'!'!'!(%]!N!!!!!!!!!!!!!!!!!!!!!!!!!!!!!!!!!!!!!!!!!!!!!!!!!!!!!!!!!!!!!!!!!!!!!!!!!!!!!!!!!!!!!!!!!!!!!N%o!&!'!'!'!'!'!'!'!'!'!'!'!'!'!'!'!'!'!'!'!'!'!'!'!'!'!'!'!'!'!'!'!'!'!'!'!'!'!'",
"!'!'!'!'!'!'!'!'!'!'!'!'!'!'!'!'!'!'!'!'!'!'!'!'!'!'!'!'!'!'!'!'!'!'!'!'!'!'!T$[#_!#!!!!!!!!!!!!!!!!!!!!!!!!!!!!!!!!!!!!!!!!!!!!!!!!!!!!!!!!!!!!!!!!!!!!!!!!!!!!!!!!!!!!!!!!!+!X$M!T!'!'!'!'!'!'!'!'!'!'!'!'!'!'!'!'!'!'!'!'!'!'!'!'!'!'!'!'!'!'!'!'!'!'!'!'!'!'",
"!'!'!'!'!'!'!'!'!'!'!'!'!'!'!'!'!'!'!'!'!'!'!'!'!'!'!'!'!'!'!'!'!'!'!'!'!'!'!{!B%7!@!!!!!!!!!!!!!!!!!!!!!!!!!!!!!!!!!!!!!!!!!!!!!!!!!!!!!!!!!!!!!!!!!!!!!!!!!!!!!!!!!!!!!!!!!@%p!P!{!'!'!'!'!'!'!'!'!'!'!'!'!'!'!'!'!'!'!'!'!'!'!'!'!'!'!'!'!'!'!'!'!'!'!'!'!'!'",
"!'!'!'!'!'!'!'!'!'!'!'!'!'!'!'!'!'!'!'!'!'!'!'!'!'!'!'!'!'!'!'!'!'!'!'!'!'!'!'!(%P!!!+!!!!!!!!!!!!!!!!!!!!!!!!!!!!!!!!!!!!!!!!!!!!!!!!!!!!!!!!!!!!!!!!!!!!!!!!!!!!!!!!!!!!!+!*#g!(!'!'!'!'!'!'!'!'!'!'!'!'!'!'!'!'!'!'!'!'!'!'!'!'!'!'!'!'!'!'!'!'!'!'!'!'!'!'!'",
"!'!'!'!'!'!'!'!'!'!'!'!'!'!'!'!'!'!'!'!'!'!'!'!'!'!'!'!'!'!'!'!'!'!'!'!'!'!'!'!B#I$~!E!!!!!!!!!!!!!!!!!!!!!!!!!!!!!!!!!!!!!!!!!!!!!!!!!!!!!!!!!!!!!!!!!!!!!!!!!!!!!!!!!!!!!7$Y!C!B!'!'!'!'!'!'!'!'!'!'!'!'!'!'!'!'!'!'!'!'!'!'!'!'!'!'!'!'!'!'!'!'!'!'!'!'!'!'!'",
"!'!'!'!'!'!'!'!'!'!'!'!'!'!'!'!'!'!'!'!'!'!'!'!'!'!'!'!'!'!'!'!'!'!'!'!'!'!'!'!'!3#/!E!!!!!!!!!!!!!!!!!!!!!!!!!!!!!!!!!!!!!!!!!!!!!!!!!!!!!!!!!!!!!!!!!!!!!!!!!!!!!!!!!!!!!E#<!3!'!'!'!'!'!'!'!'!'!'!'!'!'!'!'!'!'!'!'!'!'!'!'!'!'!'!'!'!'!'!'!'!'!'!'!'!'!'!'!'",
"!'!'!'!'!'!'!'!'!'!'!'!'!'!'!'!'!'!'!'!'!'!'!'!'!'!'!'!'!'!'!'!'!'!'!'!'!'!'!'!'!;$v%q!b!!!!!!!!!!!!!!!!!!!!!!!!!!!!!!!!!!!!!!!!!!!!!!!!!!!!!!!!!!!!!!!!!!!!!!!!!!!!!!!!!b%r#S!;!'!'!'!'!'!'!'!'!'!'!'!'!'!'!'!'!'!'!'!'!'!'!'!'!'!'!'!'!'!'!'!'!'!'!'!'!'!'!'!'",
"!'!'!'!'!'!'!'!'!'!'!'!'!'!'!'!'!'!'!'!'!'!'!'!'!'!'!'!'!'!'!'!'!'!'!'!'!'!'!'!'!'!(#:!@!!!!!!!!!!!!!!!!!!!!!!!!!!!!!!!!!!!!!!!!!!!!!!!!!!!!!!!!!!!!!!!!!!!!!!!!!!!!!!!!!@%s!(!'!'!'!'!'!'!'!'!'!'!'!'!'!'!'!'!'!'!'!'!'!'!'!'!'!'!'!'!'!'!'!'!'!'!'!'!'!'!'!'!'",
"!'!'!'!'!'!'!'!'!'!'!'!'!'!'!'!'!'!'!'!'!'!'!'!'!'!'!'!'!'!'!'!'!'!'!'!'!'!'!'!'!'!-%t$J!0!!!!!!!!!!!!!!!!!!!!!!!!!!!!!!!!!!!!!!!!!!!!!!!!!!!!!!!!!!!!!!!!!!!!!!!!!!!!!0$K$P!T!'!'!'!'!'!'!'!'!'!'!'!'!'!'!'!'!'!'!'!'!'!'!'!'!'!'!'!'!'!'!'!'!'!'!'!'!'!'!'!'!'",
"!'!'!'!'!'!'!'!'!'!'!'!'!'!'!'!'!'!'!'!'!'!'!'!'!'!'!'!'!'!'!'!'!'!'!'!'!'!'!'!'!'!'!;%E!?!!!!!!!!!!!!!!!!!!!!!!!!!!!!!!!!!!!!!!!!!!!!!!!!!!!!!!!!!!!!!!!!!!!!!!!!!!!!!?#L$N!{!'!'!'!'!'!'!'!'!'!'!'!'!'!'!'!'!'!'!'!'!'!'!'!'!'!'!'!'!'!'!'!'!'!'!'!'!'!'!'!'!'",
"!'!'!'!'!'!'!'!'!'!'!'!'!'!'!'!'!'!'!'!'!'!'!'!'!'!'!'!'!'!'!'!'!'!'!'!'!'!'!'!'!'!'!3%P!*!+!!!!!!!!!!!!!!!!!!!!!!!!!!!!!!!!!!!!!!!!!!!!!!!!!!!!!!!!!!!!!!!!!!!!!!!!!+!+#g!3!'!'!'!'!'!'!'!'!'!'!'!'!'!'!'!'!'!'!'!'!'!'!'!'!'!'!'!'!'!'!'!'!'!'!'!'!'!'!'!'!'!'"
};
