/* XPM */
static char *verge_xpm[] = {
"64 64 232 2",
"!! c #34BDE2",
"!# c #34BEE3",
"!$ c #34BFE4",
"!% c #323768",
"!& c #310033",
"!' c #310439",
"!( c #310237",
"!) c #31164A",
"!* c #34AFD6",
"!+ c #34B0D6",
"!, c #31174B",
"!- c #310137",
"!. c #310034",
"!/ c #323364",
"!0 c #34BFE3",
"!1 c #34C4E8",
"!2 c #3378A3",
"!3 c #310135",
"!4 c #337BA6",
"!5 c #337DA7",
"!6 c #33749F",
"!7 c #34B4D9",
"!8 c #311D50",
"!9 c #310136",
"!: c #323263",
"!; c #311A4D",
"!< c #34B1D7",
"!= c #34C5E9",
"!> c #32628F",
"!? c #310032",
"!@ c #310338",
"!A c #31053A",
"!B c #3393BC",
"!C c #34C2E7",
"!D c #3394BD",
"!E c #31063A",
"!F c #325E8B",
"!G c #34C0E5",
"!H c #34A6CD",
"!I c #310F43",
"!J c #324B7A",
"!K c #34C3E8",
"!L c #324C7B",
"!M c #310D41",
"!N c #34A3CA",
"!O c #34C1E5",
"!P c #311044",
"!Q c #34A7CE",
"!R c #34A8CF",
"!S c #311145",
"!T c #324776",
"!U c #336693",
"!V c #336894",
"!W c #3391BA",
"!X c #323566",
"!Y c #312154",
"!Z c #34B6DC",
"![ c #34B7DC",
"!] c #312255",
"!^ c #323163",
"!_ c #34BEE2",
"!` c #3380AA",
"!a c #310134",
"!b c #3381AB",
"!c c #3382AC",
"!d c #337CA7",
"!e c #34C4E9",
"!f c #322255",
"!g c #323868",
"!h c #34C0E4",
"!i c #323969",
"!j c #311F52",
"!k c #34B5DB",
"!l c #336995",
"!m c #31073C",
"!n c #3399C1",
"!o c #34C2E6",
"!p c #339AC2",
"!q c #31083C",
"!r c #336592",
"!s c #34ABD1",
"!t c #311347",
"!u c #32517F",
"!v c #325381",
"!w c #325280",
"!x c #311447",
"!y c #34ABD2",
"!z c #34ACD3",
"!{ c #311448",
"!| c #324E7D",
"!} c #34B8DD",
"!~ c #34C1E6",
"#! c #349AC2",
"## c #31083D",
"#$ c #336D98",
"#% c #336E9A",
"#& c #31073B",
"#' c #3497C0",
"#( c #34B9DE",
"#) c #324F7E",
"#* c #323C6C",
"#+ c #312658",
"#, c #34BADF",
"#- c #312759",
"#. c #323869",
"#/ c #31093D",
"#0 c #349FC7",
"#1 c #3387B0",
"#2 c #310236",
"#3 c #3388B1",
"#4 c #3383AD",
"#5 c #34A0C8",
"#6 c #310A3E",
"#7 c #325886",
"#8 c #31285A",
"#9 c #310035",
"#: c #323D6D",
"#; c #323E6E",
"#< c #312557",
"#= c #34B8DE",
"#> c #325987",
"#? c #34AED4",
"#@ c #33709C",
"#A c #349DC5",
"#B c #349FC6",
"#C c #336D99",
"#D c #34AFD5",
"#E c #336F9A",
"#F c #31184B",
"#G c #311549",
"#H c #34ADD3",
"#I c #322759",
"#J c #34B9DF",
"#K c #31184C",
"#L c #325684",
"#M c #32285A",
"#N c #3385AF",
"#O c #34A0C7",
"#P c #310B3F",
"#Q c #33739E",
"#R c #323A6B",
"#S c #324372",
"#T c #322B5D",
"#U c #34BCE1",
"#V c #322C5E",
"#W c #323F6F",
"#X c #34C3E7",
"#Y c #338DB6",
"#Z c #310438",
"#[ c #310339",
"#] c #310337",
"#^ c #3392BA",
"#_ c #338AB4",
"#` c #322D5F",
"#a c #324978",
"#b c #34BBE0",
"#c c #311246",
"#d c #34AAD0",
"#e c #3377A3",
"#f c #3374A0",
"#g c #34AAD1",
"#h c #34B3D8",
"#i c #311C4F",
"#j c #322154",
"#k c #33618D",
"#l c #325D8B",
"#m c #337FA9",
"#n c #34A5CC",
"#o c #310E43",
"#p c #323465",
"#q c #324979",
"#r c #3394BC",
"#s c #310539",
"#t c #3395BD",
"#u c #324A79",
"#v c #310E42",
"#w c #337EA9",
"#x c #33608D",
"#y c #33628F",
"#z c #34B3D9",
"#{ c #3377A2",
"#| c #3379A4",
"#} c #322E5F",
"#~ c #34BCE2",
"$! c #322F60",
"$# c #3398C0",
"$$ c #338EB7",
"$% c #324474",
"$& c #34A1C8",
"$' c #310C40",
"$( c #325B88",
"$) c #336F9B",
"$* c #33729D",
"$+ c #325584",
"$, c #31295B",
"$- c #3386B0",
"$. c #349EC5",
"$/ c #324171",
"$0 c #32406F",
"$1 c #338CB5",
"$2 c #338AB3",
"$3 c #349BC3",
"$4 c #325482",
"$5 c #3376A1",
"$6 c #34ACD2",
"$7 c #336996",
"$8 c #34B2D8",
"$9 c #311B4E",
"$: c #336B97",
"$; c #312254",
"$< c #325F8C",
"$= c #325D8A",
"$> c #34B7DD",
"$? c #312356",
"$@ c #34A4CB",
"$A c #310238",
"$B c #324877",
"$C c #324676",
"$D c #323667",
"$E c #3392BB",
"$F c #3396BE",
"$G c #336490",
"$H c #34B4DA",
"$I c #311E51",
"$J c #337AA5",
"$K c #323061",
"$L c #338FB8",
"$M c #324473",
"$N c #324574",
"$O c #34A2C9",
"$P c #325C89",
"$Q c #34B5DA",
"!!!!!!!!!!!!!#!$!%!&!'!'!'!'!'!'!'!'!'!'!(!)!*!$!!!!!!!!!!!!!!!!!!!!!!!!!!!!!!!!!$!+!,!-!'!'!'!'!'!'!'!'!'!'!.!/!0!#!!!!!!!!!!!!",
"!!!!!!!!!!!!!!!1!2!.!'!'!'!'!'!'!'!'!'!'!'!3!4!1!!!!!!!!!!!!!!!!!!!!!!!!!!!!!!!!!1!5!3!'!'!'!'!'!'!'!'!'!'!'!&!6!1!!!!!!!!!!!!!!",
"!!!!!!!!!!!!!!!$!7!8!9!'!'!'!'!'!'!'!'!'!'!.!:!#!!!!!!!!!!!!!!!!!!!!!!!!!!!!!!!!!#!/!.!'!'!'!'!'!'!'!'!'!'!9!;!<!$!!!!!!!!!!!!!!",
"!!!!!!!!!!!!!!!!!=!>!?!'!'!'!'!'!'!'!'!'!'!@!A!B!C!!!!!!!!!!!!!!!!!!!!!!!!!!!!!C!D!E!@!'!'!'!'!'!'!'!'!'!'!?!F!=!!!!!!!!!!!!!!!!",
"!!!!!!!!!!!!!!!!!G!H!I!(!'!'!'!'!'!'!'!'!'!'!?!J!K!!!!!!!!!!!!!!!!!!!!!!!!!!!!!1!L!?!'!'!'!'!'!'!'!'!'!'!(!M!N!O!!!!!!!!!!!!!!!!",
"!!!!!!!!!!!!!!!!!!!K!J!?!'!'!'!'!'!'!'!'!'!'!(!P!Q!G!!!!!!!!!!!!!!!!!!!!!!!!!G!R!S!(!'!'!'!'!'!'!'!'!'!'!?!T!C!!!!!!!!!!!!!!!!!!",
"!!!!!!!!!!!!!!!!!!!C!D!E!@!'!'!'!'!'!'!'!'!'!'!?!U!=!!!!!!!!!!!!!!!!!!!!!!!!!=!V!?!'!'!'!'!'!'!'!'!'!'!@!'!W!C!!!!!!!!!!!!!!!!!!",
"!!!!!!!!!!!!!!!!!!!!!$!X!.!'!'!'!'!'!'!'!'!'!'!3!Y!Z!#!!!!!!!!!!!!!!!!!!!!!#![!]!3!'!'!'!'!'!'!'!'!'!'!.!^!_!_!!!!!!!!!!!!!!!!!!",
"!!!!!!!!!!!!!!!!!!!!!1!`!a!'!'!'!'!'!'!'!'!'!'!'!3!b!1!!!!!!!!!!!!!!!!!!!!!1!c!3!'!'!'!'!'!'!'!'!'!'!'!.!d!e!!!!!!!!!!!!!!!!!!!!",
"!!!!!!!!!!!!!!!!!!!!!#![!f!3!'!'!'!'!'!'!'!'!'!'!&!g!h!!!!!!!!!!!!!!!!!!!!!G!i!&!'!'!'!'!'!'!'!'!'!'!9!j!k!$!!!!!!!!!!!!!!!!!!!!",
"!!!!!!!!!!!!!!!!!!!!!!!=!l!?!'!'!'!'!'!'!'!'!'!'!@!m!n!o!!!!!!!!!!!!!!!!!o!p!q!@!'!'!'!'!'!'!'!'!'!'!?!r!=!!!!!!!!!!!!!!!!!!!!!!",
"!!!!!!!!!!!!!!!!!!!!!!!h!s!t!(!'!'!'!'!'!'!'!'!'!'!?!u!1!!!!!!!!!!!!!!!!!1!v!?!'!'!'!'!'!'!'!'!'!'!(!S!R!G!!!!!!!!!!!!!!!!!!!!!!",
"!#!!!!!!!!!!!!!!!!!!!!!!!1!w!?!'!'!'!'!'!'!'!'!'!'!(!x!y!h!!!!!!!!!!!!!h!z!{!(!'!'!'!'!'!'!'!'!'!'!?!|!K!!!!!!!!!!!!!!!!!!!!!!!#",
"!}!#!!!!!!!!!!!!!!!!!!!!!~#!##!@!'!'!'!'!'!'!'!'!'!'!?#$!=!!!!!!!!!!!!!=#%!&!'!'!'!'!'!'!'!'!'!'!@#&#'!o!!!!!!!!!!!!!!!!!!!!!##(",
"#)!G!!!!!!!!!!!!!!!!!!!!!!!G#*!&!'!'!'!'!'!'!'!'!'!'!3#+#(!#!!!!!!!!!##,#-!3!'!'!'!'!'!'!'!'!'!'!&#.!h!!!!!!!!!!!!!!!!!!!!!!!G!u",
"#/#0!~!!!!!!!!!!!!!!!!!!!!!K#1#2!'!'!'!'!'!'!'!'!'!'!'#2#1!K!!!!!!!!!K#3#2!'!'!'!'!'!'!'!'!'!'!'!3#4!1!!!!!!!!!!!!!!!!!!!!!~#5#6",
"!?#7!=!!!!!!!!!!!!!!!!!!!!!##,#8#9!'!'!'!'!'!'!'!'!'!'!&#:!~!!!!!!!!!~#;!&!'!'!'!'!'!'!'!'!'!'!3#<#=!#!!!!!!!!!!!!!!!!!!!!!=#>!?",
"#2!)#?!$!!!!!!!!!!!!!!!!!!!!!=#@!&!'!'!'!'!'!'!'!'!'!'!@#6#A!~!!!!!~#B#6!@!'!'!'!'!'!'!'!'!'!'!?#C!=!!!!!!!!!!!!!!!!!!!!!$#D!,#2",
"!'!&#E!=!!!!!!!!!!!!!!!!!!!!!$#D#F!9!'!'!'!'!'!'!'!'!'!'!?#7!e!!!!!=#>!?!'!'!'!'!'!'!'!'!'!'!(#G#H!h!!!!!!!!!!!!!!!!!!!!!=#@!&!'",
"!'!3#I#J!#!!!!!!!!!!!!!!!!!!!!!=#>!?!'!'!'!'!'!'!'!'!'!'#2!,#D!$!$!+#K!9!'!'!'!'!'!'!'!'!'!'!?#L!e!!!!!!!!!!!!!!!!!!!!!##,#M#9!'",
"!'!'#2#N!K!!!!!!!!!!!!!!!!!!!!!~#O#P!@!'!'!'!'!'!'!'!'!'!'!&#Q!e!e!6!&!'!'!'!'!'!'!'!'!'!'!@#6#A!~!!!!!!!!!!!!!!!!!!!!!K#1#2!'!'",
"!'!'!&#R!G!!!!!!!!!!!!!!!!!!!!!!!o#S!&!'!'!'!'!'!'!'!'!'!'#9#T#U!!#V!.!'!'!'!'!'!'!'!'!'!'!&#W!~!!!!!!!!!!!!!!!!!!!!!!!O#*!&!'!'",
"!'!'!@!q!n!o!!!!!!!!!!!!!!!!!!!!#X#Y#Z!@!'!'!'!'!'!'!'!'!'#[#]#^!B#Z#[!'!'!'!'!'!'!'!'!'#[#]#_!K!!!!!!!!!!!!!!!!!!!!!~!p##!@!'!'",
"!'!'!'!?!u!1!!!!!!!!!!!!!!!!!!!!!##U#`!.!'!'!'!'!'!'!'!'!'!'!&!T#a!&!'!'!'!'!'!'!'!'!'!'!.#T#b!#!!!!!!!!!!!!!!!!!!!!!1!w!?!'!'!'",
"!'!'!'!(#c#d!h!!!!!!!!!!!!!!!!!!!!!e#e!&!'!'!'!'!'!'!'!'!'!'!@#/#/!@!'!'!'!'!'!'!'!'!'!'!&#f!=!!!!!!!!!!!!!!!!!!!!!h#g!t!(!'!'!'",
"!'!'!'!'!?!V!=!!!!!!!!!!!!!!!!!!!!!$#h#i!9!'!'!'!'!'!'!'!'!'!'!@!@!'!'!'!'!'!'!'!'!'!'!9!;!<!$!!!!!!!!!!!!!!!!!!!!!=!l!?!'!'!'!'",
"!'!'!'!'!3#j!Z!#!!!!!!!!!!!!!!!!!!!!!=#k!?!'!'!'!'!'!'!'!'!'!'!'!'!'!'!'!'!'!'!'!'!'!'!?#l!=!!!!!!!!!!!!!!!!!!!!!#![!f!3!'!'!'!'",
"!'!'!'!'!'!a#m!1!!!!!!!!!!!!!!!!!!!!!G#n#o!(!'!'!'!'!'!'!'!'!'!'!'!'!'!'!'!'!'!'!'!'!(!M!N!O!!!!!!!!!!!!!!!!!!!!!1!`!a!'!'!'!'!'",
"!'!'!'!'!'!.#p!#!!!!!!!!!!!!!!!!!!!!!!!K#q!?!'!'!'!'!'!'!'!'!'!'!'!'!'!'!'!'!'!'!'!'!?!T#X!!!!!!!!!!!!!!!!!!!!!!!$!X!.!'!'!'!'!'",
"!'!'!'!'!'!@!A!B!C!!!!!!!!!!!!!!!!!!!!!C#r!E!@!'!'!'!'!'!'!'!'!'!'!'!'!'!'!'!'!'!'#[#s!W#X!!!!!!!!!!!!!!!!!!!!!C#t!E!@!'!'!'!'!'",
"!'!'!'!'!'!'!?#u!K!!!!!!!!!!!!!!!!!!!!!!!##p!.!'!'!'!'!'!'!'!'!'!'!'!'!'!'!'!'!'!'!.!:!#!#!!!!!!!!!!!!!!!!!!!!!K!J!?!'!'!'!'!'!'",
"!'!'!'!'!'!'!(#v#n!G!!!!!!!!!!!!!!!!!!!!!1#w!3!'!'!'!'!'!'!'!'!'!'!'!'!'!'!'!'!'!'!.!d!e!!!!!!!!!!!!!!!!!!!!!G!H!I!(!'!'!'!'!'!'",
"!'!'!'!'!'!'!'!?#x!=!!!!!!!!!!!!!!!!!!!!!#!Z!Y!3!'!'!'!'!'!'!'!'!'!'!'!'!'!'!'!'!9!j!k!0!!!!!!!!!!!!!!!!!!!!!=#y!?!'!'!'!'!'!'!'",
"!'!'!'!'!'!'!'!9#i#z!$!!!!!!!!!!!!!!!!!!!!!=!V!?!'!'!'!'!'!'!'!'!'!'!'!'!'!'!'!'!?!r!=!!!!!!!!!!!!!!!!!!!!!$#z!8!9!'!'!'!'!'!'!'",
"!'!'!'!'!'!'!'!'!&#{!e!!!!!!!!!!!!!!!!!!!!!G#d#c!(!'!'!'!'!'!'!'!'!'!'!'!'!'!'!(!S!R!G!!!!!!!!!!!!!!!!!!!!!e#|!.!'!'!'!'!'!'!'!'",
"!'!'!'!'!'!'!'!'!.#}#U!#!!!!!!!!!!!!!!!!!!!!!1!u!?!'!'!'!'!'!'!'!'!'!'!'!'!'!'!?!|!1!!!!!!!!!!!!!!!!!!!!!##~$!!.!'!'!'!'!'!'!'!'",
"!'!'!'!'!'!'!'!'#[#Z#Y#X!!!!!!!!!!!!!!!!!!!!!o!p!q!@!'!'!'!'!'!'!'!'!'!'!'!'!@#&$#!o!!!!!!!!!!!!!!!!!!!!#X$$#Z#[!'!'!'!'!'!'!'!'",
"!'!'!'!'!'!'!'!'!'!&#S!C!!!!!!!!!!!!!!!!!!!!!!!G#R!&!'!'!'!'!'!'!'!'!'!'!'!'!&#.!h!!!!!!!!!!!!!!!!!!!!!!!C$%!&!'!'!'!'!'!'!'!'!'",
"!'!'!'!'!'!'!'!'!'!@#P#O!~!!!!!!!!!!!!!!!!!!!!!K#N#2!'!'!'!'!'!'!'!'!'!'!'!'!3#4!1!!!!!!!!!!!!!!!!!!!!!O$&$'!@!'!'!'!'!'!'!'!'!'",
"!'!'!'!'!'!'!'!'!'!'!?#>!=!!!!!!!!!!!!!!!!!!!!!##J#-!3!'!'!'!'!'!'!'!'!'!'!3#<!}!#!!!!!!!!!!!!!!!!!!!!!=$(!?!'!'!'!'!'!'!'!'!'!'",
"!'!'!'!'!'!'!'!'!'!'!9!,#D!$!!!!!!!!!!!!!!!!!!!!!=$)!&!'!'!'!'!'!'!'!'!'!'!?#C!=!!!!!!!!!!!!!!!!!!!!!$!+#F!9!'!'!'!'!'!'!'!'!'!'",
"!'!'!'!'!'!'!'!'!'!'!'!&#@!=!!!!!!!!!!!!!!!!!!!!!$#?!)!(!'!'!'!'!'!'!'!'!(#G#H!$!!!!!!!!!!!!!!!!!!!!!=$*!&!'!'!'!'!'!'!'!'!'!'!'",
"!'!'!'!'!'!'!'!'!'!'!'!3#8#,!#!!!!!!!!!!!!!!!!!!!!!=#7!?!'!'!'!'!'!'!'!'!?$+!e!!!!!!!!!!!!!!!!!!!!!##,$,#9!'!'!'!'!'!'!'!'!'!'!'",
"!'!'!'!'!'!'!'!'!'!'!'!'#2$-!K!!!!!!!!!!!!!!!!!!!!!~#0#P!@!'!'!'!'!'!'!@#6$.!~!!!!!!!!!!!!!!!!!!!!!K#3#2!'!'!'!'!'!'!'!'!'!'!'!'",
"!'!'!'!'!'!'!'!'!'!'!'!'!&#*!O!!!!!!!!!!!!!!!!!!!!!!!o$/!&!'!'!'!'!'!'!&$0!~!!!!!!!!!!!!!!!!!!!!!!!O#:!&!'!'!'!'!'!'!'!'!'!'!'!'",
"!'!'!'!'!'!'!'!'!'!'!'!'!@###!!~!!!!!!!!!!!!!!!!!!!!#X$1#]#[!'!'!'!'#[#]$2#X!!!!!!!!!!!!!!!!!!!!!~$3#/!@!'!'!'!'!'!'!'!'!'!'!'!'",
"!'!'!'!'!'!'!'!'!'!'!'!'!'!?!w!1!!!!!!!!!!!!!!!!!!!!!##U#V!.!'!'!'!'!.#T#b!#!!!!!!!!!!!!!!!!!!!!!1$4!?!'!'!'!'!'!'!'!'!'!'!'!'!'",
"!'!'!'!'!'!'!'!'!'!'!'!'!'!(!t!s!G!!!!!!!!!!!!!!!!!!!!!e$5!&!'!'!'!'!&#f!=!!!!!!!!!!!!!!!!!!!!!G$6!x!(!'!'!'!'!'!'!'!'!'!'!'!'!'",
"!'!'!'!'!'!'!'!'!'!'!'!'!'!'!?$7!=!!!!!!!!!!!!!!!!!!!!!$$8$9!9!'!'!9!;!<!$!!!!!!!!!!!!!!!!!!!!!=$:!?!'!'!'!'!'!'!'!'!'!'!'!'!'!'",
"!'!'!'!'!'!'!'!'!'!'!'!'!'!'!3$;![!#!!!!!!!!!!!!!!!!!!!!!=$<!?!'!'!?$=!=!!!!!!!!!!!!!!!!!!!!!#$>$?!3!'!'!'!'!'!'!'!'!'!'!'!'!'!'",
"!'!'!'!'!'!'!'!'!'!'!'!'!'!'!'!3!`!1!!!!!!!!!!!!!!!!!!!!!O$@#v!($A!M!N!O!!!!!!!!!!!!!!!!!!!!!1!b!3!'!'!'!'!'!'!'!'!'!'!'!'!'!'!'",
"!'!'!'!'!'!'!'!'!'!'!'!'!'!'!'!&!X!$!!!!!!!!!!!!!!!!!!!!!!#X$B!?!&$C#X!!!!!!!!!!!!!!!!!!!!!!!$$D!&!'!'!'!'!'!'!'!'!'!'!'!'!'!'!'",
"!'!'!'!'!'!'!'!'!'!'!'!'!'!'!'!@!E#t!C!!!!!!!!!!!!!!!!!!!!!C$E#s#Z!W!C!!!!!!!!!!!!!!!!!!!!!o$F!E!@!'!'!'!'!'!'!'!'!'!'!'!'!'!'!'",
"!'!'!'!'!'!'!'!'!'!'!'!'!'!'!'!'!?!J!K!!!!!!!!!!!!!!!!!!!!!_!##`#V!#!_!!!!!!!!!!!!!!!!!!!!!K!L!?!'!'!'!'!'!'!'!'!'!'!'!'!'!'!'!'",
"!'!'!'!'!'!'!'!'!'!'!'!'!'!'!'!'!(!I!H!G!!!!!!!!!!!!!!!!!!!!!1#|!2!1!!!!!!!!!!!!!!!!!!!!!G!Q!P!(!'!'!'!'!'!'!'!'!'!'!'!'!'!'!'!'",
"!'!'!'!'!'!'!'!'!'!'!'!'!'!'!'!'!'!?#y!=!!!!!!!!!!!!!!!!!!!!!##=#=!#!!!!!!!!!!!!!!!!!!!!!=$G!?!'!'!'!'!'!'!'!'!'!'!'!'!'!'!'!'!'",
"!'!'!'!'!'!'!'!'!'!'!'!'!'!'!'!'!'!9!8#z!$!!!!!!!!!!!!!!!!!!!!!#!#!!!!!!!!!!!!!!!!!!!!!$$H$I!9!'!'!'!'!'!'!'!'!'!'!'!'!'!'!'!'!'",
"!'!'!'!'!'!'!'!'!'!'!'!'!'!'!'!'!'!'!.#|!e!!!!!!!!!!!!!!!!!!!!!!!!!!!!!!!!!!!!!!!!!!!!!e$J!.!'!'!'!'!'!'!'!'!'!'!'!'!'!'!'!'!'!'",
"!'!'!'!'!'!'!'!'!'!'!'!'!'!'!'!'!'!'!.$!!!!#!!!!!!!!!!!!!!!!!!!!!!!!!!!!!!!!!!!!!!!!!#!!$K!.!'!'!'!'!'!'!'!'!'!'!'!'!'!'!'!'!'!'",
"!'!'!'!'!'!'!'!'!'!'!'!'!'!'!'!'!'!'!@#Z$$#X!!!!!!!!!!!!!!!!!!!!!!!!!!!!!!!!!!!!!!!!#X$L#Z!@!'!'!'!'!'!'!'!'!'!'!'!'!'!'!'!'!'!'",
"!'!'!'!'!'!'!'!'!'!'!'!'!'!'!'!'!'!'!'!&$M!C!!!!!!!!!!!!!!!!!!!!!!!!!!!!!!!!!!!!!!!!!C$N!&!'!'!'!'!'!'!'!'!'!'!'!'!'!'!'!'!'!'!'",
"!'!'!'!'!'!'!'!'!'!'!'!'!'!'!'!'!'!'!'$A$'$&!~!!!!!!!!!!!!!!!!!!!!!!!!!!!!!!!!!!!!!O$O$'$A!'!'!'!'!'!'!'!'!'!'!'!'!'!'!'!'!'!'!'",
"!'!'!'!'!'!'!'!'!'!'!'!'!'!'!'!'!'!'!'!'!?$(!1!!!!!!!!!!!!!!!!!!!!!!!!!!!!!!!!!!!!!1$P!?!'!'!'!'!'!'!'!'!'!'!'!'!'!'!'!'!'!'!'!'",
"!'!'!'!'!'!'!'!'!'!'!'!'!'!'!'!'!'!'!'!'!9!8$Q!#!!!!!!!!!!!!!!!!!!!!!!!!!!!!!!!!!#!k$I!9!'!'!'!'!'!'!'!'!'!'!'!'!'!'!'!'!'!'!'!'"
};
